;FLAVOR:Marlin
;TIME:7222
;Filament used: 4.65786m
;Layer height: 0.16
;MINX:68.179
;MINY:81.261
;MINZ:0.2
;MAXX:166.807
;MAXY:153.739
;MAXZ:8.92
;Generated with Cura_SteamEngine 4.8.0
M82 ;absolute extrusion mode
; Ender 3 Custom Start G-code
M117 Getting the bed up to temp!
M140 S50 ; Set Heat Bed temperature
M190 S50 ; Wait for Heat Bed temperature
M117 Pre-heating the extruder!
M104 S160; start warming extruder to 160
G28 ; Home all axes
M117 Auto bed-level GO!
G29 ; Auto bed-level (BL-Touch)
G92 E0 ; Reset Extruder
M117 Getting the extruder up to temp!
M104 S200 ; Set Extruder temperature
M109 S200 ; Wait for Extruder temperature
G1 Z1.0 F3000 ; move z up little to prevent scratching of surface
G1 X0.1 Y20 Z0.3 F5000.0 ; move to start-line position
M117 LET THE PURGE BEGIN!
G1 X0.1 Y200.0 Z0.3 F1500.0 E15 ; draw 1st line
G1 X0.4 Y200.0 Z0.3 F5000.0 ; move to side a little
G1 X0.4 Y20 Z0.3 F1500.0 E30 ; draw 2nd line
G92 E0 ; reset extruder
G1 Z1.0 F3000 ; move z up little to prevent scratching of surface
M117 Autobots! Roll Out!
; End of custom start GCode
G92 E0
G92 E0
G1 F2700 E-5
;LAYER_COUNT:47
;LAYER:0
M107
G0 F6000 X73.28 Y84.861 Z0.2
;TYPE:SKIRT
G1 F2700 E0
G1 F1200 X74.016 Y84.28 E0.03119
G1 X74.799 Y83.764 E0.06238
G1 X75.623 Y83.316 E0.09357
G1 X76.483 Y82.941 E0.12478
G1 X77.371 Y82.639 E0.15597
G1 X78.282 Y82.415 E0.18718
G1 X79.208 Y82.269 E0.21835
G1 X80.126 Y82.203 E0.24897
G1 X80.426 Y82.194 E0.25895
G1 X80.755 Y82.189 E0.26989
G1 X88.485 Y82.189 E0.52699
G1 X90.062 Y82.202 E0.57945
G1 X90.767 Y82.199 E0.6029
G1 X92.085 Y82.188 E0.64673
G1 X96.929 Y82.189 E0.80785
G1 X97.626 Y82.199 E0.83103
G1 X98.534 Y82.25 E0.86128
G1 X99.054 Y82.301 E0.87866
G1 X101.697 Y82.525 E0.96688
G1 X104.213 Y82.666 E1.05069
G1 X106.738 Y82.737 E1.13471
G1 X109.263 Y82.737 E1.21869
G1 X111.748 Y82.666 E1.30137
G1 X114.281 Y82.521 E1.38576
G1 X116.781 Y82.308 E1.46921
G1 X119.284 Y82.023 E1.553
G1 X121.776 Y81.667 E1.63673
G1 X122.621 Y81.525 E1.66522
G1 X123.467 Y81.396 E1.69369
G1 X124.399 Y81.294 E1.72487
G1 X124.967 Y81.271 E1.74378
G1 X125.751 Y81.261 E1.76986
G1 X146.607 Y81.262 E2.46353
G1 X147.305 Y81.272 E2.48675
G1 X148.241 Y81.326 E2.51793
G1 X149.169 Y81.458 E2.54911
G1 X150.083 Y81.67 E2.58031
G1 X150.975 Y81.959 E2.6115
G1 X151.84 Y82.322 E2.6427
G1 X152.67 Y82.758 E2.67388
G1 X153.461 Y83.263 E2.7051
G1 X154.205 Y83.834 E2.73629
G1 X154.898 Y84.466 E2.76749
G1 X155.535 Y85.154 E2.79867
G1 X156.11 Y85.895 E2.82987
G1 X156.621 Y86.681 E2.86105
G1 X157.063 Y87.509 E2.89226
G1 X157.432 Y88.371 E2.92345
G1 X157.727 Y89.261 E2.95464
G1 X157.945 Y90.173 E2.98582
G1 X158.107 Y91.333 E3.02478
G1 X158.165 Y92.025 E3.04788
G1 X158.278 Y93.579 E3.0997
G1 X158.532 Y96.109 E3.18427
G1 X158.853 Y98.586 E3.26735
G1 X159.248 Y101.092 E3.35172
G1 X159.714 Y103.579 E3.43588
G1 X160.242 Y106.015 E3.51879
G1 X160.834 Y108.417 E3.60107
G1 X161.518 Y110.89 E3.68641
G1 X162.265 Y113.317 E3.77087
G1 X163.057 Y115.658 E3.85306
G1 X163.938 Y118.034 E3.93735
G1 X165.387 Y121.562 E4.0642
G1 X165.893 Y122.723 E4.10632
G1 X166.231 Y123.598 E4.13752
G1 X166.492 Y124.499 E4.16872
G1 X166.676 Y125.418 E4.19989
G1 X166.781 Y126.35 E4.23109
G1 X166.807 Y127.288 E4.2623
G1 X166.752 Y128.224 E4.29348
G1 X166.618 Y129.152 E4.32467
G1 X166.405 Y130.066 E4.35588
G1 X166.001 Y131.251 E4.39752
G1 X165.44 Y132.632 E4.4471
G1 X164.709 Y134.414 E4.51116
G1 X163.823 Y136.759 E4.59454
G1 X162.993 Y139.161 E4.67907
G1 X162.244 Y141.541 E4.76205
G1 X162.096 Y142.058 E4.77994
G1 X161.867 Y142.81 E4.80609
G1 X161.553 Y143.694 E4.83729
G1 X161.166 Y144.548 E4.86847
G1 X160.707 Y145.366 E4.89967
G1 X160.181 Y146.142 E4.93085
G1 X159.59 Y146.871 E4.96206
G1 X158.939 Y147.546 E4.99325
G1 X158.233 Y148.163 E5.02444
G1 X157.477 Y148.718 E5.05563
G1 X156.676 Y149.207 E5.08685
G1 X155.837 Y149.626 E5.11804
G1 X155.33 Y149.837 E5.1363
G1 X154.797 Y150.042 E5.1553
G1 X153.069 Y150.68 E5.21656
G1 X150.723 Y151.624 E5.30067
G1 X148.438 Y152.62 E5.38358
G1 X148.091 Y152.765 E5.39608
G1 X147.209 Y153.084 E5.42728
G1 X146.303 Y153.326 E5.45847
G1 X145.38 Y153.49 E5.48965
G1 X144.266 Y153.582 E5.52683
G1 X143.948 Y153.592 E5.53741
G1 X143.602 Y153.597 E5.54892
G1 X138.992 Y153.596 E5.70225
G1 X138.284 Y153.586 E5.7258
G1 X137.662 Y153.56 E5.7465
G1 X137.084 Y153.519 E5.76578
G1 X134.583 Y153.377 E5.84909
G1 X132.025 Y153.305 E5.93421
G1 X129.536 Y153.305 E6.01699
G1 X126.978 Y153.377 E6.1021
G1 X124.486 Y153.519 E6.18512
G1 X122.795 Y153.654 E6.24155
G1 X122.418 Y153.687 E6.25413
G1 X121.762 Y153.726 E6.27599
G1 X121.358 Y153.735 E6.28943
G1 X120.961 Y153.739 E6.30263
G1 X111.888 Y153.738 E6.6044
G1 X111.184 Y153.728 E6.62782
G1 X110.247 Y153.675 E6.65904
G1 X109.319 Y153.542 E6.69022
G1 X108.405 Y153.33 E6.72142
G1 X107.513 Y153.042 E6.7526
G1 X106.648 Y152.678 E6.78381
G1 X105.581 Y152.101 E6.82416
G1 X105.271 Y151.909 E6.83629
G1 X103.352 Y150.692 E6.91187
G1 X101.166 Y149.39 E6.99649
G1 X98.955 Y148.157 E7.08069
G1 X96.738 Y147 E7.16387
G1 X96.069 Y146.662 E7.1888
G1 X95.251 Y146.204 E7.21998
G1 X94.474 Y145.677 E7.2512
G1 X93.757 Y145.098 E7.28186
G1 X92.811 Y144.263 E7.32382
G1 X92.488 Y143.971 E7.33831
G1 X90.579 Y142.34 E7.42182
G1 X88.601 Y140.743 E7.50637
G1 X86.634 Y139.247 E7.58857
G1 X83.644 Y137.128 E7.71046
G1 X78.223 Y133.444 E7.92845
G1 X77.63 Y133.029 E7.95253
G1 X76.885 Y132.459 E7.98373
G1 X76.192 Y131.828 E8.0149
G1 X75.554 Y131.14 E8.04611
G1 X74.978 Y130.4 E8.0773
G1 X74.467 Y129.613 E8.10851
G1 X74.025 Y128.786 E8.13969
G1 X73.654 Y127.925 E8.17088
G1 X73.359 Y127.035 E8.20206
G1 X73.14 Y126.123 E8.23326
G1 X73 Y125.195 E8.26447
G1 X72.953 Y124.617 E8.28376
G1 X72.924 Y124.086 E8.30145
G1 X72.889 Y123.129 E8.3333
G1 X72.728 Y120.595 E8.41775
G1 X72.499 Y118.116 E8.50055
G1 X72.199 Y115.62 E8.58417
G1 X71.823 Y113.113 E8.66848
G1 X71.38 Y110.631 E8.75234
G1 X70.877 Y108.202 E8.83484
G1 X70.284 Y105.709 E8.92007
G1 X69.648 Y103.333 E9.00188
G1 X68.728 Y100.294 E9.10749
G1 X68.628 Y99.951 E9.11937
G1 X68.404 Y99.04 E9.15058
G1 X68.258 Y98.114 E9.18175
G1 X68.193 Y97.2 E9.21223
G1 X68.184 Y96.898 E9.22228
G1 X68.179 Y96.578 E9.23292
G1 X68.179 Y95.076 E9.28288
G1 X68.189 Y94.373 E9.30627
G1 X68.242 Y93.436 E9.33748
G1 X68.375 Y92.508 E9.36866
G1 X68.587 Y91.594 E9.39987
G1 X68.875 Y90.702 E9.43104
G1 X69.239 Y89.837 E9.46226
G1 X69.675 Y89.007 E9.49344
G1 X70.18 Y88.216 E9.52465
G1 X70.75 Y87.472 E9.55583
G1 X71.114 Y87.058 E9.57416
G1 X71.676 Y86.453 E9.60163
G1 X72.129 Y85.98 E9.62341
G1 X72.596 Y85.503 E9.64561
G1 X73.28 Y84.861 E9.67681
G0 F6000 X73.554 Y85.153
G1 F1200 X74.278 Y84.585 E9.70742
G1 X75.049 Y84.081 E9.73806
G1 X75.86 Y83.646 E9.76867
G1 X76.706 Y83.283 E9.79928
G1 X77.581 Y82.995 E9.82992
G1 X78.477 Y82.784 E9.86054
G1 X79.388 Y82.652 E9.89116
G1 X80.138 Y82.603 E9.91615
G1 X80.438 Y82.594 E9.92614
G1 X80.755 Y82.589 E9.93668
G1 X88.48 Y82.589 E10.19362
G1 X90.061 Y82.602 E10.2462
G1 X90.771 Y82.599 E10.26982
G1 X92.089 Y82.588 E10.31366
G1 X96.923 Y82.589 E10.47443
G1 X97.62 Y82.599 E10.49762
G1 X98.495 Y82.648 E10.52677
G1 X99.061 Y82.703 E10.54568
G1 X101.675 Y82.925 E10.63294
G1 X104.18 Y83.066 E10.71639
G1 X106.727 Y83.137 E10.80113
G1 X109.239 Y83.137 E10.88468
G1 X111.783 Y83.064 E10.96933
G1 X114.298 Y82.921 E11.05311
G1 X116.831 Y82.705 E11.13767
G1 X119.35 Y82.418 E11.22199
G1 X121.822 Y82.065 E11.30505
G1 X122.681 Y81.92 E11.33402
G1 X123.527 Y81.791 E11.36248
G1 X124.442 Y81.692 E11.39309
G1 X124.973 Y81.671 E11.41077
G1 X125.751 Y81.661 E11.43665
G1 X146.449 Y81.661 E12.12507
G1 X147.299 Y81.672 E12.15334
G1 X148.218 Y81.725 E12.18396
G1 X149.129 Y81.858 E12.21458
G1 X150.025 Y82.069 E12.24519
G1 X150.899 Y82.357 E12.2758
G1 X151.746 Y82.72 E12.30645
G1 X152.557 Y83.155 E12.33706
G1 X153.327 Y83.659 E12.36767
G1 X154.051 Y84.228 E12.39829
G1 X154.723 Y84.858 E12.42893
G1 X155.338 Y85.543 E12.45955
G1 X155.891 Y86.279 E12.49017
G1 X156.378 Y87.06 E12.52078
G1 X156.795 Y87.881 E12.55141
G1 X157.14 Y88.735 E12.58204
G1 X157.409 Y89.615 E12.61265
G1 X157.601 Y90.516 E12.64329
G1 X157.708 Y91.367 E12.67182
G1 X157.766 Y92.053 E12.69471
G1 X157.879 Y93.614 E12.74677
G1 X158.136 Y96.164 E12.83201
G1 X158.459 Y98.663 E12.91582
G1 X158.847 Y101.122 E12.99862
G1 X159.319 Y103.638 E13.08376
G1 X159.857 Y106.124 E13.16836
G1 X160.454 Y108.548 E13.25139
G1 X161.135 Y111.009 E13.33632
G1 X161.875 Y113.415 E13.42004
G1 X162.679 Y115.789 E13.50341
G1 X163.567 Y118.182 E13.5883
G1 X165.025 Y121.733 E13.71598
G1 X165.526 Y122.883 E13.7577
G1 X165.857 Y123.742 E13.78832
G1 X166.112 Y124.627 E13.81895
G1 X166.289 Y125.53 E13.84956
G1 X166.387 Y126.446 E13.8802
G1 X166.405 Y127.366 E13.9108
G1 X166.343 Y128.285 E13.94144
G1 X166.202 Y129.195 E13.97207
G1 X165.982 Y130.089 E14.00269
G1 X165.63 Y131.101 E14.03832
G1 X165.07 Y132.48 E14.08783
G1 X164.341 Y134.258 E14.15174
G1 X163.443 Y136.635 E14.23625
G1 X162.62 Y139.015 E14.32001
G1 X161.85 Y141.462 E14.40533
G1 X161.711 Y141.948 E14.42215
G1 X161.484 Y142.693 E14.44805
G1 X161.176 Y143.56 E14.47865
G1 X160.794 Y144.398 E14.50928
G1 X160.34 Y145.199 E14.53991
G1 X159.819 Y145.958 E14.57053
G1 X159.234 Y146.669 E14.60115
G1 X158.589 Y147.326 E14.63177
G1 X157.89 Y147.925 E14.66239
G1 X157.141 Y148.461 E14.69302
G1 X156.349 Y148.93 E14.72364
G1 X155.185 Y149.464 E14.76623
G1 X154.659 Y149.667 E14.78499
G1 X152.918 Y150.31 E14.84671
G1 X150.593 Y151.245 E14.93006
G1 X148.279 Y152.254 E15.01403
G1 X147.94 Y152.395 E15.02624
G1 X147.074 Y152.707 E15.05685
G1 X146.183 Y152.943 E15.08751
G1 X145.276 Y153.1 E15.11812
G1 X144.253 Y153.182 E15.15226
G1 X143.935 Y153.192 E15.16284
G1 X143.602 Y153.197 E15.17392
G1 X138.997 Y153.196 E15.32708
G1 X138.289 Y153.186 E15.35063
G1 X137.69 Y153.161 E15.37057
G1 X137.136 Y153.122 E15.38904
G1 X134.581 Y152.977 E15.47416
G1 X132.036 Y152.905 E15.55884
G1 X129.525 Y152.905 E15.64236
G1 X126.98 Y152.977 E15.72704
G1 X124.43 Y153.121 E15.81199
G1 X122.824 Y153.25 E15.86557
G1 X122.383 Y153.289 E15.8803
G1 X121.75 Y153.326 E15.90139
G1 X121.353 Y153.335 E15.9146
G1 X120.961 Y153.339 E15.92763
G1 X111.893 Y153.338 E16.22924
G1 X111.189 Y153.328 E16.25265
G1 X110.27 Y153.275 E16.28327
G1 X109.359 Y153.142 E16.31389
G1 X108.463 Y152.931 E16.34451
G1 X107.589 Y152.643 E16.37512
G1 X106.743 Y152.28 E16.40574
G1 X105.79 Y151.76 E16.44184
G1 X105.485 Y151.571 E16.45378
G1 X103.55 Y150.344 E16.52998
G1 X101.386 Y149.055 E16.61376
G1 X99.156 Y147.812 E16.69867
G1 X96.894 Y146.631 E16.78355
G1 X96.249 Y146.305 E16.80758
G1 X95.446 Y145.854 E16.83822
G1 X94.685 Y145.336 E16.86883
G1 X94.022 Y144.797 E16.89725
G1 X93.079 Y143.966 E16.93906
G1 X92.752 Y143.671 E16.95371
G1 X90.807 Y142.008 E17.03882
G1 X88.866 Y140.442 E17.12177
G1 X86.891 Y138.94 E17.2043
G1 X83.867 Y136.796 E17.32759
G1 X78.452 Y133.117 E17.54533
G1 X77.859 Y132.702 E17.5694
G1 X77.129 Y132.141 E17.60002
G1 X76.449 Y131.52 E17.63065
G1 X75.827 Y130.842 E17.66125
G1 X75.265 Y130.112 E17.69189
G1 X74.769 Y129.337 E17.7225
G1 X74.342 Y128.521 E17.75313
G1 X73.987 Y127.672 E17.78374
G1 X73.707 Y126.795 E17.81436
G1 X73.505 Y125.896 E17.845
G1 X73.353 Y124.595 E17.88857
G1 X73.324 Y124.064 E17.90626
G1 X73.315 Y123.861 E17.91301
G1 X73.289 Y123.126 E17.93748
G1 X73.127 Y120.566 E18.02279
G1 X72.896 Y118.067 E18.10626
G1 X72.593 Y115.55 E18.19058
G1 X72.219 Y113.056 E18.27446
G1 X71.771 Y110.544 E18.35933
G1 X71.273 Y108.141 E18.44095
G1 X70.673 Y105.619 E18.52718
G1 X70.025 Y103.195 E18.61063
G1 X69.112 Y100.182 E18.71534
G1 X69.012 Y99.839 E18.72723
G1 X68.793 Y98.945 E18.75784
G1 X68.652 Y98.035 E18.78847
G1 X68.593 Y97.188 E18.81671
G1 X68.584 Y96.886 E18.82676
G1 X68.579 Y96.578 E18.837
G1 X68.579 Y95.081 E18.88679
G1 X68.589 Y94.378 E18.91018
G1 X68.642 Y93.459 E18.94079
G1 X68.775 Y92.548 E18.97141
G1 X68.986 Y91.652 E19.00203
G1 X69.274 Y90.778 E19.03264
G1 X69.637 Y89.931 E19.06329
G1 X70.072 Y89.12 E19.0939
G1 X70.576 Y88.349 E19.12453
G1 X71.408 Y87.33 E19.16829
G1 X71.965 Y86.729 E19.19554
G1 X72.415 Y86.259 E19.21718
G1 X72.882 Y85.782 E19.23939
G1 X73.554 Y85.153 E19.27
G0 F6000 X73.827 Y85.446
G1 F1200 X74.539 Y84.89 E19.30005
G1 X75.297 Y84.399 E19.33008
G1 X76.096 Y83.977 E19.36014
G1 X76.928 Y83.627 E19.39016
G1 X77.789 Y83.353 E19.42021
G1 X78.67 Y83.156 E19.45024
G1 X79.565 Y83.037 E19.48027
G1 X80.15 Y83.003 E19.49976
G1 X80.45 Y82.994 E19.50974
G1 X80.755 Y82.989 E19.51988
G1 X88.474 Y82.989 E19.77662
G1 X90.059 Y83.002 E19.82934
G1 X90.774 Y82.999 E19.85312
G1 X92.092 Y82.988 E19.89696
G1 X96.917 Y82.989 E20.05744
G1 X97.614 Y82.999 E20.08062
G1 X98.456 Y83.046 E20.10867
G1 X98.988 Y83.098 E20.12645
G1 X101.654 Y83.324 E20.21544
G1 X104.181 Y83.466 E20.29962
G1 X106.716 Y83.537 E20.38397
G1 X109.251 Y83.537 E20.46828
G1 X111.815 Y83.464 E20.5536
G1 X114.321 Y83.321 E20.63708
G1 X116.874 Y83.103 E20.7223
G1 X119.385 Y82.817 E20.80636
G1 X121.869 Y82.462 E20.88982
G1 X122.563 Y82.344 E20.91323
G1 X123.587 Y82.187 E20.94769
G1 X124.485 Y82.09 E20.97773
G1 X124.978 Y82.071 E20.99414
G1 X125.751 Y82.061 E21.01985
G1 X146.449 Y82.061 E21.70827
G1 X147.293 Y82.072 E21.73634
G1 X148.195 Y82.125 E21.7664
G1 X149.088 Y82.257 E21.79642
G1 X149.966 Y82.468 E21.82645
G1 X150.822 Y82.756 E21.85649
G1 X151.649 Y83.118 E21.88652
G1 X152.441 Y83.553 E21.91657
G1 X153.192 Y84.055 E21.94662
G1 X153.895 Y84.622 E21.97666
G1 X154.545 Y85.249 E22.00669
G1 X155.137 Y85.931 E22.03673
G1 X155.667 Y86.662 E22.06676
G1 X156.129 Y87.438 E22.0968
G1 X156.522 Y88.251 E22.12683
G1 X156.84 Y89.096 E22.15686
G1 X157.083 Y89.966 E22.18691
G1 X157.248 Y90.854 E22.21695
G1 X157.31 Y91.401 E22.23526
G1 X157.367 Y92.082 E22.25799
G1 X157.48 Y93.647 E22.31017
G1 X157.736 Y96.184 E22.39498
G1 X158.066 Y98.74 E22.4807
G1 X158.459 Y101.227 E22.56445
G1 X158.921 Y103.691 E22.64783
G1 X159.47 Y106.225 E22.73406
G1 X160.059 Y108.62 E22.8161
G1 X160.751 Y111.119 E22.90234
G1 X161.501 Y113.556 E22.98715
G1 X162.311 Y115.95 E23.07121
G1 X163.184 Y118.304 E23.15471
G1 X164.647 Y121.864 E23.28273
G1 X165.16 Y123.043 E23.32549
G1 X165.483 Y123.886 E23.35552
G1 X165.731 Y124.754 E23.38554
G1 X165.901 Y125.641 E23.41558
G1 X165.992 Y126.54 E23.44563
G1 X166.003 Y127.443 E23.47567
G1 X165.934 Y128.343 E23.50569
G1 X165.785 Y129.234 E23.53574
G1 X165.559 Y130.108 E23.56576
G1 X165.259 Y130.95 E23.59549
G1 X164.7 Y132.328 E23.64495
G1 X163.973 Y134.101 E23.70869
G1 X163.067 Y136.5 E23.79398
G1 X162.232 Y138.912 E23.87888
G1 X161.478 Y141.311 E23.96251
G1 X161.327 Y141.838 E23.98075
G1 X161.102 Y142.576 E24.00641
G1 X160.799 Y143.426 E24.03642
G1 X160.422 Y144.247 E24.06647
G1 X159.974 Y145.031 E24.0965
G1 X159.458 Y145.772 E24.12654
G1 X158.878 Y146.465 E24.15659
G1 X158.24 Y147.104 E24.18663
G1 X157.548 Y147.684 E24.21666
G1 X156.807 Y148.2 E24.24669
G1 X156.023 Y148.649 E24.27674
G1 X155.04 Y149.091 E24.31259
G1 X154.52 Y149.292 E24.33113
G1 X152.779 Y149.935 E24.39286
G1 X150.42 Y150.884 E24.47743
G1 X148.119 Y151.887 E24.56092
G1 X147.788 Y152.025 E24.57284
G1 X146.938 Y152.33 E24.60288
G1 X146.064 Y152.559 E24.63293
G1 X145.174 Y152.71 E24.66296
G1 X144.241 Y152.782 E24.69408
G1 X143.923 Y152.792 E24.70466
G1 X143.602 Y152.797 E24.71534
G1 X139.003 Y152.796 E24.8683
G1 X138.295 Y152.786 E24.89185
G1 X137.718 Y152.762 E24.91106
G1 X137.184 Y152.724 E24.92887
G1 X134.581 Y152.577 E25.01558
G1 X132.047 Y152.505 E25.0999
G1 X129.514 Y152.505 E25.18414
G1 X126.98 Y152.577 E25.26846
G1 X124.377 Y152.724 E25.35517
G1 X122.813 Y152.85 E25.40736
G1 X122.348 Y152.891 E25.42289
G1 X121.739 Y152.926 E25.44318
G1 X121.349 Y152.935 E25.45615
G1 X120.961 Y152.939 E25.46906
G1 X111.899 Y152.938 E25.77046
G1 X111.195 Y152.928 E25.79388
G1 X110.294 Y152.875 E25.8239
G1 X109.4 Y152.743 E25.85395
G1 X108.522 Y152.532 E25.88399
G1 X107.666 Y152.244 E25.91403
G1 X106.839 Y151.882 E25.94405
G1 X106 Y151.419 E25.97592
G1 X105.699 Y151.233 E25.98769
G1 X103.762 Y150.005 E26.06397
G1 X101.564 Y148.696 E26.14906
G1 X99.357 Y147.465 E26.23311
G1 X97.081 Y146.277 E26.3185
G1 X96.43 Y145.948 E26.34276
G1 X95.642 Y145.505 E26.37283
