;FLAVOR:Marlin
;TIME:3885
;Filament used: 2.43832m
;Layer height: 0.16
;MINX:70.724
;MINY:69.5
;MINZ:0.2
;MAXX:164.278
;MAXY:165.4
;MAXZ:2.8
;Generated with Cura_SteamEngine 4.8.0
M82 ;absolute extrusion mode
; Ender 3 Custom Start G-code
M117 Getting the bed up to temp!
M140 S50 ; Set Heat Bed temperature
M190 S50 ; Wait for Heat Bed temperature
M117 Pre-heating the extruder!
M104 S160; start warming extruder to 160
G28 ; Home all axes
M117 Auto bed-level GO!
G29 ; Auto bed-level (BL-Touch)
G92 E0 ; Reset Extruder
M117 Getting the extruder up to temp!
M104 S200 ; Set Extruder temperature
M109 S200 ; Wait for Extruder temperature
G1 Z1.0 F3000 ; move z up little to prevent scratching of surface
G1 X0.1 Y20 Z0.3 F5000.0 ; move to start-line position
M117 LET THE PURGE BEGIN!
G1 X0.1 Y200.0 Z0.3 F1500.0 E15 ; draw 1st line
G1 X0.4 Y200.0 Z0.3 F5000.0 ; move to side a little
G1 X0.4 Y20 Z0.3 F1500.0 E30 ; draw 2nd line
G92 E0 ; reset extruder
G1 Z1.0 F3000 ; move z up little to prevent scratching of surface
M117 Autobots! Roll Out!
; End of custom start GCode
G92 E0
G92 E0
G1 F2700 E-5
;LAYER_COUNT:16
;LAYER:0
M107
G0 F6000 X78.764 Y83.325 Z0.2
;TYPE:SKIRT
G1 F2700 E0
G1 F1200 X79.417 Y82.753 E0.02887
G1 X80.553 Y81.836 E0.07743
G1 X82.483 Y80.234 E0.16086
G1 X84.378 Y78.565 E0.24484
G1 X86.207 Y76.863 E0.32794
G1 X87.994 Y75.103 E0.41136
G1 X89.392 Y73.645 E0.47855
G1 X89.716 Y73.316 E0.4939
G1 X90.402 Y72.676 E0.52511
G1 X91.14 Y72.097 E0.55631
G1 X91.925 Y71.583 E0.58752
G1 X92.75 Y71.138 E0.61869
G1 X93.611 Y70.765 E0.6499
G1 X94.5 Y70.466 E0.6811
G1 X95.411 Y70.245 E0.71228
G1 X96.338 Y70.101 E0.74348
G1 X97.217 Y70.039 E0.77279
G1 X97.543 Y70.029 E0.78363
G1 X97.797 Y70.024 E0.79208
G1 X98.182 Y70.021 E0.80489
G1 X100.555 Y69.987 E0.88382
G1 X103.075 Y69.88 E0.96771
G1 X105.549 Y69.705 E1.05021
G1 X106.001 Y69.66 E1.06531
G1 X107.293 Y69.549 E1.10844
G1 X107.925 Y69.513 E1.1295
G1 X108.244 Y69.504 E1.14011
G1 X108.554 Y69.5 E1.15042
G1 X126.069 Y69.5 E1.73298
G1 X126.952 Y69.512 E1.76235
G1 X127.864 Y69.564 E1.79273
G1 X128.048 Y69.582 E1.79888
G1 X130.637 Y69.802 E1.8853
G1 X133.111 Y69.941 E1.96771
G1 X136.319 Y70.009 E2.07444
G1 X136.461 Y70.018 E2.07917
G1 X137.652 Y70.035 E2.11879
G1 X138.588 Y70.088 E2.14997
G1 X139.517 Y70.221 E2.18118
G1 X140.431 Y70.433 E2.21239
G1 X141.323 Y70.721 E2.24356
G1 X142.187 Y71.085 E2.27475
G1 X143.018 Y71.52 E2.30594
G1 X143.808 Y72.025 E2.33713
G1 X144.553 Y72.596 E2.36835
G1 X145.436 Y73.421 E2.40854
G1 X146.338 Y74.362 E2.4519
G1 X148.155 Y76.202 E2.53791
G1 X149.977 Y77.949 E2.62186
G1 X151.839 Y79.633 E2.70536
G1 X153.766 Y81.28 E2.78968
G1 X155.332 Y82.543 E2.85659
G1 X155.708 Y82.855 E2.87284
G1 X156.402 Y83.485 E2.90401
G1 X157.04 Y84.173 E2.93522
G1 X157.617 Y84.912 E2.96641
G1 X158.129 Y85.698 E2.99761
G1 X158.573 Y86.524 E3.0288
G1 X158.926 Y87.338 E3.05831
G1 X159.273 Y88.238 E3.09039
G1 X159.68 Y89.334 E3.12927
G1 X160.62 Y91.662 E3.21278
G1 X161.627 Y93.968 E3.29647
G1 X162.707 Y96.265 E3.38089
G1 X163.161 Y97.199 E3.41543
G1 X163.534 Y98.059 E3.44661
G1 X163.833 Y98.948 E3.47781
G1 X164.055 Y99.859 E3.50899
G1 X164.198 Y100.786 E3.54019
G1 X164.261 Y101.667 E3.56957
G1 X164.271 Y101.993 E3.58041
G1 X164.276 Y102.33 E3.59162
G1 X164.275 Y103.052 E3.61564
G1 X164.248 Y104.855 E3.67561
G1 X164.225 Y105.699 E3.70369
G1 X164.227 Y108.269 E3.78917
G1 X164.254 Y109.501 E3.83016
G1 X164.271 Y110.08 E3.84943
G1 X164.276 Y110.386 E3.8596
G1 X164.278 Y111.739 E3.90461
G1 X164.274 Y112.857 E3.94179
G1 X164.275 Y113.702 E3.9699
G1 X164.248 Y115.506 E4.0299
G1 X164.225 Y116.35 E4.05798
G1 X164.227 Y118.919 E4.14343
G1 X164.254 Y120.151 E4.18442
G1 X164.271 Y120.731 E4.20372
G1 X164.276 Y121.053 E4.21443
G1 X164.275 Y121.813 E4.2397
G1 X164.264 Y122.523 E4.26332
G1 X164.212 Y123.429 E4.29351
G1 X164.198 Y123.568 E4.29815
G1 X163.972 Y126.23 E4.38701
G1 X163.833 Y128.704 E4.46942
G1 X163.75 Y132.637 E4.60027
G1 X163.749 Y136.576 E4.73128
G1 X163.739 Y137.278 E4.75463
G1 X163.686 Y138.214 E4.78581
G1 X163.553 Y139.142 E4.81699
G1 X163.341 Y140.056 E4.8482
G1 X163.053 Y140.949 E4.8794
G1 X162.689 Y141.813 E4.91059
G1 X162.253 Y142.644 E4.9418
G1 X161.748 Y143.434 E4.97299
G1 X161.178 Y144.178 E5.00416
G1 X160.546 Y144.871 E5.03535
G1 X159.533 Y145.773 E5.08047
G1 X157.49 Y147.377 E5.16686
G1 X155.558 Y148.984 E5.25044
G1 X153.66 Y150.656 E5.33457
G1 X151.859 Y152.334 E5.41644
G1 X149.787 Y154.379 E5.51327
G1 X149.094 Y155.01 E5.54444
G1 X148.349 Y155.58 E5.57564
G1 X147.558 Y156.085 E5.60685
G1 X146.302 Y156.709 E5.6535
G1 X145.527 Y157.035 E5.68146
G1 X143.121 Y158.083 E5.76875
G1 X140.865 Y159.143 E5.85165
G1 X138.579 Y160.297 E5.93683
G1 X136.424 Y161.461 E6.01829
G1 X134.188 Y162.753 E6.10418
G1 X133.091 Y163.429 E6.14704
G1 X132.432 Y163.824 E6.17259
G1 X131.608 Y164.271 E6.20377
G1 X130.749 Y164.647 E6.23496
G1 X129.86 Y164.948 E6.26618
G1 X128.734 Y165.214 E6.30466
G1 X127.805 Y165.342 E6.33585
G1 X127.075 Y165.387 E6.36018
G1 X126.755 Y165.396 E6.37082
G1 X126.446 Y165.4 E6.3811
G1 X108.773 Y165.399 E6.96891
G1 X108.076 Y165.389 E6.99209
G1 X107.462 Y165.363 E7.01253
G1 X106.666 Y165.307 E7.03907
G1 X105.397 Y165.2 E7.08143
G1 X102.897 Y165.059 E7.16471
G1 X98.966 Y164.976 E7.29549
G1 X98.1 Y164.975 E7.32429
G1 X97.399 Y164.965 E7.34761
G1 X96.463 Y164.912 E7.37879
G1 X95.534 Y164.779 E7.41
G1 X94.621 Y164.567 E7.44118
G1 X93.728 Y164.279 E7.47238
G1 X92.864 Y163.915 E7.50357
G1 X92.033 Y163.479 E7.53478
G1 X91.243 Y162.974 E7.56597
G1 X90.499 Y162.404 E7.59714
G1 X89.806 Y161.772 E7.62833
G1 X89.169 Y161.083 E7.65954
G1 X88.593 Y160.343 E7.69073
G1 X87.955 Y159.335 E7.73041
G1 X87.528 Y158.569 E7.75958
G1 X86.964 Y157.527 E7.79899
G1 X85.702 Y155.346 E7.8828
G1 X84.375 Y153.194 E7.96689
G1 X82.996 Y151.093 E8.05047
G1 X81.546 Y149.016 E8.13472
G1 X80.063 Y147.012 E8.21764
G1 X78.506 Y145.029 E8.3015
G1 X76.887 Y143.084 E8.38567
G1 X75.198 Y141.166 E8.47067
G1 X74.527 Y140.425 E8.50392
G1 X73.928 Y139.704 E8.5351
G1 X73.393 Y138.934 E8.56628
G1 X72.925 Y138.121 E8.59748
G1 X72.528 Y137.271 E8.62868
G1 X72.205 Y136.391 E8.65986
G1 X71.958 Y135.486 E8.69106
G1 X71.789 Y134.563 E8.72227
G1 X71.703 Y133.687 E8.75155
G1 X71.665 Y133.027 E8.77354
G1 X71.589 Y131.273 E8.83193
G1 X71.41 Y128.808 E8.91413
G1 X71.157 Y126.285 E8.99847
G1 X70.823 Y123.695 E9.08533
G1 X70.737 Y122.599 E9.12189
G1 X70.728 Y122.28 E9.1325
G1 X70.724 Y121.97 E9.14282
G1 X70.725 Y121.248 E9.16683
G1 X70.752 Y119.445 E9.2268
G1 X70.775 Y118.601 E9.25489
G1 X70.773 Y116.031 E9.34037
G1 X70.744 Y114.72 E9.38398
G1 X70.729 Y114.22 E9.40062
G1 X70.724 Y113.897 E9.41136
G1 X70.725 Y113.136 E9.43667
G1 X70.736 Y112.43 E9.46016
G1 X70.791 Y111.493 E9.49138
G1 X70.925 Y110.565 E9.52256
G1 X71.207 Y109.413 E9.56201
G1 X71.371 Y108.877 E9.58065
G1 X71.968 Y107.023 E9.64543
G1 X72.662 Y104.637 E9.72808
G1 X73.3 Y102.189 E9.81222
G1 X73.865 Y99.744 E9.89569
G1 X74.373 Y97.219 E9.98135
G1 X74.785 Y94.809 E10.06267
G1 X75.142 Y92.306 E10.14676
G1 X75.367 Y90.338 E10.21265
G1 X75.426 Y89.885 E10.22784
G1 X75.587 Y88.961 E10.25903
G1 X75.826 Y88.054 E10.29023
G1 X76.141 Y87.171 E10.32141
G1 X76.53 Y86.318 E10.35259
G1 X76.991 Y85.501 E10.3838
G1 X77.519 Y84.726 E10.41499
G1 X78.112 Y83.999 E10.44619
G1 X78.764 Y83.325 E10.47738
G0 F6000 X79.138 Y83.523
G1 F1200 X79.668 Y83.064 E10.5007
G1 X80.646 Y82.273 E10.54254
G1 X80.792 Y82.157 E10.54874
G1 X82.754 Y80.528 E10.63355
G1 X84.614 Y78.891 E10.71597
G1 X86.513 Y77.122 E10.80229
G1 X88.281 Y75.382 E10.88479
G1 X89.677 Y73.925 E10.9519
G1 X90.001 Y73.596 E10.96726
G1 X90.675 Y72.969 E10.99788
G1 X91.401 Y72.403 E11.0285
G1 X92.173 Y71.901 E11.05913
G1 X92.986 Y71.469 E11.08975
G1 X93.833 Y71.108 E11.12037
G1 X94.709 Y70.823 E11.15101
G1 X95.605 Y70.615 E11.1816
G1 X96.517 Y70.485 E11.21224
G1 X97.229 Y70.439 E11.23597
G1 X97.555 Y70.429 E11.24682
G1 X97.8 Y70.424 E11.25497
G1 X98.191 Y70.421 E11.26798
G1 X100.577 Y70.387 E11.34734
G1 X103.085 Y70.28 E11.43084
G1 X105.581 Y70.103 E11.51406
G1 X106.036 Y70.059 E11.52927
G1 X107.328 Y69.948 E11.5724
G1 X107.936 Y69.913 E11.59265
G1 X108.255 Y69.904 E11.60327
G1 X108.554 Y69.9 E11.61321
G1 X126.069 Y69.9 E12.19576
G1 X126.946 Y69.912 E12.22493
G1 X127.825 Y69.962 E12.25422
G1 X128.05 Y69.984 E12.26174
G1 X130.615 Y70.202 E12.34736
G1 X133.081 Y70.341 E12.42951
G1 X136.311 Y70.409 E12.53696
G1 X136.449 Y70.418 E12.54156
G1 X137.646 Y70.435 E12.58138
G1 X138.565 Y70.488 E12.61199
G1 X139.477 Y70.621 E12.64265
G1 X140.373 Y70.832 E12.67326
G1 X141.247 Y71.12 E12.70387
G1 X142.093 Y71.483 E12.73449
G1 X142.905 Y71.918 E12.76513
G1 X143.675 Y72.421 E12.79572
G1 X144.399 Y72.99 E12.82635
G1 X145.147 Y73.698 E12.8606
G1 X146.047 Y74.637 E12.90386
G1 X147.876 Y76.49 E12.99046
G1 X149.695 Y78.233 E13.07425
G1 X151.576 Y79.934 E13.1586
G1 X153.517 Y81.594 E13.24355
G1 X155.212 Y82.962 E13.31599
G1 X155.452 Y83.162 E13.32638
G1 X156.133 Y83.781 E13.35699
G1 X156.758 Y84.458 E13.38764
G1 X157.321 Y85.186 E13.41825
G1 X157.82 Y85.96 E13.44888
G1 X158.249 Y86.774 E13.47948
G1 X158.553 Y87.482 E13.50511
G1 X158.898 Y88.377 E13.53701
G1 X159.31 Y89.486 E13.57636
G1 X160.253 Y91.823 E13.66018
G1 X161.256 Y94.119 E13.74351
G1 X162.344 Y96.431 E13.8285
G1 X162.801 Y97.373 E13.86332
G1 X163.167 Y98.218 E13.89395
G1 X163.458 Y99.092 E13.92459
G1 X163.672 Y99.987 E13.95519
G1 X163.808 Y100.898 E13.98583
G1 X163.861 Y101.679 E14.01187
G1 X163.871 Y102.005 E14.02271
G1 X163.876 Y102.33 E14.03353
G1 X163.875 Y103.046 E14.05734
G1 X163.848 Y104.844 E14.11715
G1 X163.825 Y105.689 E14.14526
G1 X163.827 Y108.278 E14.23137
G1 X163.855 Y109.557 E14.27392
G1 X163.871 Y110.092 E14.29173
G1 X163.876 Y110.387 E14.30154
G1 X163.878 Y111.738 E14.34647
G1 X163.874 Y112.856 E14.38366
G1 X163.875 Y113.696 E14.4116
G1 X163.848 Y115.496 E14.47147
G1 X163.825 Y116.34 E14.49955
G1 X163.827 Y118.928 E14.58563
G1 X163.854 Y120.162 E14.62668
G1 X163.871 Y120.742 E14.64598
G1 X163.876 Y121.053 E14.65633
G1 X163.875 Y121.807 E14.68141
G1 X163.864 Y122.517 E14.70502
G1 X163.814 Y123.389 E14.73407
G1 X163.794 Y123.59 E14.74079
G1 X163.572 Y126.208 E14.82818
G1 X163.433 Y128.674 E14.91033
G1 X163.35 Y132.629 E15.0419
G1 X163.349 Y136.57 E15.17298
G1 X163.339 Y137.272 E15.19633
G1 X163.286 Y138.191 E15.22695
G1 X163.153 Y139.102 E15.25757
G1 X162.942 Y139.998 E15.28819
G1 X162.654 Y140.873 E15.31882
G1 X162.291 Y141.719 E15.34944
G1 X161.856 Y142.53 E15.38005
G1 X161.352 Y143.301 E15.41069
G1 X160.784 Y144.025 E15.4413
G1 X160.154 Y144.697 E15.47193
G1 X159.286 Y145.458 E15.51033
G1 X157.254 Y147.053 E15.59625
G1 X155.307 Y148.673 E15.68049
G1 X153.406 Y150.347 E15.76474
G1 X151.535 Y152.09 E15.84978
G1 X149.506 Y154.095 E15.94466
G1 X148.824 Y154.714 E15.97529
G1 X148.092 Y155.272 E16.00591
G1 X147.313 Y155.764 E16.03655
G1 X146.147 Y156.34 E16.07981
G1 X145.36 Y156.67 E16.10819
G1 X142.97 Y157.712 E16.19491
G1 X140.679 Y158.788 E16.27909
G1 X138.43 Y159.923 E16.36288
G1 X136.186 Y161.136 E16.44772
G1 X134.01 Y162.394 E16.53132
G1 X132.886 Y163.086 E16.57522
G1 X132.227 Y163.481 E16.60078
G1 X131.417 Y163.919 E16.6314
G1 X130.573 Y164.286 E16.66202
G1 X129.7 Y164.578 E16.69263
G1 X128.662 Y164.82 E16.72808
G1 X127.75 Y164.945 E16.7587
G1 X127.064 Y164.987 E16.78156
G1 X126.744 Y164.996 E16.79221
G1 X126.446 Y165 E16.80212
G1 X108.779 Y164.999 E17.38972
G1 X108.082 Y164.989 E17.41291
G1 X107.49 Y164.964 E17.43262
G1 X106.54 Y164.896 E17.4643
G1 X105.385 Y164.798 E17.50285
G1 X102.927 Y164.659 E17.58473
G1 X98.974 Y164.576 E17.71624
G1 X98.106 Y164.575 E17.74511
G1 X97.405 Y164.565 E17.76843
G1 X96.486 Y164.512 E17.79904
G1 X95.575 Y164.379 E17.82966
G1 X94.679 Y164.168 E17.86028
G1 X93.804 Y163.88 E17.89092
G1 X92.958 Y163.517 E17.92154
G1 X92.147 Y163.082 E17.95215
G1 X91.376 Y162.578 E17.98278
G1 X90.652 Y162.009 E18.01341
G1 X89.98 Y161.38 E18.04403
G1 X89.365 Y160.695 E18.07464
G1 X88.812 Y159.959 E18.10526
G1 X88.304 Y159.14 E18.13732
G1 X87.88 Y158.379 E18.16629
G1 X87.31 Y157.327 E18.20609
G1 X86.04 Y155.13 E18.29049
G1 X84.717 Y152.987 E18.37426
G1 X83.331 Y150.874 E18.4583
G1 X81.88 Y148.795 E18.54263
G1 X80.383 Y146.773 E18.62631
G1 X78.795 Y144.75 E18.71184
G1 X77.211 Y142.848 E18.79417
G1 X75.472 Y140.873 E18.88169
G1 X74.824 Y140.157 E18.91381
G1 X74.236 Y139.448 E18.94445
G1 X73.713 Y138.691 E18.97505
G1 X73.257 Y137.891 E19.00568
G1 X72.872 Y137.055 E19.03629
G1 X72.561 Y136.188 E19.06693
G1 X72.326 Y135.298 E19.09754
G1 X72.17 Y134.391 E19.12815
G1 X72.102 Y133.664 E19.15244
G1 X72.065 Y133.01 E19.17423
G1 X71.989 Y131.263 E19.23239
G1 X71.809 Y128.773 E19.31542
G1 X71.553 Y126.23 E19.40043
G1 X71.22 Y123.644 E19.48715
G1 X71.137 Y122.588 E19.52238
G1 X71.128 Y122.269 E19.53299
G1 X71.124 Y121.97 E19.54294
G1 X71.125 Y121.254 E19.56675
G1 X71.152 Y119.456 E19.62656
G1 X71.175 Y118.611 E19.65468
G1 X71.173 Y116.022 E19.74079
G1 X71.144 Y114.711 E19.7844
G1 X71.129 Y114.208 E19.80114
G1 X71.124 Y113.897 E19.81148
G1 X71.125 Y113.142 E19.8366
G1 X71.136 Y112.436 E19.86008
G1 X71.191 Y111.517 E19.8907
G1 X71.324 Y110.606 E19.92132
G1 X71.59 Y109.529 E19.95822
G1 X71.752 Y109 E19.97662
G1 X72.344 Y107.162 E20.04085
G1 X73.05 Y104.735 E20.12491
G1 X73.691 Y102.274 E20.2095
G1 X74.253 Y99.841 E20.29255
G1 X74.764 Y97.3 E20.37876
G1 X75.183 Y94.856 E20.46123
G1 X75.541 Y92.341 E20.54572
G1 X75.764 Y90.39 E20.61104
G1 X75.823 Y89.937 E20.62623
G1 X75.981 Y89.03 E20.65685
G1 X76.218 Y88.14 E20.68749
G1 X76.531 Y87.274 E20.71811
G1 X76.917 Y86.439 E20.74871
G1 X77.375 Y85.64 E20.77934
G1 X77.901 Y84.884 E20.80997
G1 X78.49 Y84.177 E20.84058
G1 X79.138 Y83.523 E20.8712
G0 F6000 X79.511 Y83.724
G1 F1200 X79.92 Y83.375 E20.88908
G1 X80.898 Y82.584 E20.93092
G1 X81.049 Y82.464 E20.93733
G1 X82.991 Y80.852 E21.02128
G1 X84.905 Y79.167 E21.10609
G1 X86.784 Y77.418 E21.19147
G1 X88.551 Y75.678 E21.27395
G1 X89.962 Y74.206 E21.34177
G1 X90.286 Y73.877 E21.35713
G1 X90.948 Y73.262 E21.38718
G1 X91.661 Y72.708 E21.41721
G1 X92.421 Y72.22 E21.44725
G1 X93.221 Y71.8 E21.47731
G1 X94.054 Y71.453 E21.50732
G1 X94.916 Y71.181 E21.53738
G1 X95.797 Y70.986 E21.5674
G1 X96.693 Y70.87 E21.59744
G1 X97.241 Y70.839 E21.6157
G1 X97.803 Y70.824 E21.6344
G1 X98.199 Y70.821 E21.64757
G1 X100.564 Y70.787 E21.72624
G1 X103.129 Y70.678 E21.81163
G1 X105.616 Y70.502 E21.89455
G1 X106.07 Y70.457 E21.90973
G1 X107.362 Y70.346 E21.95286
G1 X107.947 Y70.313 E21.97235
G1 X108.266 Y70.304 E21.98296
G1 X108.554 Y70.3 E21.99254
G1 X126.226 Y70.301 E22.58031
G1 X126.939 Y70.312 E22.60403
G1 X127.785 Y70.36 E22.63221
G1 X127.974 Y70.379 E22.63853
G1 X130.594 Y70.601 E22.72599
G1 X133.078 Y70.741 E22.80873
G1 X136.302 Y70.809 E22.91599
G1 X136.439 Y70.818 E22.92056
G1 X137.641 Y70.835 E22.96054
G1 X138.542 Y70.888 E22.99056
G1 X139.436 Y71.02 E23.02061
G1 X140.314 Y71.231 E23.05065
G1 X141.17 Y71.519 E23.08069
G1 X141.997 Y71.881 E23.11071
G1 X142.789 Y72.315 E23.14075
G1 X143.54 Y72.817 E23.1708
G1 X144.243 Y73.384 E23.20083
G1 X144.859 Y73.975 E23.22923
G1 X145.792 Y74.948 E23.27406
G1 X147.58 Y76.759 E23.35871
G1 X149.434 Y78.536 E23.44412
G1 X151.311 Y80.234 E23.52831
G1 X153.252 Y81.893 E23.61323
G1 X154.956 Y83.269 E23.68608
G1 X155.196 Y83.469 E23.69647
G1 X155.863 Y84.077 E23.72649
G1 X156.474 Y84.742 E23.75652
G1 X157.024 Y85.459 E23.78658
G1 X157.509 Y86.221 E23.81662
G1 X157.924 Y87.023 E23.84666
G1 X158.18 Y87.627 E23.86848
G1 X158.523 Y88.516 E23.90017
G1 X158.935 Y89.626 E23.93955
G1 X159.88 Y91.967 E24.02352
G1 X160.899 Y94.3 E24.10819
G1 X161.995 Y96.629 E24.1938
G1 X162.441 Y97.548 E24.22778
G1 X162.799 Y98.377 E24.25781
G1 X163.083 Y99.235 E24.28787
G1 X163.289 Y100.114 E24.3179
G1 X163.417 Y101.008 E24.34794
G1 X163.461 Y101.691 E24.3707
G1 X163.471 Y102.017 E24.38155
G1 X163.476 Y102.33 E24.39196
G1 X163.475 Y103.04 E24.41557
G1 X163.448 Y104.833 E24.47522
G1 X163.425 Y105.678 E24.50333
G1 X163.427 Y108.288 E24.59014
G1 X163.455 Y109.525 E24.63129
G1 X163.472 Y110.104 E24.65056
G1 X163.476 Y110.387 E24.65997
G1 X163.478 Y111.736 E24.70484
