;FLAVOR:Marlin
;TIME:3132
;Filament used: 1.74295m
;Layer height: 0.16
;MINX:80.953
;MINY:89.674
;MINZ:0.2
;MAXX:154.032
;MAXY:145.326
;MAXZ:5.88
;Generated with Cura_SteamEngine 4.8.0
M82 ;absolute extrusion mode
; Ender 3 Custom Start G-code
M117 Getting the bed up to temp!
M140 S50 ; Set Heat Bed temperature
M190 S50 ; Wait for Heat Bed temperature
M117 Pre-heating the extruder!
M104 S160; start warming extruder to 160
G28 ; Home all axes
M117 Auto bed-level GO!
G29 ; Auto bed-level (BL-Touch)
G92 E0 ; Reset Extruder
M117 Getting the extruder up to temp!
M104 S200 ; Set Extruder temperature
M109 S200 ; Wait for Extruder temperature
G1 Z1.0 F3000 ; move z up little to prevent scratching of surface
G1 X0.1 Y20 Z0.3 F5000.0 ; move to start-line position
M117 LET THE PURGE BEGIN!
G1 X0.1 Y200.0 Z0.3 F1500.0 E15 ; draw 1st line
G1 X0.4 Y200.0 Z0.3 F5000.0 ; move to side a little
G1 X0.4 Y20 Z0.3 F1500.0 E30 ; draw 2nd line
G92 E0 ; reset extruder
G1 Z1.0 F3000 ; move z up little to prevent scratching of surface
M117 Autobots! Roll Out!
; End of custom start GCode
G92 E0
G92 E0
G1 F2700 E-5
;LAYER_COUNT:31
;LAYER:0
M107
G0 F6000 X85.624 Y92.969 Z0.2
;TYPE:SKIRT
G1 F2700 E0
G1 F1200 X86.36 Y92.388 E0.03119
G1 X87.143 Y91.871 E0.0624
G1 X87.967 Y91.423 E0.09359
G1 X88.826 Y91.047 E0.12478
G1 X89.714 Y90.745 E0.15597
G1 X90.624 Y90.52 E0.18715
G1 X91.551 Y90.374 E0.21836
G1 X92.477 Y90.307 E0.24924
G1 X92.957 Y90.295 E0.26521
G1 X93.262 Y90.292 E0.27536
G1 X97.834 Y90.292 E0.42742
G1 X99.915 Y90.298 E0.49664
G1 X100.636 Y90.292 E0.52062
G1 X103.601 Y90.293 E0.61924
G1 X104.306 Y90.303 E0.64269
G1 X104.616 Y90.312 E0.653
G1 X105.95 Y90.369 E0.69741
G1 X106.315 Y90.39 E0.70957
G1 X108.835 Y90.46 E0.79342
G1 X111.358 Y90.46 E0.87733
G1 X113.844 Y90.389 E0.96005
G1 X116.376 Y90.244 E1.04441
G1 X118.878 Y90.031 E1.12792
G1 X121.312 Y89.756 E1.20939
G1 X121.925 Y89.704 E1.22986
G1 X122.013 Y89.699 E1.23279
G1 X122.501 Y89.682 E1.24903
G1 X123.202 Y89.674 E1.27234
G1 X136.564 Y89.674 E1.71677
G1 X137.419 Y89.685 E1.74521
G1 X138.355 Y89.739 E1.77639
G1 X139.284 Y89.872 E1.8076
G1 X140.197 Y90.083 E1.83877
G1 X141.09 Y90.372 E1.86999
G1 X141.954 Y90.735 E1.90116
G1 X142.784 Y91.171 E1.93234
G1 X143.575 Y91.676 E1.96355
G1 X144.319 Y92.247 E1.99475
G1 X145.012 Y92.879 E2.02594
G1 X145.649 Y93.568 E2.05715
G1 X146.225 Y94.308 E2.08834
G1 X146.735 Y95.095 E2.11953
G1 X147.177 Y95.922 E2.15072
G1 X147.546 Y96.784 E2.18191
G1 X147.841 Y97.674 E2.21309
G1 X148.059 Y98.586 E2.24428
G1 X148.147 Y99.102 E2.26169
G1 X148.266 Y99.921 E2.28922
G1 X148.394 Y100.913 E2.32248
G1 X148.786 Y103.398 E2.40616
G1 X149.25 Y105.887 E2.49037
G1 X149.781 Y108.353 E2.57427
G1 X150.368 Y110.751 E2.65638
G1 X151.05 Y113.221 E2.74161
G1 X151.785 Y115.621 E2.82509
G1 X152.609 Y118.059 E2.91069
G1 X153.035 Y119.237 E2.95235
G1 X153.351 Y120.092 E2.98267
G1 X153.638 Y120.984 E3.01383
G1 X153.848 Y121.898 E3.04502
G1 X153.98 Y122.827 E3.07623
G1 X154.032 Y123.763 E3.10741
G1 X154.004 Y124.701 E3.13863
G1 X153.897 Y125.633 E3.16983
G1 X153.71 Y126.552 E3.20102
G1 X153.446 Y127.452 E3.23222
G1 X153.237 Y128.013 E3.25213
G1 X152.253 Y130.537 E3.34223
G1 X151.409 Y132.903 E3.42578
G1 X150.579 Y135.466 E3.51538
G1 X150.489 Y135.733 E3.52476
G1 X150.152 Y136.608 E3.55594
G1 X149.741 Y137.451 E3.58714
G1 X149.26 Y138.256 E3.61833
G1 X148.712 Y139.018 E3.64954
G1 X148.102 Y139.73 E3.68073
G1 X147.433 Y140.387 E3.71191
G1 X146.71 Y140.985 E3.74312
G1 X145.94 Y141.519 E3.77429
G1 X145.126 Y141.986 E3.8055
G1 X144.034 Y142.478 E3.84534
G1 X143.085 Y142.845 E3.87918
G1 X140.591 Y143.851 E3.96862
G1 X139.372 Y144.363 E4.0126
G1 X138.492 Y144.689 E4.04381
G1 X137.588 Y144.939 E4.07501
G1 X136.666 Y145.111 E4.1062
G1 X135.458 Y145.216 E4.14653
G1 X135.14 Y145.226 E4.15711
G1 X134.794 Y145.231 E4.16862
G1 X132.007 Y145.23 E4.26132
G1 X131.318 Y145.22 E4.28424
G1 X131.015 Y145.211 E4.29432
G1 X130.544 Y145.191 E4.31
G1 X127.887 Y145.116 E4.39841
G1 X125.4 Y145.116 E4.48112
G1 X122.811 Y145.189 E4.56727
G1 X121.216 Y145.272 E4.62039
G1 X120.823 Y145.296 E4.63349
G1 X120.485 Y145.311 E4.64474
G1 X120.04 Y145.322 E4.65954
G1 X119.644 Y145.326 E4.67272
G1 X113.926 Y145.325 E4.8629
G1 X113.221 Y145.314 E4.88635
G1 X112.285 Y145.259 E4.91753
G1 X111.357 Y145.125 E4.94872
G1 X110.443 Y144.912 E4.97993
G1 X109.551 Y144.622 E5.01113
G1 X108.687 Y144.258 E5.04231
G1 X107.628 Y143.683 E5.08239
G1 X107.231 Y143.439 E5.09789
G1 X104.951 Y142.08 E5.18617
G1 X102.742 Y140.847 E5.27032
G1 X102.316 Y140.624 E5.28631
G1 X101.297 Y140.073 E5.32484
G1 X100.492 Y139.592 E5.35603
G1 X99.503 Y138.861 E5.39693
G1 X98.712 Y138.203 E5.43115
G1 X98.074 Y137.658 E5.45906
G1 X96.101 Y136.065 E5.5434
G1 X94.122 Y134.559 E5.62612
G1 X91.115 Y132.428 E5.7487
G1 X89.436 Y131.285 E5.81625
G1 X88.824 Y130.857 E5.84109
G1 X88.079 Y130.288 E5.87227
G1 X87.385 Y129.656 E5.90349
G1 X86.748 Y128.968 E5.93468
G1 X86.171 Y128.229 E5.96586
G1 X85.66 Y127.442 E5.99707
G1 X85.217 Y126.616 E6.02824
G1 X84.847 Y125.754 E6.05944
G1 X84.551 Y124.864 E6.09064
G1 X84.332 Y123.952 E6.12184
G1 X84.169 Y122.784 E6.16106
G1 X83.91 Y120.115 E6.25025
G1 X83.597 Y117.629 E6.33359
G1 X83.212 Y115.136 E6.41749
G1 X82.761 Y112.679 E6.50057
G1 X82.236 Y110.212 E6.58446
G1 X81.507 Y107.246 E6.68605
G1 X81.321 Y106.535 E6.71049
G1 X81.122 Y105.618 E6.7417
G1 X81.002 Y104.688 E6.77289
G1 X80.967 Y104.074 E6.79334
G1 X80.958 Y103.772 E6.80339
G1 X80.953 Y103.464 E6.81364
G1 X80.953 Y102.734 E6.83792
G1 X80.963 Y102.031 E6.8613
G1 X81.016 Y101.094 E6.89252
G1 X81.149 Y100.166 E6.9237
G1 X81.361 Y99.252 E6.9549
G1 X81.649 Y98.36 E6.98608
G1 X82.013 Y97.495 E7.01729
G1 X82.449 Y96.665 E7.04848
G1 X82.954 Y95.874 E7.07969
G1 X83.524 Y95.13 E7.11086
G1 X83.891 Y94.714 E7.12931
G1 X84.291 Y94.282 E7.1489
G1 X84.498 Y94.064 E7.1589
G1 X84.941 Y93.611 E7.17997
G1 X85.624 Y92.969 E7.21115
G0 F6000 X85.898 Y93.261
G1 F1200 X86.622 Y92.692 E7.24177
G1 X87.392 Y92.188 E7.27238
G1 X88.204 Y91.753 E7.30302
G1 X89.05 Y91.39 E7.33364
G1 X89.924 Y91.101 E7.36426
G1 X90.82 Y90.89 E7.39487
G1 X91.731 Y90.757 E7.42549
G1 X92.489 Y90.707 E7.45076
G1 X92.961 Y90.695 E7.46646
G1 X93.262 Y90.692 E7.47648
G1 X97.833 Y90.692 E7.62851
G1 X99.917 Y90.698 E7.69782
G1 X100.639 Y90.692 E7.72184
G1 X103.595 Y90.693 E7.82015
G1 X104.3 Y90.703 E7.8436
G1 X104.599 Y90.712 E7.85355
G1 X105.927 Y90.769 E7.89776
G1 X106.28 Y90.789 E7.90952
G1 X108.824 Y90.86 E7.99417
G1 X111.335 Y90.86 E8.07769
G1 X113.876 Y90.787 E8.16224
G1 X116.399 Y90.643 E8.24629
G1 X118.921 Y90.429 E8.33047
G1 X121.357 Y90.153 E8.41201
G1 X121.948 Y90.103 E8.43174
G1 X122.036 Y90.098 E8.43467
G1 X122.506 Y90.082 E8.45031
G1 X123.202 Y90.074 E8.47346
G1 X136.564 Y90.074 E8.91788
G1 X137.413 Y90.085 E8.94612
G1 X138.332 Y90.138 E8.97674
G1 X139.243 Y90.271 E9.00736
G1 X140.139 Y90.482 E9.03798
G1 X141.014 Y90.77 E9.06862
G1 X141.86 Y91.134 E9.09925
G1 X142.671 Y91.569 E9.12986
G1 X143.442 Y92.072 E9.16048
G1 X144.166 Y92.641 E9.1911
G1 X144.837 Y93.271 E9.22172
G1 X145.452 Y93.956 E9.25233
G1 X146.005 Y94.692 E9.28295
G1 X146.492 Y95.474 E9.31359
G1 X146.909 Y96.294 E9.34419
G1 X147.254 Y97.148 E9.37483
G1 X147.523 Y98.028 E9.40543
G1 X147.751 Y99.16 E9.44384
G1 X147.894 Y100.152 E9.47717
G1 X148 Y100.978 E9.50487
G1 X148.391 Y103.462 E9.58851
G1 X148.859 Y105.973 E9.67346
G1 X149.388 Y108.426 E9.75692
G1 X149.991 Y110.889 E9.84126
G1 X150.664 Y113.33 E9.92548
G1 X151.4 Y115.728 E10.00891
G1 X152.228 Y118.182 E10.09505
G1 X152.66 Y119.375 E10.13725
G1 X152.976 Y120.23 E10.16757
G1 X153.257 Y121.107 E10.1982
G1 X153.461 Y122.005 E10.22883
G1 X153.587 Y122.917 E10.25945
G1 X153.633 Y123.836 E10.29005
G1 X153.599 Y124.756 E10.32067
G1 X153.485 Y125.67 E10.35131
G1 X153.293 Y126.57 E10.38192
G1 X152.866 Y127.864 E10.42724
G1 X151.88 Y130.395 E10.51758
G1 X151.038 Y132.753 E10.60086
G1 X150.2 Y135.338 E10.69124
G1 X150.11 Y135.605 E10.70061
G1 X149.778 Y136.464 E10.73124
G1 X149.373 Y137.29 E10.76184
G1 X148.898 Y138.079 E10.79247
G1 X148.356 Y138.823 E10.82309
G1 X147.752 Y139.518 E10.85371
G1 X147.089 Y140.157 E10.88434
G1 X146.374 Y140.737 E10.91496
G1 X145.611 Y141.252 E10.94558
G1 X144.806 Y141.699 E10.9762
G1 X143.889 Y142.105 E11.00956
G1 X142.999 Y142.449 E11.04129
G1 X140.375 Y143.508 E11.13541
G1 X139.217 Y143.994 E11.17718
G1 X138.353 Y144.313 E11.20781
G1 X137.465 Y144.556 E11.23843
G1 X136.559 Y144.722 E11.26907
G1 X135.445 Y144.816 E11.30625
G1 X135.127 Y144.826 E11.31683
G1 X134.794 Y144.831 E11.32791
G1 X132.013 Y144.83 E11.42041
G1 X131.324 Y144.82 E11.44332
G1 X131.032 Y144.812 E11.45304
G1 X130.501 Y144.79 E11.47072
G1 X127.898 Y144.716 E11.55733
G1 X125.389 Y144.716 E11.64078
G1 X122.82 Y144.789 E11.72626
G1 X121.097 Y144.878 E11.78364
G1 X120.798 Y144.896 E11.7936
G1 X120.473 Y144.911 E11.80442
G1 X120.036 Y144.922 E11.81896
G1 X119.644 Y144.926 E11.832
G1 X113.933 Y144.925 E12.02195
G1 X113.228 Y144.914 E12.0454
G1 X112.309 Y144.859 E12.07602
G1 X111.398 Y144.726 E12.10664
G1 X110.502 Y144.513 E12.13728
G1 X109.628 Y144.224 E12.16789
G1 X108.782 Y143.86 E12.19852
G1 X107.838 Y143.343 E12.23432
G1 X107.389 Y143.067 E12.25185
G1 X105.172 Y141.745 E12.3377
G1 X102.928 Y140.494 E12.42315
G1 X102.506 Y140.272 E12.43901
G1 X101.487 Y139.721 E12.47754
G1 X100.697 Y139.249 E12.50815
G1 X99.759 Y138.553 E12.547
G1 X98.972 Y137.899 E12.58103
G1 X98.302 Y137.326 E12.61036
G1 X96.366 Y135.764 E12.69309
G1 X94.36 Y134.237 E12.77694
G1 X91.349 Y132.103 E12.89969
G1 X89.665 Y130.958 E12.96742
G1 X89.053 Y130.53 E12.99226
G1 X88.322 Y129.97 E13.02289
G1 X87.643 Y129.348 E13.05352
G1 X87.02 Y128.671 E13.08412
G1 X86.458 Y127.941 E13.11476
G1 X85.961 Y127.166 E13.14538
G1 X85.534 Y126.35 E13.17601
G1 X85.179 Y125.501 E13.20662
G1 X84.899 Y124.624 E13.23724
G1 X84.697 Y123.726 E13.26785
G1 X84.567 Y122.746 E13.30073
G1 X84.307 Y120.06 E13.39049
G1 X83.996 Y117.589 E13.47332
G1 X83.606 Y115.068 E13.55817
G1 X83.146 Y112.56 E13.64297
G1 X82.628 Y110.13 E13.72561
G1 X81.903 Y107.176 E13.82678
G1 X81.708 Y106.433 E13.85233
G1 X81.514 Y105.533 E13.88295
G1 X81.398 Y104.62 E13.91356
G1 X81.367 Y104.062 E13.93215
G1 X81.358 Y103.76 E13.9422
G1 X81.353 Y103.463 E13.95208
G1 X81.353 Y102.739 E13.97616
G1 X81.363 Y102.036 E13.99954
G1 X81.416 Y101.117 E14.03016
G1 X81.549 Y100.206 E14.06078
G1 X81.76 Y99.31 E14.0914
G1 X82.048 Y98.436 E14.122
G1 X82.411 Y97.589 E14.15265
G1 X82.846 Y96.778 E14.18326
G1 X83.35 Y96.007 E14.2139
G1 X84.184 Y94.985 E14.25777
G1 X84.584 Y94.553 E14.27735
G1 X84.783 Y94.344 E14.28695
G1 X85.226 Y93.891 E14.30803
G1 X85.898 Y93.261 E14.33866
G0 F6000 X86.172 Y93.553
G1 F1200 X86.883 Y92.997 E14.36868
G1 X87.641 Y92.506 E14.39872
G1 X88.439 Y92.083 E14.42876
G1 X89.272 Y91.733 E14.45881
G1 X90.132 Y91.458 E14.48884
G1 X91.013 Y91.261 E14.51887
G1 X91.908 Y91.141 E14.5489
G1 X92.501 Y91.107 E14.56866
G1 X92.965 Y91.095 E14.5841
G1 X93.262 Y91.092 E14.59398
G1 X97.832 Y91.092 E14.74597
G1 X99.92 Y91.098 E14.81542
G1 X100.643 Y91.092 E14.83947
G1 X103.59 Y91.093 E14.93749
G1 X104.295 Y91.103 E14.96094
G1 X104.582 Y91.111 E14.97049
G1 X105.905 Y91.168 E15.01453
G1 X106.282 Y91.189 E15.02709
G1 X108.813 Y91.26 E15.1113
G1 X111.346 Y91.26 E15.19555
G1 X113.911 Y91.187 E15.2809
G1 X116.419 Y91.043 E15.36445
G1 X118.964 Y90.827 E15.4494
G1 X121.402 Y90.551 E15.53101
G1 X121.97 Y90.502 E15.54997
G1 X122.058 Y90.497 E15.5529
G1 X122.511 Y90.482 E15.56798
G1 X123.202 Y90.474 E15.59096
G1 X136.564 Y90.474 E16.03539
G1 X137.407 Y90.485 E16.06343
G1 X138.309 Y90.538 E16.09348
G1 X139.202 Y90.67 E16.1235
G1 X140.08 Y90.881 E16.15354
G1 X140.936 Y91.169 E16.18358
G1 X141.764 Y91.532 E16.21365
G1 X142.555 Y91.966 E16.24365
G1 X143.306 Y92.468 E16.2737
G1 X144.009 Y93.035 E16.30374
G1 X144.659 Y93.662 E16.33378
G1 X145.251 Y94.344 E16.36381
G1 X145.781 Y95.075 E16.39384
G1 X146.243 Y95.851 E16.42388
G1 X146.636 Y96.664 E16.45392
G1 X146.954 Y97.509 E16.48395
G1 X147.197 Y98.379 E16.51399
G1 X147.355 Y99.217 E16.54235
G1 X147.497 Y100.203 E16.57548
G1 X147.603 Y101.031 E16.60325
G1 X148.003 Y103.567 E16.68864
G1 X148.461 Y106.026 E16.77183
G1 X149 Y108.527 E16.85693
G1 X149.594 Y110.952 E16.93997
G1 X150.283 Y113.448 E17.02609
G1 X151.025 Y115.868 E17.11028
G1 X151.848 Y118.306 E17.19586
G1 X152.309 Y119.581 E17.24095
G1 X152.6 Y120.369 E17.26889
G1 X152.876 Y121.229 E17.29893
G1 X153.074 Y122.11 E17.32897
G1 X153.193 Y123.005 E17.359
G1 X153.233 Y123.908 E17.38906
G1 X153.193 Y124.81 E17.41909
G1 X153.073 Y125.705 E17.44912
G1 X152.874 Y126.586 E17.47916
G1 X152.495 Y127.714 E17.51874
G1 X152.45 Y127.825 E17.52273
G1 X151.501 Y130.263 E17.60974
G1 X150.66 Y132.621 E17.69301
G1 X149.821 Y135.21 E17.78353
G1 X149.731 Y135.477 E17.7929
G1 X149.405 Y136.319 E17.82293
G1 X149.005 Y137.129 E17.85298
G1 X148.536 Y137.901 E17.88302
G1 X148 Y138.628 E17.91306
G1 X147.402 Y139.305 E17.9431
G1 X146.747 Y139.926 E17.97312
G1 X146.039 Y140.487 E18.00317
G1 X145.284 Y140.983 E18.03321
G1 X144.488 Y141.41 E18.06326
G1 X143.745 Y141.732 E18.09019
G1 X142.83 Y142.086 E18.12282
G1 X140.219 Y143.139 E18.21646
G1 X139.062 Y143.625 E18.2582
G1 X138.214 Y143.938 E18.28827
G1 X137.343 Y144.174 E18.31828
G1 X136.454 Y144.332 E18.34831
G1 X135.433 Y144.416 E18.38238
G1 X135.115 Y144.426 E18.39297
G1 X134.794 Y144.431 E18.40364
G1 X132.019 Y144.43 E18.49594
G1 X131.33 Y144.42 E18.51886
G1 X131.049 Y144.412 E18.52821
G1 X130.53 Y144.39 E18.54549
G1 X127.909 Y144.316 E18.6327
G1 X125.377 Y144.316 E18.71691
G1 X122.791 Y144.389 E18.80296
G1 X121.158 Y144.474 E18.85734
G1 X120.774 Y144.497 E18.87014
G1 X120.461 Y144.511 E18.88056
G1 X120.031 Y144.522 E18.89487
G1 X119.644 Y144.526 E18.90774
G1 X113.939 Y144.525 E19.09749
G1 X113.234 Y144.514 E19.12094
G1 X112.332 Y144.46 E19.15099
G1 X111.439 Y144.326 E19.18103
G1 X110.561 Y144.114 E19.21107
G1 X109.706 Y143.825 E19.24109
G1 X108.879 Y143.462 E19.27113
G1 X108.047 Y143.002 E19.30275
G1 X107.566 Y142.706 E19.32153
G1 X105.366 Y141.395 E19.40671
G1 X103.13 Y140.147 E19.49188
G1 X102.696 Y139.92 E19.50817
G1 X101.677 Y139.369 E19.5467
G1 X100.903 Y138.905 E19.57671
G1 X100.014 Y138.245 E19.61354
G1 X99.232 Y137.594 E19.64738
G1 X98.588 Y137.044 E19.67555
G1 X96.597 Y135.437 E19.76065
G1 X94.613 Y133.926 E19.8436
G1 X91.571 Y131.771 E19.96759
G1 X89.894 Y130.63 E20.03505
G1 X89.282 Y130.202 E20.05989
G1 X88.566 Y129.652 E20.08992
G1 X87.901 Y129.041 E20.11996
G1 X87.293 Y128.373 E20.15
G1 X86.746 Y127.655 E20.18002
G1 X86.264 Y126.89 E20.21009
G1 X85.853 Y126.087 E20.2401
G1 X85.514 Y125.25 E20.27013
G1 X85.25 Y124.386 E20.30018
G1 X85.064 Y123.502 E20.33023
G1 X84.963 Y122.69 E20.35744
G1 X84.953 Y122.57 E20.36145
G1 X84.708 Y120.042 E20.44592
G1 X84.39 Y117.515 E20.53063
G1 X84.002 Y115.007 E20.61504
G1 X83.544 Y112.511 E20.69945
G1 X83.019 Y110.048 E20.78321
G1 X82.282 Y107.046 E20.88602
G1 X82.095 Y106.332 E20.91057
G1 X81.905 Y105.449 E20.94061
G1 X81.794 Y104.553 E20.97064
G1 X81.767 Y104.05 E20.98739
G1 X81.758 Y103.748 E20.99744
G1 X81.753 Y103.462 E21.00695
G1 X81.753 Y102.745 E21.0308
G1 X81.763 Y102.042 E21.05419
G1 X81.816 Y101.14 E21.08424
G1 X81.948 Y100.247 E21.11426
G1 X82.159 Y99.369 E21.1443
G1 X82.447 Y98.513 E21.17433
G1 X82.809 Y97.686 E21.20436
G1 X83.243 Y96.894 E21.2344
G1 X83.745 Y96.143 E21.26444
G1 X84.478 Y95.257 E21.30269
G1 X84.878 Y94.825 E21.32227
G1 X85.069 Y94.623 E21.33152
G1 X85.512 Y94.17 E21.35259
G1 X86.172 Y93.553 E21.38264
G1 F2700 E16.38264
G0 F6000 X117.099 Y115.56
G1 F2700 E21.38264
G1 F1200 X117.267 Y115.42 E21.38991
G1 X117.487 Y115.39 E21.3973
G1 X117.715 Y115.51 E21.40587
G1 X117.813 Y115.695 E21.41283
G1 X117.806 Y115.901 E21.41969
G1 X117.668 Y116.097 E21.42766
G1 X117.444 Y116.179 E21.43559
G1 X117.248 Y116.138 E21.44225
G1 X117.085 Y115.984 E21.44971
G1 X117.029 Y115.775 E21.45691
G1 X117.099 Y115.56 E21.46443
G0 F6000 X116.73 Y115.396
G1 F1200 X116.892 Y115.192 E21.47309
G1 X117.115 Y115.049 E21.48191
G1 X117.389 Y114.987 E21.49125
G1 X117.443 Y114.986 E21.49305
G1 X117.703 Y115.035 E21.50184
