;FLAVOR:Marlin
;TIME:980
;Filament used: 0.420525m
;Layer height: 0.16
;MINX:98.288
;MINY:95.546
;MINZ:0.2
;MAXX:136.712
;MAXY:139.454
;MAXZ:5.88
;Generated with Cura_SteamEngine 4.8.0
M82 ;absolute extrusion mode
; Ender 3 Custom Start G-code
M117 Getting the bed up to temp!
M140 S50 ; Set Heat Bed temperature
M190 S50 ; Wait for Heat Bed temperature
M117 Pre-heating the extruder!
M104 S160; start warming extruder to 160
G28 ; Home all axes
M117 Auto bed-level GO!
G29 ; Auto bed-level (BL-Touch)
G92 E0 ; Reset Extruder
M117 Getting the extruder up to temp!
M104 S200 ; Set Extruder temperature
M109 S200 ; Wait for Extruder temperature
G1 Z1.0 F3000 ; move z up little to prevent scratching of surface
G1 X0.1 Y20 Z0.3 F5000.0 ; move to start-line position
M117 LET THE PURGE BEGIN!
G1 X0.1 Y200.0 Z0.3 F1500.0 E15 ; draw 1st line
G1 X0.4 Y200.0 Z0.3 F5000.0 ; move to side a little
G1 X0.4 Y20 Z0.3 F1500.0 E30 ; draw 2nd line
G92 E0 ; reset extruder
G1 Z1.0 F3000 ; move z up little to prevent scratching of surface
M117 Autobots! Roll Out!
; End of custom start GCode
G92 E0
G92 E0
G1 F2700 E-5
;LAYER_COUNT:31
;LAYER:0
M107
G0 F6000 X103.028 Y98.597 Z0.2
;TYPE:SKIRT
G1 F2700 E0
G1 F1200 X103.733 Y97.979 E0.03118
G1 X104.489 Y97.423 E0.06239
G1 X105.289 Y96.934 E0.09358
G1 X106.128 Y96.515 E0.12477
G1 X107 Y96.169 E0.15597
G1 X107.898 Y95.898 E0.18717
G1 X108.815 Y95.704 E0.21835
G1 X109.746 Y95.59 E0.24954
G1 X110.314 Y95.559 E0.26846
G1 X110.635 Y95.55 E0.27914
G1 X110.943 Y95.546 E0.28939
G1 X116.182 Y95.546 E0.46364
G1 X117.336 Y95.55 E0.50202
G1 X117.816 Y95.546 E0.51799
G1 X122.497 Y95.547 E0.67368
G1 X123.195 Y95.557 E0.6969
G1 X124.131 Y95.611 E0.72808
G1 X125.059 Y95.743 E0.75925
G1 X125.973 Y95.955 E0.79046
G1 X126.865 Y96.244 E0.82165
G1 X127.73 Y96.607 E0.85285
G1 X128.56 Y97.043 E0.88403
G1 X129.351 Y97.548 E0.91524
G1 X130.095 Y98.119 E0.94644
G1 X130.788 Y98.751 E0.97763
G1 X131.425 Y99.439 E1.00882
G1 X132 Y100.18 E1.04001
G1 X132.511 Y100.966 E1.07119
G1 X132.953 Y101.794 E1.10241
G1 X133.322 Y102.656 E1.1336
G1 X133.617 Y103.546 E1.16478
G1 X133.835 Y104.458 E1.19597
G1 X133.965 Y105.299 E1.22428
G1 X134.131 Y106.755 E1.27302
G1 X134.144 Y106.886 E1.2774
G1 X134.476 Y109.442 E1.36312
G1 X134.865 Y111.889 E1.44553
G1 X135.327 Y114.351 E1.52885
G1 X135.863 Y116.814 E1.61268
G1 X136.297 Y118.579 E1.67314
G1 X136.426 Y119.14 E1.69228
G1 X136.596 Y120.062 E1.72347
G1 X136.699 Y121.282 E1.76419
G1 X136.708 Y121.602 E1.77484
G1 X136.712 Y121.911 E1.78511
G1 X136.711 Y122.414 E1.80184
G1 X136.701 Y123.117 E1.82523
G1 X136.648 Y124.054 E1.85644
G1 X136.515 Y124.982 E1.88762
G1 X136.303 Y125.896 E1.91883
G1 X136.015 Y126.788 E1.95001
G1 X135.651 Y127.653 E1.98122
G1 X135.215 Y128.483 E2.0124
G1 X134.818 Y129.117 E2.03728
G1 X133.291 Y131.379 E2.12805
G1 X132.658 Y132.375 E2.16731
G1 X132.157 Y133.139 E2.19769
G1 X131.609 Y133.9 E2.22888
G1 X130.999 Y134.612 E2.26007
G1 X130.329 Y135.269 E2.29128
G1 X129.607 Y135.867 E2.32246
G1 X128.836 Y136.401 E2.35365
G1 X128.022 Y136.867 E2.38485
G1 X127.172 Y137.262 E2.41602
G1 X126.353 Y137.564 E2.44506
G1 X125.541 Y137.827 E2.47345
G1 X124.578 Y138.122 E2.50694
G1 X122.838 Y138.711 E2.56804
G1 X122.172 Y138.925 E2.59131
G1 X121.267 Y139.172 E2.62251
G1 X120.344 Y139.34 E2.65371
G1 X119.14 Y139.441 E2.6939
G1 X118.821 Y139.45 E2.70451
G1 X118.511 Y139.454 E2.71483
G1 X113.919 Y139.453 E2.86756
G1 X113.216 Y139.443 E2.89094
G1 X112.279 Y139.39 E2.92215
G1 X111.351 Y139.257 E2.95334
G1 X110.437 Y139.045 E2.98454
G1 X109.545 Y138.757 E3.01572
G1 X108.68 Y138.393 E3.04693
G1 X107.85 Y137.957 E3.07811
G1 X107.059 Y137.452 E3.10933
G1 X106.315 Y136.882 E3.1405
G1 X105.762 Y136.387 E3.16519
G1 X104.964 Y135.621 E3.20198
G1 X104.282 Y134.95 E3.2338
G1 X103.642 Y134.264 E3.265
G1 X102.978 Y133.407 E3.30106
G1 X102.474 Y132.617 E3.33223
G1 X102.098 Y131.911 E3.35883
G1 X101.709 Y131.109 E3.38848
G1 X101.215 Y130.057 E3.42713
G1 X100.535 Y128.687 E3.47801
G1 X99.766 Y127.107 E3.53645
G1 X99.525 Y126.632 E3.55417
G1 X99.409 Y126.394 E3.56297
G1 X99.034 Y125.535 E3.59415
G1 X98.734 Y124.646 E3.62535
G1 X98.511 Y123.735 E3.65655
G1 X98.366 Y122.808 E3.68775
G1 X98.301 Y121.88 E3.7187
G1 X98.292 Y121.556 E3.72948
G1 X98.288 Y121.251 E3.73962
G1 X98.289 Y120.699 E3.75798
G1 X98.3 Y120.02 E3.78057
G1 X98.356 Y119.084 E3.81175
G1 X98.432 Y118.492 E3.83161
G1 X98.564 Y117.654 E3.85982
G1 X98.931 Y115.072 E3.94656
G1 X99.214 Y112.589 E4.02968
G1 X99.428 Y110.079 E4.11347
G1 X99.572 Y107.544 E4.19792
G1 X99.631 Y106.102 E4.24592
G1 X99.71 Y105.167 E4.27713
G1 X99.868 Y104.243 E4.30831
G1 X100.104 Y103.335 E4.33951
G1 X100.416 Y102.451 E4.37069
G1 X100.803 Y101.596 E4.4019
G1 X101.261 Y100.778 E4.43309
G1 X101.787 Y100.001 E4.46429
G1 X102.378 Y99.273 E4.49548
G1 X103.028 Y98.597 E4.52667
G0 F6000 X103.415 Y98.782
G1 F1200 X104.117 Y98.186 E4.5573
G1 X104.867 Y97.653 E4.5879
G1 X105.661 Y97.187 E4.61853
G1 X106.493 Y96.792 E4.64916
G1 X107.356 Y96.471 E4.67978
G1 X108.243 Y96.225 E4.7104
G1 X109.148 Y96.058 E4.74101
G1 X110.325 Y95.959 E4.78029
G1 X110.646 Y95.95 E4.79097
G1 X110.943 Y95.946 E4.80085
G1 X116.18 Y95.946 E4.97504
G1 X117.337 Y95.95 E5.01352
G1 X117.819 Y95.946 E5.02955
G1 X122.491 Y95.947 E5.18494
G1 X123.189 Y95.957 E5.20816
G1 X124.108 Y96.01 E5.23878
G1 X125.019 Y96.143 E5.2694
G1 X125.915 Y96.354 E5.30001
G1 X126.789 Y96.642 E5.33062
G1 X127.636 Y97.005 E5.36127
G1 X128.447 Y97.44 E5.39188
G1 X129.217 Y97.944 E5.42249
G1 X129.941 Y98.513 E5.45311
G1 X130.613 Y99.143 E5.48375
G1 X131.228 Y99.828 E5.51437
G1 X131.781 Y100.564 E5.54499
G1 X132.268 Y101.345 E5.5756
G1 X132.685 Y102.166 E5.60623
G1 X133.03 Y103.02 E5.63686
G1 X133.299 Y103.9 E5.66747
G1 X133.491 Y104.801 E5.69811
G1 X133.568 Y105.345 E5.71638
G1 X133.718 Y106.649 E5.76004
G1 X133.748 Y106.945 E5.76994
G1 X134.078 Y109.486 E5.85516
G1 X134.47 Y111.954 E5.93827
G1 X134.937 Y114.438 E6.02234
G1 X135.475 Y116.915 E6.10665
G1 X135.949 Y118.844 E6.17271
G1 X136.037 Y119.229 E6.18585
G1 X136.202 Y120.135 E6.21648
G1 X136.299 Y121.293 E6.25513
G1 X136.308 Y121.613 E6.26578
G1 X136.312 Y121.911 E6.27569
G1 X136.311 Y122.409 E6.29225
G1 X136.301 Y123.112 E6.31564
G1 X136.248 Y124.031 E6.34625
G1 X136.115 Y124.942 E6.37687
G1 X135.904 Y125.838 E6.40749
G1 X135.616 Y126.712 E6.4381
G1 X135.253 Y127.559 E6.46875
G1 X134.818 Y128.37 E6.49936
G1 X134.487 Y128.893 E6.51994
G1 X132.949 Y131.171 E6.61136
G1 X132.32 Y132.161 E6.65037
G1 X131.823 Y132.919 E6.68052
G1 X131.285 Y133.666 E6.71114
G1 X130.683 Y134.363 E6.74177
G1 X130.024 Y135.006 E6.77239
G1 X129.311 Y135.589 E6.80303
G1 X128.551 Y136.107 E6.83362
G1 X127.748 Y136.558 E6.86425
G1 X126.909 Y136.938 E6.89488
G1 X126.23 Y137.183 E6.91889
G1 X125.248 Y137.5 E6.95321
G1 X124.439 Y137.747 E6.98135
G1 X122.71 Y138.332 E7.04206
G1 X122.05 Y138.544 E7.06511
G1 X121.162 Y138.785 E7.09571
G1 X120.255 Y138.949 E7.12637
G1 X119.129 Y139.041 E7.16395
G1 X118.81 Y139.05 E7.17456
G1 X118.511 Y139.054 E7.18451
G1 X113.924 Y139.053 E7.33707
G1 X113.221 Y139.043 E7.36046
G1 X112.302 Y138.99 E7.39107
G1 X111.391 Y138.857 E7.42169
G1 X110.495 Y138.646 E7.45231
G1 X109.621 Y138.358 E7.48292
G1 X108.774 Y137.995 E7.51357
G1 X107.963 Y137.56 E7.54418
G1 X107.192 Y137.056 E7.57481
G1 X106.468 Y136.488 E7.60542
G1 X106.039 Y136.098 E7.6247
G1 X105.245 Y135.336 E7.6613
G1 X104.563 Y134.665 E7.69313
G1 X103.935 Y133.991 E7.72377
G1 X103.306 Y133.178 E7.75795
G1 X102.811 Y132.401 E7.7886
G1 X102.458 Y131.736 E7.81364
G1 X102.071 Y130.939 E7.84311
G1 X101.578 Y129.888 E7.88172
G1 X100.895 Y128.512 E7.93281
G1 X100.133 Y126.947 E7.9907
G1 X99.983 Y126.654 E8.00165
G1 X99.769 Y126.219 E8.01778
G1 X99.401 Y125.375 E8.0484
G1 X99.109 Y124.502 E8.07902
G1 X98.894 Y123.607 E8.10963
G1 X98.756 Y122.696 E8.14028
G1 X98.701 Y121.869 E8.16785
G1 X98.692 Y121.545 E8.17863
G1 X98.688 Y121.251 E8.1884
G1 X98.689 Y120.705 E8.20656
G1 X98.7 Y120.026 E8.22915
G1 X98.755 Y119.107 E8.25977
G1 X98.827 Y118.554 E8.27832
G1 X98.962 Y117.696 E8.30721
G1 X99.326 Y115.142 E8.39301
G1 X99.611 Y112.635 E8.47693
G1 X99.827 Y110.098 E8.56162
G1 X99.973 Y107.517 E8.6476
G1 X100.031 Y106.118 E8.69417
G1 X100.109 Y105.201 E8.72478
G1 X100.266 Y104.294 E8.7554
G1 X100.501 Y103.404 E8.78601
G1 X100.813 Y102.537 E8.81666
G1 X101.199 Y101.701 E8.84729
G1 X101.655 Y100.902 E8.87789
G1 X102.18 Y100.145 E8.90853
G1 X102.768 Y99.437 E8.93914
G1 X103.415 Y98.782 E8.96976
G0 F6000 X103.801 Y98.971
G1 F1200 X104.499 Y98.397 E8.99981
G1 X105.244 Y97.888 E9.02982
G1 X106.032 Y97.446 E9.05988
G1 X106.856 Y97.076 E9.08992
G1 X107.709 Y96.78 E9.11995
G1 X108.585 Y96.56 E9.14999
G1 X109.477 Y96.419 E9.18003
G1 X110.336 Y96.359 E9.20867
G1 X110.657 Y96.35 E9.21935
G1 X110.943 Y96.346 E9.22886
G1 X116.179 Y96.346 E9.40301
G1 X117.339 Y96.35 E9.44159
G1 X117.822 Y96.346 E9.45766
G1 X122.485 Y96.347 E9.61275
G1 X123.183 Y96.357 E9.63597
G1 X124.085 Y96.41 E9.66602
G1 X124.978 Y96.542 E9.69604
G1 X125.856 Y96.753 E9.72608
G1 X126.712 Y97.041 E9.75612
G1 X127.539 Y97.403 E9.78614
G1 X128.331 Y97.838 E9.8162
G1 X129.082 Y98.34 E9.84624
G1 X129.785 Y98.907 E9.87628
G1 X130.435 Y99.534 E9.90632
G1 X131.027 Y100.216 E9.93635
G1 X131.557 Y100.947 E9.96639
G1 X132.019 Y101.723 E9.99642
G1 X132.412 Y102.536 E10.02646
G1 X132.73 Y103.381 E10.05649
G1 X132.973 Y104.251 E10.08653
G1 X133.17 Y105.39 E10.12498
G1 X133.335 Y106.836 E10.17338
G1 X133.351 Y106.997 E10.17876
G1 X133.68 Y109.534 E10.26385
G1 X134.075 Y112.013 E10.34734
G1 X134.547 Y114.532 E10.43258
G1 X135.082 Y116.989 E10.51622
G1 X135.559 Y118.933 E10.58279
G1 X135.647 Y119.318 E10.59593
G1 X135.809 Y120.207 E10.62598
G1 X135.899 Y121.304 E10.66259
G1 X135.908 Y121.624 E10.67324
G1 X135.912 Y121.911 E10.68279
G1 X135.911 Y122.403 E10.69915
G1 X135.901 Y123.106 E10.72254
G1 X135.848 Y124.008 E10.75259
G1 X135.716 Y124.901 E10.78261
G1 X135.505 Y125.779 E10.81265
G1 X135.217 Y126.635 E10.84269
G1 X134.855 Y127.462 E10.87271
G1 X134.421 Y128.254 E10.90275
G1 X134.155 Y128.669 E10.91914
G1 X132.612 Y130.954 E11.01085
G1 X131.897 Y132.079 E11.05518
G1 X131.489 Y132.7 E11.0799
G1 X130.96 Y133.432 E11.10994
G1 X130.368 Y134.114 E11.13997
G1 X129.719 Y134.742 E11.17001
G1 X129.016 Y135.309 E11.20005
G1 X128.266 Y135.812 E11.23009
G1 X127.475 Y136.247 E11.26011
G1 X126.648 Y136.61 E11.29015
G1 X126.107 Y136.803 E11.30925
G1 X125.295 Y137.066 E11.33764
G1 X124.321 Y137.365 E11.37153
G1 X122.582 Y137.953 E11.43259
G1 X121.928 Y138.163 E11.45543
G1 X121.057 Y138.399 E11.48545
G1 X120.168 Y138.557 E11.51548
G1 X119.118 Y138.641 E11.55051
G1 X118.799 Y138.65 E11.56113
G1 X118.511 Y138.654 E11.57071
G1 X113.93 Y138.653 E11.72307
G1 X113.227 Y138.643 E11.74646
G1 X112.325 Y138.59 E11.77651
G1 X111.432 Y138.458 E11.80653
G1 X110.554 Y138.247 E11.83657
G1 X109.698 Y137.959 E11.8666
G1 X108.871 Y137.597 E11.89663
G1 X108.079 Y137.163 E11.92667
G1 X107.328 Y136.661 E11.95671
G1 X106.315 Y135.809 E12.00074
G1 X105.525 Y135.051 E12.03715
G1 X104.843 Y134.38 E12.06897
G1 X104.228 Y133.719 E12.099
G1 X103.634 Y132.948 E12.13137
G1 X103.149 Y132.186 E12.16142
G1 X102.818 Y131.561 E12.18494
G1 X102.433 Y130.769 E12.21423
G1 X101.94 Y129.719 E12.25281
G1 X101.254 Y128.337 E12.30413
G1 X100.472 Y126.731 E12.36354
G1 X100.244 Y126.282 E12.38029
G1 X100.128 Y126.044 E12.38909
G1 X99.769 Y125.215 E12.41914
G1 X99.484 Y124.358 E12.44918
G1 X99.276 Y123.479 E12.47922
G1 X99.147 Y122.586 E12.50923
G1 X99.101 Y121.858 E12.53349
G1 X99.092 Y121.534 E12.54427
G1 X99.088 Y121.251 E12.55369
G1 X99.089 Y120.712 E12.57161
G1 X99.1 Y120.033 E12.5942
G1 X99.155 Y119.131 E12.62426
G1 X99.222 Y118.616 E12.64153
G1 X99.358 Y117.748 E12.67075
G1 X99.72 Y115.207 E12.75612
G1 X100.012 Y112.643 E12.84195
G1 X100.224 Y110.154 E12.92503
G1 X100.375 Y107.491 E13.01375
G1 X100.431 Y106.135 E13.05889
G1 X100.508 Y105.235 E13.08893
G1 X100.664 Y104.345 E13.11898
G1 X100.899 Y103.473 E13.14902
G1 X101.209 Y102.625 E13.17905
G1 X101.594 Y101.808 E13.20909
G1 X102.049 Y101.028 E13.23913
G1 X102.572 Y100.292 E13.26916
G1 X103.157 Y99.604 E13.29919
G1 X103.801 Y98.971 E13.32923
G1 F2700 E8.32923
G0 F6000 X116.303 Y105.885
G0 X116.807 Y106.389
G0 X116.807 Y107.895
G0 X115.953 Y112.921
G1 F2700 E13.32923
G1 F1200 X116.156 Y112.843 E13.33646
G1 X116.394 Y112.942 E13.34503
G1 X116.527 Y113.117 E13.35234
G1 X116.544 Y113.343 E13.35988
G1 X116.448 Y113.529 E13.36684
G1 X116.246 Y113.645 E13.37459
G1 X116.029 Y113.634 E13.38182
G1 X115.851 Y113.511 E13.38901
G1 X115.762 Y113.288 E13.397
G1 X115.798 Y113.092 E13.40363
G1 X115.953 Y112.921 E13.41131
G0 F6000 X115.835 Y112.53
G1 F1200 X116.156 Y112.42 E13.42259
G1 X116.447 Y112.52 E13.43283
G1 X116.713 Y112.688 E13.44329
G1 X116.901 Y112.973 E13.45465
G1 X116.953 Y113.297 E13.46556
G1 X116.867 Y113.62 E13.47668
G1 X116.657 Y113.88 E13.48779
G1 X116.346 Y114.034 E13.49934
G1 X116.014 Y114.044 E13.51038
G1 X115.702 Y113.911 E13.52166
G1 X115.472 Y113.665 E13.53286
G1 X115.364 Y113.337 E13.54435
G1 X115.4 Y113.01 E13.55529
G1 X115.571 Y112.72 E13.56649
G1 X115.835 Y112.53 E13.57731
G0 F6000 X115.537 Y112.235
G1 F1200 X115.677 Y112.162 E13.58256
G1 X116.156 Y111.996 E13.59942
G1 X116.591 Y112.147 E13.61473
G1 X116.855 Y112.286 E13.62466
G1 X117.104 Y112.525 E13.63614
G1 X117.275 Y112.83 E13.64777
G1 X117.349 Y113.146 E13.65856
G1 X117.331 Y113.496 E13.67022
G1 X117.221 Y113.808 E13.68122
G1 X117.024 Y114.087 E13.69258
G1 X116.746 Y114.302 E13.70427
G1 X116.446 Y114.422 E13.71502
G1 X116.122 Y114.456 E13.72585
G1 X115.77 Y114.393 E13.73775
G1 X115.47 Y114.239 E13.74896
G1 X115.225 Y114.012 E13.76007
G1 X115.052 Y113.72 E13.77136
G1 X114.965 Y113.377 E13.78313
G1 X114.977 Y113.054 E13.79388
G1 X115.08 Y112.735 E13.80503
G1 X115.277 Y112.448 E13.81661
G1 X115.537 Y112.235 E13.82779
G0 F6000 X115.326 Y111.895
G1 F1200 X115.525 Y111.791 E13.83525
G1 X116.014 Y111.623 E13.85245
G1 X116.156 Y111.56 E13.85762
G1 X116.248 Y111.605 E13.86102
G1 X116.74 Y111.775 E13.87834
G1 X117.088 Y111.961 E13.89146
G1 X117.281 Y112.123 E13.89984
G1 X117.548 Y112.47 E13.91441
G1 X117.712 Y112.89 E13.9294
G1 X117.753 Y113.337 E13.94433
G1 X117.671 Y113.772 E13.95905
G1 X117.456 Y114.192 E13.97475
G1 X117.152 Y114.511 E13.9894
G1 X116.942 Y114.651 E13.9978
G1 X116.558 Y114.806 E14.01157
G1 X116.303 Y114.852 E14.02019
G1 X115.871 Y114.833 E14.03457
G1 X115.446 Y114.691 E14.04948
G1 X115.058 Y114.42 E14.06522
G1 X114.794 Y114.092 E14.07922
G1 X114.608 Y113.653 E14.09508
G1 X114.559 Y113.226 E14.10937
G1 X114.585 Y112.976 E14.11773
G1 X114.715 Y112.571 E14.13188
G1 X114.974 Y112.185 E14.14734
G1 X115.326 Y111.895 E14.16251
G0 F6000 X115.092 Y111.569
G1 F1200 X115.349 Y111.432 E14.1722
G1 X115.394 Y111.412 E14.17383
G1 X115.884 Y111.244 E14.19106
G1 X116.155 Y111.121 E14.20096
G1 X116.378 Y111.227 E14.20917
G1 X116.887 Y111.403 E14.22709
G1 X117.098 Y111.496 E14.23476
G1 X117.318 Y111.634 E14.24339
G1 X117.529 Y111.806 E14.25245
G1 X117.736 Y112.032 E14.26264
G1 X117.898 Y112.276 E14.27238
G1 X118.022 Y112.539 E14.28205
G1 X118.098 Y112.784 E14.29059
G1 X118.147 Y113.066 E14.30011
G1 X118.153 Y113.337 E14.30912
G1 X118.12 Y113.633 E14.31903
G1 X118.05 Y113.902 E14.32827
G1 X117.937 Y114.169 E14.33792
G1 X117.776 Y114.434 E14.34823
G1 X117.592 Y114.651 E14.35769
G1 X117.387 Y114.835 E14.36685
G1 X117.179 Y114.976 E14.37521
G1 X116.914 Y115.11 E14.38509
G1 X116.671 Y115.19 E14.3936
G1 X116.383 Y115.245 E14.40335
G1 X116.104 Y115.257 E14.41264
G1 X115.814 Y115.229 E14.42233
G1 X115.539 Y115.16 E14.43176
G1 X115.507 Y115.15 E14.43287
G1 X115.269 Y115.051 E14.44145
G1 X115.013 Y114.897 E14.45138
G1 X114.779 Y114.707 E14.46141
G1 X114.587 Y114.496 E14.4709
G1 X114.419 Y114.244 E14.48097
G1 X114.312 Y114.027 E14.48902
G1 X114.218 Y113.742 E14.499
G1 X114.173 Y113.49 E14.50751
G1 X114.158 Y113.233 E14.51607
G1 X114.184 Y112.944 E14.52573
G1 X114.252 Y112.656 E14.53557
G1 X114.354 Y112.397 E14.54483
G1 X114.501 Y112.14 E14.55467
G1 X114.675 Y111.919 E14.56403
G1 X114.872 Y111.729 E14.57313
G1 X115.092 Y111.569 E14.58218
