;FLAVOR:Marlin
;TIME:2273
;Filament used: 1.7335m
;Layer height: 0.2
;MINX:31.5
;MINY:31.5
;MINZ:0.2
;MAXX:203.5
;MAXY:203.5
;MAXZ:2
;Generated with Cura_SteamEngine 4.6.0
M82 ;absolute extrusion mode
; Ender 3 Custom Start G-code
M140 S60 ; Set Heat Bed temperature
M190 S60 ; Wait for Heat Bed temperature
M104 S160; start warming extruder to 160
G28 ; Home all axes
M117 Nivellement Auto GO !
G29 ; Auto bed-level (BL-Touch)
G92 E0 ; Reset Extruder
M104 S210 ; Set Extruder temperature
M109 S210 ; Wait for Extruder temperature
G1 Z1.0 F3000 ; move z up little to prevent scratching of surface
G1 X0.1 Y20 Z0.3 F5000.0 ; move to start-line position
G1 X0.1 Y200.0 Z0.3 F1500.0 E15 ; draw 1st line
G1 X0.4 Y200.0 Z0.3 F5000.0 ; move to side a little
G1 X0.4 Y20 Z0.3 F1500.0 E30 ; draw 2nd line
G92 E0 ; reset extruder
G1 Z1.0 F3000 ; move z up little to prevent scratching of surface
M117 Allez Printe ma belle !
; End of custom start GCode
G92 E0
G92 E0
G1 F2700 E-5
;LAYER_COUNT:10
;LAYER:0
M107
G0 F6000 X192.637 Y32.311 Z0.2
;TYPE:SKIRT
G1 F2700 E0
G1 F1200 X193.539 Y32.364 E0.03005
G1 X194.432 Y32.496 E0.06008
G1 X195.31 Y32.707 E0.09011
G1 X196.166 Y32.995 E0.12015
G1 X196.993 Y33.357 E0.15018
G1 X197.785 Y33.792 E0.18023
G1 X198.536 Y34.294 E0.21027
G1 X199.239 Y34.861 E0.24031
G1 X199.889 Y35.488 E0.27035
G1 X200.481 Y36.17 E0.30039
G1 X201.011 Y36.901 E0.33042
G1 X201.473 Y37.677 E0.36046
G1 X201.866 Y38.49 E0.39049
G1 X202.184 Y39.335 E0.42052
G1 X202.427 Y40.205 E0.45056
G1 X202.592 Y41.093 E0.4806
G1 X202.687 Y42.223 E0.51832
G1 X202.7 Y42.83 E0.53851
G1 X202.7 Y191.764 E5.49208
G1 X202.69 Y192.617 E5.52045
G1 X202.639 Y193.519 E5.5505
G1 X202.508 Y194.413 E5.58055
G1 X202.299 Y195.291 E5.61057
G1 X202.013 Y196.148 E5.64062
G1 X201.652 Y196.976 E5.67066
G1 X201.22 Y197.768 E5.70067
G1 X200.719 Y198.52 E5.73072
G1 X200.153 Y199.224 E5.76077
G1 X199.528 Y199.875 E5.79078
G1 X198.847 Y200.469 E5.82084
G1 X198.116 Y201 E5.85089
G1 X197.342 Y201.464 E5.88091
G1 X196.529 Y201.858 E5.91095
G1 X195.685 Y202.178 E5.94098
G1 X194.815 Y202.423 E5.97104
G1 X193.928 Y202.589 E6.00105
G1 X192.777 Y202.687 E6.03947
G1 X192.17 Y202.7 E6.05967
G1 X43.207 Y202.7 E11.01419
G1 X42.377 Y202.69 E11.0418
G1 X41.476 Y202.639 E11.07182
G1 X40.582 Y202.507 E11.10188
G1 X39.704 Y202.298 E11.13189
G1 X38.847 Y202.011 E11.16195
G1 X38.02 Y201.65 E11.19197
G1 X37.227 Y201.217 E11.22202
G1 X36.476 Y200.716 E11.25204
G1 X35.772 Y200.15 E11.28209
G1 X35.121 Y199.524 E11.31213
G1 X34.528 Y198.843 E11.34216
G1 X33.998 Y198.112 E11.37219
G1 X33.534 Y197.337 E11.40223
G1 X33.14 Y196.524 E11.43228
G1 X32.82 Y195.68 E11.4623
G1 X32.576 Y194.81 E11.49236
G1 X32.41 Y193.922 E11.5224
G1 X32.313 Y192.767 E11.56095
G1 X32.3 Y192.158 E11.58121
G1 X32.3 Y43.174 E16.53644
G1 X32.31 Y42.371 E16.56315
G1 X32.362 Y41.469 E16.5932
G1 X32.494 Y40.576 E16.62323
G1 X32.704 Y39.698 E16.65325
G1 X32.991 Y38.841 E16.68331
G1 X33.353 Y38.014 E16.71334
G1 X33.786 Y37.222 E16.74336
G1 X34.288 Y36.471 E16.77341
G1 X34.855 Y35.767 E16.80347
G1 X35.481 Y35.117 E16.83349
G1 X36.162 Y34.524 E16.86352
G1 X36.894 Y33.994 E16.89358
G1 X37.669 Y33.531 E16.9236
G1 X38.482 Y33.138 E16.95364
G1 X39.327 Y32.818 E16.98369
G1 X40.196 Y32.575 E17.0137
G1 X41.084 Y32.409 E17.04375
G1 X42.223 Y32.313 E17.08177
G1 X42.83 Y32.3 E17.10196
G1 X191.793 Y32.3 E22.05649
G1 X191.939 Y32.301 E22.06135
G1 X192.637 Y32.311 E22.08456
G0 F6000 X192.643 Y31.911
G1 F1200 X193.562 Y31.964 E22.11518
G1 X194.473 Y32.097 E22.1458
G1 X195.369 Y32.308 E22.17642
G1 X196.243 Y32.596 E22.20703
G1 X197.09 Y32.959 E22.23767
G1 X197.901 Y33.394 E22.26828
G1 X198.671 Y33.898 E22.29889
G1 X199.395 Y34.467 E22.32952
G1 X200.067 Y35.097 E22.36016
G1 X200.682 Y35.782 E22.39077
G1 X201.235 Y36.518 E22.42139
G1 X201.722 Y37.299 E22.45201
G1 X202.139 Y38.12 E22.48263
G1 X202.484 Y38.974 E22.51327
G1 X202.753 Y39.854 E22.54387
G1 X202.945 Y40.755 E22.57451
G1 X203.058 Y41.668 E22.60511
G1 X203.087 Y42.212 E22.62323
G1 X203.1 Y42.83 E22.64379
G1 X203.1 Y191.764 E27.59736
G1 X203.09 Y192.622 E27.62589
G1 X203.039 Y193.541 E27.65651
G1 X202.908 Y194.453 E27.68715
G1 X202.698 Y195.349 E27.71776
G1 X202.412 Y196.224 E27.74838
G1 X202.051 Y197.071 E27.779
G1 X201.617 Y197.883 E27.80963
G1 X201.115 Y198.655 E27.84025
G1 X200.547 Y199.38 E27.87089
G1 X199.919 Y200.053 E27.9015
G1 X199.235 Y200.669 E27.93212
G1 X198.5 Y201.223 E27.96273
G1 X197.72 Y201.712 E27.99335
G1 X196.9 Y202.131 E28.02398
G1 X196.047 Y202.477 E28.05459
G1 X195.167 Y202.748 E28.08522
G1 X194.267 Y202.941 E28.11583
G1 X193.353 Y203.056 E28.14647
G1 X192.788 Y203.087 E28.16529
G1 X192.17 Y203.1 E28.18585
G1 X43.207 Y203.1 E33.14038
G1 X42.372 Y203.09 E33.16816
G1 X41.453 Y203.038 E33.19877
G1 X40.542 Y202.907 E33.22938
G1 X39.646 Y202.697 E33.25999
G1 X38.771 Y202.41 E33.29062
G1 X37.924 Y202.048 E33.32126
G1 X37.112 Y201.614 E33.35188
G1 X36.341 Y201.112 E33.38248
G1 X35.616 Y200.544 E33.41311
G1 X34.943 Y199.915 E33.44375
G1 X34.328 Y199.231 E33.47434
G1 X33.774 Y198.496 E33.50496
G1 X33.286 Y197.715 E33.53559
G1 X32.867 Y196.895 E33.56621
G1 X32.521 Y196.042 E33.59683
G1 X32.251 Y195.162 E33.62745
G1 X32.058 Y194.261 E33.65809
G1 X31.944 Y193.348 E33.6887
G1 X31.913 Y192.777 E33.70771
G1 X31.9 Y192.158 E33.72831
G1 X31.9 Y43.174 E38.68354
G1 X31.91 Y42.366 E38.71041
G1 X31.962 Y41.446 E38.74106
G1 X32.094 Y40.535 E38.77168
G1 X32.305 Y39.639 E38.80229
G1 X32.592 Y38.764 E38.83292
G1 X32.955 Y37.918 E38.86354
G1 X33.389 Y37.106 E38.89416
G1 X33.892 Y36.335 E38.92478
G1 X34.461 Y35.611 E38.95541
G1 X35.089 Y34.939 E38.986
G1 X35.774 Y34.323 E39.01664
G1 X36.51 Y33.77 E39.04726
G1 X37.291 Y33.282 E39.07789
G1 X38.111 Y32.864 E39.1085
G1 X38.965 Y32.519 E39.13914
G1 X39.845 Y32.249 E39.16975
G1 X40.745 Y32.057 E39.20036
G1 X41.659 Y31.943 E39.23099
G1 X42.212 Y31.913 E39.24941
G1 X42.83 Y31.9 E39.26997
G1 X191.793 Y31.9 E44.2245
G1 X191.945 Y31.901 E44.22956
G1 X192.643 Y31.911 E44.25278
G0 F6000 X192.649 Y31.511
G1 F1200 X193.585 Y31.565 E44.28396
G1 X194.513 Y31.697 E44.31514
G1 X195.427 Y31.909 E44.34634
G1 X196.319 Y32.198 E44.37753
G1 X197.184 Y32.561 E44.40873
G1 X198.014 Y32.997 E44.43991
G1 X198.805 Y33.502 E44.47113
G1 X199.549 Y34.073 E44.50232
G1 X200.242 Y34.705 E44.53351
G1 X200.879 Y35.393 E44.5647
G1 X201.454 Y36.134 E44.59589
G1 X201.965 Y36.92 E44.62708
G1 X202.407 Y37.748 E44.65829
G1 X202.776 Y38.61 E44.68948
G1 X203.071 Y39.5 E44.72067
G1 X203.289 Y40.412 E44.75185
G1 X203.429 Y41.34 E44.78307
G1 X203.487 Y42.201 E44.81177
G1 X203.5 Y42.83 E44.8327
G1 X203.5 Y191.764 E49.78626
G1 X203.49 Y192.627 E49.81497
G1 X203.439 Y193.564 E49.84618
G1 X203.307 Y194.492 E49.87735
G1 X203.098 Y195.406 E49.90854
G1 X202.811 Y196.299 E49.93973
G1 X202.449 Y197.165 E49.97095
G1 X202.015 Y197.996 E50.00213
G1 X201.511 Y198.787 E50.03333
G1 X200.942 Y199.532 E50.06451
G1 X200.311 Y200.227 E50.09573
G1 X199.624 Y200.865 E50.12691
G1 X198.885 Y201.442 E50.1581
G1 X198.099 Y201.954 E50.1893
G1 X197.273 Y202.397 E50.22047
G1 X196.411 Y202.769 E50.2517
G1 X195.522 Y203.065 E50.28286
G1 X194.61 Y203.285 E50.31407
G1 X193.683 Y203.426 E50.34525
G1 X192.799 Y203.487 E50.37472
G1 X192.17 Y203.5 E50.39565
G1 X43.207 Y203.5 E55.35018
G1 X42.367 Y203.49 E55.37812
G1 X41.431 Y203.438 E55.4093
G1 X40.502 Y203.306 E55.44051
G1 X39.588 Y203.096 E55.4717
G1 X38.695 Y202.809 E55.5029
G1 X37.83 Y202.446 E55.5341
G1 X36.999 Y202.012 E55.56528
G1 X36.208 Y201.508 E55.59648
G1 X35.463 Y200.938 E55.62768
G1 X34.769 Y200.307 E55.65887
G1 X34.132 Y199.62 E55.69003
G1 X33.555 Y198.88 E55.72124
G1 X33.043 Y198.094 E55.75244
G1 X32.6 Y197.267 E55.78365
G1 X32.229 Y196.406 E55.81483
G1 X31.933 Y195.516 E55.84602
G1 X31.714 Y194.604 E55.87722
G1 X31.573 Y193.677 E55.90841
G1 X31.513 Y192.788 E55.93804
G1 X31.5 Y192.158 E55.959
G1 X31.5 Y43.174 E60.91423
G1 X31.51 Y42.36 E60.9413
G1 X31.563 Y41.424 E60.97249
G1 X31.695 Y40.495 E61.0037
G1 X31.906 Y39.581 E61.03489
G1 X32.194 Y38.689 E61.06607
G1 X32.557 Y37.824 E61.09727
G1 X32.992 Y36.993 E61.12847
G1 X33.496 Y36.203 E61.15964
G1 X34.066 Y35.458 E61.19083
G1 X34.698 Y34.764 E61.22205
G1 X35.386 Y34.127 E61.25324
G1 X36.126 Y33.551 E61.28443
G1 X36.912 Y33.039 E61.31563
G1 X37.739 Y32.597 E61.34682
G1 X38.601 Y32.227 E61.37802
G1 X39.491 Y31.931 E61.40921
G1 X40.403 Y31.713 E61.4404
G1 X41.33 Y31.572 E61.47159
G1 X42.201 Y31.513 E61.50062
G1 X42.83 Y31.5 E61.52155
G1 X191.793 Y31.5 E66.47608
G1 X191.951 Y31.501 E66.48133
G1 X192.649 Y31.511 E66.50455
G1 F2700 E61.50455
;MESH:CHEP_bed_level_test.stl
G0 F6000 X172.911 Y62.088
G0 X172.48 Y62.52
G0 X172.028 Y172.028
G0 X62.8 Y172.2
;TYPE:WALL-OUTER
G1 F2700 E66.50455
G1 F1200 X172.2 Y172.2 E70.14321
G1 X172.2 Y62.8 E73.78187
G1 X62.8 Y62.8 E77.42053
G1 X62.8 Y172.2 E81.05919
G0 F6000 X62.7 Y172.3
G1 F1200 X62.7 Y62.7 E84.7045
G1 X172.3 Y62.7 E88.34981
G1 X172.3 Y172.3 E91.99512
G1 X62.7 Y172.3 E95.64043
G0 F6000 X62.9 Y172.1
G1 F2700 E90.64043
G0 F6000 X72.8 Y172
G0 X72.8 Y171.335
G0 X72.8 Y163.165
G0 X72.8 Y162.48
G0 X72.8 Y162.2
G1 F2700 E95.64043
G1 F1200 X162.2 Y162.2 E98.61389
G1 X162.2 Y72.8 E101.58734
G1 X72.8 Y72.8 E104.5608
G1 X72.8 Y162.2 E107.53425
G0 F6000 X72.7 Y162.3
G1 F1200 X72.7 Y72.7 E110.51436
G1 X162.3 Y72.7 E113.49447
G1 X162.3 Y162.3 E116.47458
G1 X72.7 Y162.3 E119.45469
G0 F6000 X72.9 Y162.1
G1 F2700 E114.45469
G0 F6000 X82.8 Y162
G0 X82.8 Y161.335
G0 X82.8 Y153.165
G0 X82.8 Y152.48
G0 X82.8 Y152.2
G1 F2700 E119.45469
G1 F1200 X152.2 Y152.2 E121.76294
G1 X152.2 Y82.8 E124.07119
G1 X82.8 Y82.8 E126.37945
G1 X82.8 Y152.2 E128.6877
G0 F6000 X82.7 Y152.3
G1 F1200 X82.7 Y82.7 E131.0026
G1 X152.3 Y82.7 E133.31751
G1 X152.3 Y152.3 E135.63242
G1 X82.7 Y152.3 E137.94732
G0 F6000 X82.9 Y152.1
G1 F2700 E132.94732
G0 F6000 X92.8 Y152
G0 X92.8 Y151.335
G0 X92.8 Y143.165
G0 X92.8 Y142.48
G0 X92.8 Y142.2
G1 F2700 E137.94732
G1 F1200 X142.2 Y142.2 E139.59037
G1 X142.2 Y92.8 E141.23342
G1 X92.8 Y92.8 E142.87647
G1 X92.8 Y142.2 E144.51952
G0 F6000 X92.7 Y142.3
G1 F1200 X92.7 Y92.7 E146.16923
G1 X142.3 Y92.7 E147.81893
G1 X142.3 Y142.3 E149.46863
G1 X92.7 Y142.3 E151.11833
G0 F6000 X92.9 Y142.1
G1 F2700 E146.11833
G0 F6000 X102.8 Y142
G0 X102.8 Y141.335
G0 X102.8 Y133.165
G0 X102.8 Y132.48
G0 X102.8 Y132.2
G1 F2700 E151.11833
G1 F1200 X132.2 Y132.2 E152.09618
G1 X132.2 Y102.8 E153.07403
G1 X102.8 Y102.8 E154.05188
G1 X102.8 Y132.2 E155.02973
G0 F6000 X102.7 Y132.3
G1 F1200 X102.7 Y102.7 E156.01423
G1 X132.3 Y102.7 E156.99873
G1 X132.3 Y132.3 E157.98323
G1 X102.7 Y132.3 E158.96773
G0 F6000 X102.9 Y132.1
G1 F2700 E153.96773
G0 F6000 X102.514 Y132.486
G0 X102.514 Y133.165
G0 X102.514 Y181.335
G0 X102.514 Y182
G0 X52.8 Y182.2
G1 F2700 E158.96773
G1 F1200 X182.2 Y182.2 E163.27159
G1 X182.2 Y52.8 E167.57545
G1 X52.8 Y52.8 E171.87931
G1 X52.8 Y182.2 E176.18317
G0 F6000 X52.7 Y182.3
G1 F1200 X52.7 Y52.7 E180.49369
G1 X182.3 Y52.7 E184.8042
G1 X182.3 Y182.3 E189.11471
G1 X52.7 Y182.3 E193.42523
G0 F6000 X52.9 Y182.1
G1 F2700 E188.42523
G0 F6000 X52.514 Y182.486
G0 X52.514 Y183.165
G0 X52.514 Y191.335
G0 X52.514 Y192
G0 X42.8 Y192.2
G1 F2700 E193.42523
G1 F1200 X192.2 Y192.2 E198.39429
G1 X192.2 Y42.8 E203.36335
G1 X42.8 Y42.8 E208.33242
G1 X42.8 Y192.2 E213.30148
G0 F6000 X42.7 Y192.3
G1 F1200 X42.7 Y42.7 E218.2772
G1 X192.3 Y42.7 E223.25292
G1 X192.3 Y192.3 E228.22863
G1 X42.7 Y192.3 E233.20435
M104 S210
G0 F6000 X42.9 Y192.1
G1 F2700 E228.20435
;MESH:NONMESH
G0 F300 X42.9 Y192.1 Z0.4
G0 F6000 X62.8 Y192
G0 X62.8 Y191.335
G0 X62.8 Y173.165
G0 X62.8 Y172.48
G0 X62.8 Y172.2
;TIME_ELAPSED:367.022713
;LAYER:1
M140 S60
M106 S85
;TYPE:WALL-OUTER
;MESH:CHEP_bed_level_test.stl
G1 F2700 E233.20435
G1 F1350 X172.2 Y172.2 E236.84301
G1 X172.2 Y62.8 E240.48167
G1 X62.8 Y62.8 E244.12032
G1 X62.8 Y172.2 E247.75898
G0 F7500 X62.7 Y172.3
G1 F1350 X62.7 Y62.7 E251.40429
G1 X172.3 Y62.7 E255.0496
G1 X172.3 Y172.3 E258.69492
G1 X62.7 Y172.3 E262.34023
G0 F7500 X62.9 Y172.1
G1 F2700 E257.34023
G0 F7500 X72.8 Y172
G0 X72.8 Y171.335
G0 X72.8 Y163.165
G0 X72.8 Y162.48
G0 X72.8 Y162.2
G1 F2700 E262.34023
G1 F1350 X162.2 Y162.2 E265.31368
G1 X162.2 Y72.8 E268.28714
G1 X72.8 Y72.8 E271.26059
G1 X72.8 Y162.2 E274.23405
G0 F7500 X72.7 Y162.3
G1 F1350 X72.7 Y72.7 E277.21416
G1 X162.3 Y72.7 E280.19427
G1 X162.3 Y162.3 E283.17437
G1 X72.7 Y162.3 E286.15448
G0 F7500 X72.9 Y162.1
G1 F2700 E281.15448
G0 F7500 X82.8 Y162
G0 X82.8 Y161.335
G0 X82.8 Y153.165
G0 X82.8 Y152.48
G0 X82.8 Y152.2
G1 F2700 E286.15448
G1 F1350 X152.2 Y152.2 E288.46274
G1 X152.2 Y82.8 E290.77099
G1 X82.8 Y82.8 E293.07924
G1 X82.8 Y152.2 E295.3875
G0 F7500 X82.7 Y152.3
G1 F1350 X82.7 Y82.7 E297.7024
G1 X152.3 Y82.7 E300.01731
G1 X152.3 Y152.3 E302.33221
G1 X82.7 Y152.3 E304.64712
G0 F7500 X82.9 Y152.1
G1 F2700 E299.64712
G0 F7500 X92.8 Y152
G0 X92.8 Y151.335
G0 X92.8 Y143.165
G0 X92.8 Y142.48
G0 X92.8 Y142.2
G1 F2700 E304.64712
G1 F1350 X142.2 Y142.2 E306.29017
G1 X142.2 Y92.8 E307.93322
G1 X92.8 Y92.8 E309.57627
G1 X92.8 Y142.2 E311.21932
G0 F7500 X92.7 Y142.3
G1 F1350 X92.7 Y92.7 E312.86902
G1 X142.3 Y92.7 E314.51873
G1 X142.3 Y142.3 E316.16843
G1 X92.7 Y142.3 E317.81813
G0 F7500 X92.9 Y142.1
G1 F2700 E312.81813
G0 F7500 X102.8 Y142
G0 X102.8 Y141.335
G0 X102.8 Y133.165
G0 X102.8 Y132.48
G0 X102.8 Y132.2
G1 F2700 E317.81813
G1 F1350 X132.2 Y132.2 E318.79598
G1 X132.2 Y102.8 E319.77383
G1 X102.8 Y102.8 E320.75168
G1 X102.8 Y132.2 E321.72952
G0 F7500 X102.7 Y132.3
G1 F1350 X102.7 Y102.7 E322.71402
G1 X132.3 Y102.7 E323.69852
G1 X132.3 Y132.3 E324.68302
G1 X102.7 Y132.3 E325.66752
G0 F7500 X102.9 Y132.1
G1 F2700 E320.66752
G0 F7500 X102.514 Y132.486
G0 X102.514 Y133.165
G0 X102.514 Y181.335
G0 X102.514 Y182
G0 X52.8 Y182.2
G1 F2700 E325.66752
G1 F1350 X182.2 Y182.2 E329.97138
G1 X182.2 Y52.8 E334.27525
G1 X52.8 Y52.8 E338.57911
G1 X52.8 Y182.2 E342.88297
G0 F7500 X52.7 Y182.3
G1 F1350 X52.7 Y52.7 E347.19348
G1 X182.3 Y52.7 E351.504
G1 X182.3 Y182.3 E355.81451
G1 X52.7 Y182.3 E360.12502
G0 F7500 X52.9 Y182.1
G1 F2700 E355.12502
G0 F7500 X52.514 Y182.486
G0 X52.514 Y183.165
G0 X52.514 Y191.335
G0 X52.514 Y192
G0 X42.8 Y192.2
G1 F2700 E360.12502
G1 F1350 X192.2 Y192.2 E365.09409
G1 X192.2 Y42.8 E370.06315
G1 X42.8 Y42.8 E375.03222
G1 X42.8 Y192.2 E380.00128
G0 F7500 X42.7 Y192.3
G1 F1350 X42.7 Y42.7 E384.977
G1 X192.3 Y42.7 E389.95271
G1 X192.3 Y192.3 E394.92843
G1 X42.7 Y192.3 E399.90414
G0 F7500 X42.9 Y192.1
G1 F2700 E394.90414
;MESH:NONMESH
G0 F300 X42.9 Y192.1 Z0.6
G0 F7500 X62.8 Y192
G0 X62.8 Y191.335
G0 X62.8 Y173.165
G0 X62.8 Y172.48
G0 X62.8 Y172.2
;TIME_ELAPSED:598.595997
;LAYER:2
M106 S170
;TYPE:WALL-OUTER
;MESH:CHEP_bed_level_test.stl
G1 F2700 E399.90414
G1 F1500 X172.2 Y172.2 E403.5428
G1 X172.2 Y62.8 E407.18146
G1 X62.8 Y62.8 E410.82012
G1 X62.8 Y172.2 E414.45878
G0 F9000 X62.7 Y172.3
G1 F1500 X62.7 Y62.7 E418.10409
G1 X172.3 Y62.7 E421.7494
G1 X172.3 Y172.3 E425.39471
G1 X62.7 Y172.3 E429.04002
G0 F9000 X62.9 Y172.1
G1 F2700 E424.04002
G0 F9000 X72.8 Y172
G0 X72.8 Y171.335
G0 X72.8 Y163.165
G0 X72.8 Y162.48
G0 X72.8 Y162.2
G1 F2700 E429.04002
G1 F1500 X162.2 Y162.2 E432.01348
G1 X162.2 Y72.8 E434.98694
G1 X72.8 Y72.8 E437.96039
G1 X72.8 Y162.2 E440.93385
G0 F9000 X72.7 Y162.3
G1 F1500 X72.7 Y72.7 E443.91396
G1 X162.3 Y72.7 E446.89406
G1 X162.3 Y162.3 E449.87417
G1 X72.7 Y162.3 E452.85428
G0 F9000 X72.9 Y162.1
G1 F2700 E447.85428
G0 F9000 X82.8 Y162
G0 X82.8 Y161.335
G0 X82.8 Y153.165
G0 X82.8 Y152.48
G0 X82.8 Y152.2
G1 F2700 E452.85428
G1 F1500 X152.2 Y152.2 E455.16253
G1 X152.2 Y82.8 E457.47079
G1 X82.8 Y82.8 E459.77904
G1 X82.8 Y152.2 E462.08729
G0 F9000 X82.7 Y152.3
G1 F1500 X82.7 Y82.7 E464.4022
G1 X152.3 Y82.7 E466.7171
G1 X152.3 Y152.3 E469.03201
G1 X82.7 Y152.3 E471.34691
G0 F9000 X82.9 Y152.1
G1 F2700 E466.34691
G0 F9000 X92.8 Y152
G0 X92.8 Y151.335
G0 X92.8 Y143.165
G0 X92.8 Y142.48
G0 X92.8 Y142.2
G1 F2700 E471.34691
G1 F1500 X142.2 Y142.2 E472.98997
G1 X142.2 Y92.8 E474.63302
G1 X92.8 Y92.8 E476.27607
G1 X92.8 Y142.2 E477.91912
G0 F9000 X92.7 Y142.3
G1 F1500 X92.7 Y92.7 E479.56882
G1 X142.3 Y92.7 E481.21852
