;FLAVOR:Marlin
;TIME:2798
;Filament used: 0.873157m
;Layer height: 0.16
;MINX:98.964
;MINY:99.194
;MINZ:0.2
;MAXX:136.378
;MAXY:135.71
;MAXZ:36
;Generated with Cura_SteamEngine 4.8.0
M82 ;absolute extrusion mode
; Ender 3 Custom Start G-code
M117 Getting the bed up to temp!
M140 S60 ; Set Heat Bed temperature
M190 S60 ; Wait for Heat Bed temperature
M117 Pre-heating the extruder!
M104 S160; start warming extruder to 160
G28 ; Home all axes
M117 Auto bed-level GO!
G29 ; Auto bed-level (BL-Touch)
G92 E0 ; Reset Extruder
M117 Getting the extruder up to temp!
M104 S190 ; Set Extruder temperature
M109 S190 ; Wait for Extruder temperature
G1 Z1.0 F3000 ; move z up little to prevent scratching of surface
G1 X0.1 Y20 Z0.3 F5000.0 ; move to start-line position
M117 LET THE PURGE BEGIN!
G1 X0.1 Y200.0 Z0.3 F1500.0 E15 ; draw 1st line
G1 X0.4 Y200.0 Z0.3 F5000.0 ; move to side a little
G1 X0.4 Y20 Z0.3 F1500.0 E30 ; draw 2nd line
G92 E0 ; reset extruder
G1 Z1.0 F3000 ; move z up little to prevent scratching of surface
M117 Autobots! Roll Out!
; End of custom start GCode
G92 E0
G92 E0
G1 F3000 E-10
;LAYER_COUNT:181
;LAYER:0
M107
G0 F6000 X103.646 Y104.753 Z0.2
;TYPE:SKIRT
G1 F3000 E0
G1 F1200 X104.208 Y104.198 E0.02627
G1 X104.671 Y103.817 E0.04621
G1 X106.292 Y102.583 E0.11397
G1 X107.811 Y101.358 E0.17888
G1 X108.45 Y100.894 E0.20514
G1 X109.132 Y100.497 E0.23139
G1 X109.851 Y100.171 E0.25765
G1 X110.6 Y99.919 E0.28393
G1 X111.462 Y99.729 E0.31329
G1 X114.039 Y99.312 E0.40012
G1 X115.21 Y99.212 E0.4392
G1 X117.084 Y99.194 E0.50154
G1 X117.873 Y99.227 E0.5278
G1 X118.655 Y99.339 E0.55408
G1 X119.421 Y99.529 E0.58033
G1 X120.164 Y99.796 E0.60659
G1 X121.06 Y100.24 E0.63985
G1 X123.311 Y101.54 E0.7263
G1 X123.974 Y101.969 E0.75257
G1 X124.452 Y102.343 E0.77275
G1 X125.015 Y102.82 E0.7973
G1 X125.591 Y103.36 E0.82356
G1 X126.109 Y103.956 E0.84982
G1 X126.565 Y104.601 E0.87609
G1 X126.615 Y104.69 E0.87949
G1 X126.898 Y104.733 E0.88901
G1 X127.663 Y104.931 E0.91529
G1 X128.403 Y105.205 E0.94154
G1 X129.305 Y105.664 E0.9752
G1 X131.924 Y107.216 E1.07645
G1 X132.583 Y107.652 E1.10273
G1 X133.193 Y108.153 E1.12899
G1 X133.75 Y108.713 E1.15526
G1 X134.247 Y109.326 E1.18151
G1 X134.68 Y109.987 E1.20779
G1 X135.044 Y110.688 E1.23406
G1 X135.366 Y111.513 E1.26352
G1 X135.996 Y113.45 E1.33126
G1 X136.201 Y114.213 E1.35754
G1 X136.329 Y114.992 E1.3838
G1 X136.378 Y115.78 E1.41006
G1 X136.346 Y116.569 E1.43632
G1 X136.235 Y117.351 E1.46259
G1 X135.996 Y118.276 E1.49437
G1 X135.976 Y118.337 E1.4965
G1 X136.081 Y118.779 E1.51161
G1 X136.185 Y119.562 E1.53788
G1 X136.208 Y120.352 E1.56417
G1 X136.152 Y121.139 E1.59041
G1 X136.017 Y121.917 E1.61667
G1 X135.784 Y122.734 E1.64493
G1 X135.037 Y124.901 E1.72117
G1 X134.742 Y125.634 E1.74745
G1 X134.33 Y126.408 E1.77661
G1 X133.266 Y128.16 E1.84479
G1 X132.822 Y128.813 E1.87105
G1 X132.315 Y129.418 E1.89731
G1 X131.749 Y129.969 E1.92358
G1 X131.308 Y130.329 E1.94251
G1 X129.259 Y131.881 E2.02801
G1 X126.8 Y133.769 E2.13112
G1 X126.15 Y134.217 E2.15737
G1 X125.458 Y134.598 E2.18365
G1 X124.731 Y134.907 E2.20992
G1 X123.977 Y135.14 E2.23617
G1 X123.291 Y135.283 E2.25948
G1 X121.175 Y135.624 E2.33076
G1 X120.39 Y135.71 E2.35703
G1 X119.252 Y135.693 E2.39488
G1 X116.861 Y135.483 E2.47471
G1 X116.078 Y135.374 E2.50101
G1 X115.311 Y135.187 E2.52727
G1 X114.567 Y134.923 E2.55352
G1 X113.853 Y134.585 E2.5798
G1 X112.977 Y134.037 E2.61416
G1 X111.023 Y132.626 E2.69433
G1 X110.407 Y132.132 E2.72059
G1 X109.844 Y131.578 E2.74686
G1 X109.34 Y130.97 E2.77313
G1 X108.9 Y130.314 E2.7994
G1 X108.528 Y129.617 E2.82568
G1 X108.229 Y128.886 E2.85195
G1 X108.044 Y128.28 E2.87302
G1 X107.568 Y126.464 E2.93546
G1 X107.454 Y125.918 E2.95401
G1 X107.369 Y125.899 E2.95691
G1 X106.619 Y125.652 E2.98317
G1 X105.898 Y125.331 E3.00942
G1 X105.213 Y124.938 E3.03569
G1 X104.559 Y124.467 E3.0625
G1 X102.423 Y122.758 E3.15348
G1 X101.832 Y122.235 E3.17973
G1 X101.297 Y121.654 E3.206
G1 X100.824 Y121.022 E3.23225
G1 X100.417 Y120.345 E3.25853
G1 X100.08 Y119.63 E3.28482
G1 X99.818 Y118.886 E3.31105
G1 X99.695 Y118.42 E3.32708
G1 X99.161 Y116.103 E3.40616
G1 X99.023 Y115.325 E3.43245
G1 X98.964 Y114.538 E3.45869
G1 X98.985 Y113.748 E3.48498
G1 X99.086 Y112.965 E3.51124
G1 X99.262 Y112.208 E3.53709
G1 X99.866 Y110.094 E3.61021
G1 X100.121 Y109.347 E3.63647
G1 X100.451 Y108.629 E3.66275
G1 X100.851 Y107.948 E3.68902
G1 X101.318 Y107.312 E3.71526
G1 X101.617 Y106.966 E3.73047
G1 X103.646 Y104.753 E3.83033
G0 F6000 X103.941 Y105.023
G1 F1200 X104.489 Y104.484 E3.85589
G1 X104.914 Y104.135 E3.87418
G1 X106.523 Y102.91 E3.94145
G1 X108.062 Y101.669 E4.0072
G1 X108.685 Y101.218 E4.03278
G1 X109.351 Y100.834 E4.05835
G1 X110.054 Y100.521 E4.08395
G1 X110.785 Y100.283 E4.10952
G1 X111.526 Y100.124 E4.13472
G1 X114.103 Y99.707 E4.22155
G1 X115.214 Y99.612 E4.25864
G1 X117.088 Y99.594 E4.32097
G1 X117.856 Y99.627 E4.34653
G1 X118.617 Y99.739 E4.37212
G1 X119.362 Y99.93 E4.3977
G1 X120.084 Y100.197 E4.4233
G1 X120.86 Y100.586 E4.45217
G1 X123.111 Y101.886 E4.53863
G1 X123.756 Y102.305 E4.56421
G1 X124.194 Y102.648 E4.58272
G1 X124.757 Y103.125 E4.60726
G1 X125.317 Y103.652 E4.63283
G1 X125.819 Y104.234 E4.6584
G1 X126.259 Y104.866 E4.68401
G1 X126.364 Y105.056 E4.69123
G1 X126.857 Y105.133 E4.70783
G1 X127.6 Y105.331 E4.7334
G1 X128.319 Y105.605 E4.75899
G1 X129.102 Y106.008 E4.78828
G1 X131.721 Y107.56 E4.88954
G1 X132.361 Y107.986 E4.91511
G1 X132.954 Y108.476 E4.94069
G1 X133.492 Y109.025 E4.96626
G1 X133.971 Y109.627 E4.99185
G1 X134.385 Y110.275 E5.01742
G1 X134.729 Y110.963 E5.04301
G1 X134.985 Y111.637 E5.06699
G1 X135.615 Y113.574 E5.13473
G1 X135.815 Y114.317 E5.16033
G1 X135.936 Y115.077 E5.18592
G1 X135.978 Y115.845 E5.2115
G1 X135.94 Y116.613 E5.23708
G1 X135.822 Y117.373 E5.26266
G1 X135.615 Y118.152 E5.28947
G1 X135.561 Y118.318 E5.29527
G1 X135.695 Y118.891 E5.31485
G1 X135.79 Y119.654 E5.34042
G1 X135.806 Y120.423 E5.366
G1 X135.742 Y121.19 E5.3916
G1 X135.599 Y121.946 E5.41719
G1 X135.406 Y122.604 E5.44
G1 X134.659 Y124.771 E5.51624
G1 X134.371 Y125.484 E5.54181
G1 X133.988 Y126.2 E5.56882
G1 X132.924 Y127.952 E5.637
G1 X132.491 Y128.588 E5.66259
G1 X131.995 Y129.175 E5.68815
G1 X131.44 Y129.708 E5.71374
G1 X131.067 Y130.01 E5.7297
G1 X128.977 Y131.593 E5.8169
G1 X126.557 Y133.451 E5.91838
G1 X125.923 Y133.888 E5.94399
G1 X125.248 Y134.256 E5.96956
G1 X124.538 Y134.551 E5.99513
G1 X123.801 Y134.772 E6.02072
G1 X123.227 Y134.888 E6.0402
G1 X121.111 Y135.229 E6.11149
G1 X120.347 Y135.311 E6.13705
G1 X119.287 Y135.295 E6.17231
G1 X116.896 Y135.085 E6.25214
G1 X116.134 Y134.978 E6.27773
G1 X115.387 Y134.792 E6.30333
G1 X114.664 Y134.53 E6.32891
G1 X113.972 Y134.194 E6.3545
G1 X113.211 Y133.712 E6.38446
G1 X111.257 Y132.301 E6.46462
G1 X110.657 Y131.819 E6.49022
G1 X110.111 Y131.278 E6.51578
G1 X109.625 Y130.682 E6.54136
G1 X109.202 Y130.039 E6.56696
G1 X108.849 Y129.356 E6.59253
G1 X108.568 Y128.64 E6.61811
G1 X108.431 Y128.178 E6.63414
G1 X107.955 Y126.362 E6.69658
G1 X107.799 Y125.609 E6.72216
G1 X107.796 Y125.584 E6.723
G1 X107.437 Y125.503 E6.73524
G1 X106.708 Y125.257 E6.76083
G1 X106.008 Y124.937 E6.78643
G1 X105.346 Y124.547 E6.81198
G1 X104.809 Y124.155 E6.83409
G1 X102.673 Y122.446 E6.92508
G1 X102.098 Y121.935 E6.95066
G1 X101.579 Y121.367 E6.97626
G1 X101.123 Y120.748 E7.00183
G1 X100.732 Y120.086 E7.0274
G1 X100.413 Y119.386 E7.05298
G1 X100.085 Y118.33 E7.08976
G1 X99.551 Y116.013 E7.16885
G1 X99.417 Y115.255 E7.19445
G1 X99.363 Y114.488 E7.22002
G1 X99.389 Y113.719 E7.24561
G1 X99.494 Y112.958 E7.27116
G1 X99.647 Y112.318 E7.29305
G1 X100.251 Y110.204 E7.36618
G1 X100.5 Y109.476 E7.39177
G1 X100.824 Y108.779 E7.41733
G1 X101.218 Y108.118 E7.44293
G1 X101.912 Y107.236 E7.48025
G1 X103.941 Y105.023 E7.58011
G0 F6000 X104.235 Y105.293
G1 F1200 X104.77 Y104.77 E7.605
G1 X105.156 Y104.454 E7.62159
G1 X106.771 Y103.225 E7.68909
G1 X108.313 Y101.981 E7.75498
G1 X108.919 Y101.543 E7.77985
G1 X109.569 Y101.172 E7.80475
G1 X110.255 Y100.873 E7.82964
G1 X110.968 Y100.649 E7.85449
G1 X111.59 Y100.519 E7.87563
G1 X114.167 Y100.102 E7.96245
G1 X115.218 Y100.012 E7.99754
G1 X117.092 Y99.994 E8.05987
G1 X117.839 Y100.027 E8.08474
G1 X118.579 Y100.139 E8.10963
G1 X119.302 Y100.33 E8.13451
G1 X120.001 Y100.597 E8.15939
G1 X120.66 Y100.932 E8.18398
G1 X122.911 Y102.232 E8.27044
G1 X123.538 Y102.64 E8.29532
G1 X123.935 Y102.953 E8.31213
G1 X124.498 Y103.43 E8.33668
G1 X125.042 Y103.944 E8.36157
G1 X125.528 Y104.512 E8.38643
G1 X125.951 Y105.129 E8.41131
G1 X126.107 Y105.419 E8.42226
G1 X126.814 Y105.533 E8.44608
G1 X127.536 Y105.731 E8.47098
G1 X128.232 Y106.004 E8.49585
G1 X128.898 Y106.352 E8.52084
G1 X131.517 Y107.904 E8.6221
G1 X132.139 Y108.319 E8.64697
G1 X132.713 Y108.798 E8.67183
G1 X133.233 Y109.336 E8.69672
G1 X133.693 Y109.926 E8.7216
G1 X134.087 Y110.562 E8.74649
G1 X134.411 Y111.237 E8.77139
G1 X134.605 Y111.761 E8.78997
G1 X135.235 Y113.698 E8.85772
G1 X135.428 Y114.421 E8.88261
G1 X135.543 Y115.16 E8.90748
G1 X135.578 Y115.907 E8.93236
G1 X135.533 Y116.654 E8.95725
G1 X135.409 Y117.392 E8.98214
G1 X135.235 Y118.028 E9.00407
G1 X135.147 Y118.297 E9.01348
G1 X135.308 Y119.002 E9.03753
G1 X135.396 Y119.745 E9.06242
G1 X135.404 Y120.493 E9.0873
G1 X135.331 Y121.237 E9.11216
G1 X135.18 Y121.97 E9.13705
G1 X135.028 Y122.473 E9.15453
G1 X134.281 Y124.64 E9.23077
G1 X134 Y125.333 E9.25564
G1 X133.646 Y125.993 E9.28055
G1 X132.582 Y127.745 E9.34873
G1 X132.16 Y128.362 E9.37359
G1 X131.675 Y128.931 E9.39846
G1 X131.131 Y129.446 E9.42337
G1 X130.825 Y129.691 E9.43641
G1 X128.772 Y131.246 E9.52207
G1 X126.313 Y133.134 E9.62518
G1 X125.696 Y133.557 E9.65006
G1 X125.038 Y133.912 E9.67493
G1 X124.345 Y134.195 E9.69983
G1 X123.626 Y134.402 E9.72471
G1 X123.164 Y134.493 E9.74037
G1 X121.048 Y134.834 E9.81166
G1 X120.304 Y134.913 E9.83654
G1 X119.322 Y134.896 E9.86921
G1 X116.931 Y134.686 E9.94904
G1 X116.19 Y134.581 E9.97393
G1 X115.465 Y134.397 E9.99881
G1 X114.763 Y134.137 E10.02371
G1 X114.094 Y133.804 E10.04857
G1 X113.445 Y133.388 E10.0742
G1 X111.491 Y131.977 E10.15437
G1 X110.909 Y131.507 E10.17925
G1 X110.38 Y130.978 E10.20413
G1 X109.911 Y130.396 E10.22899
G1 X109.506 Y129.766 E10.2539
G1 X109.171 Y129.097 E10.27879
G1 X108.818 Y128.077 E10.31469
G1 X108.342 Y126.261 E10.37713
G1 X108.191 Y125.528 E10.40202
G1 X108.165 Y125.258 E10.41104
G1 X107.505 Y125.107 E10.43356
G1 X106.798 Y124.862 E10.45845
G1 X106.121 Y124.544 E10.48332
G1 X105.482 Y124.156 E10.50819
G1 X105.059 Y123.843 E10.52569
G1 X102.923 Y122.134 E10.61667
G1 X102.365 Y121.636 E10.64155
G1 X101.863 Y121.081 E10.66644
G1 X101.423 Y120.476 E10.69132
G1 X101.05 Y119.828 E10.71619
G1 X100.748 Y119.143 E10.74109
G1 X100.475 Y118.24 E10.77247
G1 X99.941 Y115.923 E10.85155
G1 X99.812 Y115.186 E10.87643
G1 X99.763 Y114.44 E10.9013
G1 X99.793 Y113.692 E10.9262
G1 X99.903 Y112.952 E10.95108
G1 X100.031 Y112.428 E10.96902
G1 X100.635 Y110.314 E11.04215
G1 X100.879 Y109.607 E11.06702
G1 X101.197 Y108.929 E11.09193
G1 X101.585 Y108.29 E11.1168
G1 X102.206 Y107.506 E11.15006
G1 X104.235 Y105.293 E11.24992
G0 F6000 X104.53 Y105.564
G1 F1200 X105.05 Y105.056 E11.2741
G1 X105.398 Y104.772 E11.28904
G1 X107.019 Y103.539 E11.35678
G1 X108.564 Y102.292 E11.42281
G1 X109.154 Y101.868 E11.44698
G1 X109.786 Y101.511 E11.47112
G1 X110.454 Y101.226 E11.49528
G1 X111.15 Y101.016 E11.51946
G1 X111.654 Y100.914 E11.53656
G1 X114.231 Y100.497 E11.62339
G1 X115.222 Y100.412 E11.65647
G1 X117.096 Y100.394 E11.7188
G1 X117.821 Y100.427 E11.74294
G1 X118.539 Y100.54 E11.76711
G1 X119.24 Y100.731 E11.79128
G1 X119.915 Y100.997 E11.81541
G1 X120.46 Y101.279 E11.83582
G1 X122.711 Y102.579 E11.92228
G1 X123.319 Y102.976 E11.94643
G1 X123.676 Y103.258 E11.96156
G1 X124.239 Y103.735 E11.9861
G1 X124.767 Y104.235 E12.01029
G1 X125.236 Y104.789 E12.03443
G1 X125.642 Y105.391 E12.05858
G1 X125.858 Y105.803 E12.07405
G1 X126.054 Y105.814 E12.08058
G1 X126.771 Y105.933 E12.10476
G1 X127.47 Y106.131 E12.12892
G1 X128.143 Y106.404 E12.15308
G1 X128.694 Y106.696 E12.17382
G1 X131.313 Y108.248 E12.27507
G1 X131.916 Y108.652 E12.29921
G1 X132.472 Y109.12 E12.32338
G1 X132.972 Y109.646 E12.34752
G1 X133.412 Y110.224 E12.37168
G1 X133.786 Y110.847 E12.39585
G1 X134.089 Y111.507 E12.42
G1 X134.224 Y111.885 E12.43335
G1 X134.854 Y113.822 E12.5011
G1 X135.041 Y114.524 E12.52526
G1 X135.149 Y115.242 E12.54941
G1 X135.177 Y115.968 E12.57358
G1 X135.126 Y116.692 E12.59772
G1 X134.995 Y117.407 E12.6219
G1 X134.854 Y117.904 E12.63908
G1 X134.726 Y118.296 E12.65279
G1 X134.763 Y118.403 E12.65656
G1 X134.921 Y119.112 E12.68072
G1 X135 Y119.834 E12.70488
G1 X135 Y120.56 E12.72902
G1 X134.919 Y121.282 E12.75319
G1 X134.76 Y121.99 E12.77732
G1 X134.65 Y122.343 E12.78962
G1 X133.903 Y124.51 E12.86586
G1 X133.629 Y125.183 E12.89002
G1 X133.304 Y125.785 E12.91278
G1 X132.24 Y127.537 E12.98095
G1 X131.83 Y128.136 E13.0051
G1 X131.356 Y128.686 E13.02925
G1 X130.584 Y129.372 E13.0636
G1 X128.494 Y130.955 E13.1508
G1 X126.069 Y132.817 E13.25249
G1 X125.47 Y133.227 E13.27663
G1 X124.829 Y133.569 E13.3008
G1 X124.154 Y133.838 E13.32496
G1 X123.1 Y134.098 E13.36107
G1 X120.984 Y134.439 E13.43236
G1 X120.262 Y134.515 E13.4565
G1 X119.357 Y134.498 E13.48661
G1 X116.966 Y134.288 E13.56644
G1 X116.247 Y134.184 E13.5906
G1 X115.543 Y134.003 E13.61478
G1 X114.864 Y133.745 E13.63894
G1 X114.218 Y133.414 E13.66308
G1 X113.679 Y133.064 E13.68446
G1 X111.725 Y131.653 E13.76462
G1 X111.161 Y131.196 E13.78876
G1 X110.65 Y130.68 E13.81292
G1 X110.199 Y130.11 E13.83709
G1 X109.813 Y129.495 E13.86124
G1 X109.497 Y128.841 E13.8854
G1 X109.205 Y127.975 E13.9158
G1 X108.729 Y126.159 E13.97824
G1 X108.583 Y125.448 E14.00238
G1 X108.535 Y124.917 E14.02011
G1 X108.282 Y124.876 E14.02864
G1 X107.575 Y124.71 E14.05279
G1 X106.89 Y124.468 E14.07695
G1 X106.236 Y124.152 E14.10111
G1 X105.621 Y123.765 E14.12528
G1 X105.309 Y123.53 E14.13827
G1 X103.173 Y121.821 E14.22926
G1 X102.631 Y121.337 E14.25342
G1 X102.147 Y120.796 E14.27757
G1 X101.724 Y120.205 E14.30174
G1 X101.369 Y119.572 E14.32588
G1 X101.086 Y118.903 E14.35004
G1 X100.865 Y118.15 E14.37614
G1 X100.331 Y115.833 E14.45522
G1 X100.207 Y115.118 E14.47936
G1 X100.162 Y114.393 E14.50352
G1 X100.198 Y113.667 E14.5277
G1 X100.312 Y112.95 E14.55184
G1 X100.416 Y112.538 E14.56598
G1 X101.02 Y110.424 E14.6391
G1 X101.258 Y109.737 E14.66328
G1 X101.569 Y109.081 E14.68743
G1 X101.951 Y108.463 E14.7116
G1 X102.501 Y107.777 E14.74084
G1 X104.53 Y105.564 E14.8407
G0 F6000 X104.825 Y105.834
G1 F1200 X105.33 Y105.343 E14.86413
G1 X105.64 Y105.09 E14.87743
G1 X107.266 Y103.852 E14.94541
G1 X108.815 Y102.603 E15.01159
G1 X109.387 Y102.193 E15.035
G1 X110.002 Y101.851 E15.0584
G1 X110.652 Y101.58 E15.08182
G1 X111.329 Y101.384 E15.10527
G1 X111.718 Y101.309 E15.11844
G1 X114.295 Y100.892 E15.20527
G1 X115.225 Y100.812 E15.23631
G1 X117.099 Y100.794 E15.29865
G1 X117.803 Y100.828 E15.32209
G1 X118.498 Y100.94 E15.3455
G1 X119.175 Y101.131 E15.3689
G1 X119.827 Y101.397 E15.39232
G1 X120.26 Y101.625 E15.4086
G1 X122.511 Y102.925 E15.49505
G1 X123.099 Y103.311 E15.51845
G1 X123.418 Y103.564 E15.53199
G1 X123.981 Y104.041 E15.55653
G1 X124.491 Y104.525 E15.57992
G1 X124.943 Y105.065 E15.60334
G1 X125.332 Y105.652 E15.62676
G1 X125.605 Y106.19 E15.64683
G1 X126.032 Y106.214 E15.66105
G1 X126.726 Y106.333 E15.68447
G1 X127.401 Y106.531 E15.70787
G1 X128.05 Y106.803 E15.73127
G1 X128.49 Y107.04 E15.7479
G1 X131.109 Y108.592 E15.84915
G1 X131.693 Y108.985 E15.87256
G1 X132.229 Y109.441 E15.89597
G1 X132.71 Y109.956 E15.91941
G1 X133.129 Y110.521 E15.9428
G1 X133.482 Y111.13 E15.96621
G1 X133.844 Y112.008 E15.9978
G1 X134.474 Y113.945 E16.06555
G1 X134.653 Y114.626 E16.08897
G1 X134.754 Y115.323 E16.11239
G1 X134.776 Y116.026 E16.13578
G1 X134.717 Y116.728 E16.15922
G1 X134.58 Y117.418 E16.18261
G1 X134.474 Y117.781 E16.19519
G1 X134.305 Y118.3 E16.21335
G1 X134.384 Y118.532 E16.2215
G1 X134.533 Y119.22 E16.24491
G1 X134.604 Y119.92 E16.26831
G1 X134.595 Y120.624 E16.29173
G1 X134.506 Y121.323 E16.31517
