;FLAVOR:Marlin
;TIME:17773
;Filament used: 11.5236m
;Layer height: 0.16
;MINX:41.063
;MINY:57.225
;MINZ:0.2
;MAXX:193.937
;MAXY:180.275
;MAXZ:2.4
;Generated with Cura_SteamEngine 4.8.0
M82 ;absolute extrusion mode
; Ender 3 Custom Start G-code
M117 Getting the bed up to temp!
M140 S60 ; Set Heat Bed temperature
M190 S60 ; Wait for Heat Bed temperature
M117 Pre-heating the extruder!
M104 S160; start warming extruder to 160
G28 ; Home all axes
M117 Auto bed-level GO!
G29 ; Auto bed-level (BL-Touch)
G92 E0 ; Reset Extruder
M117 Getting the extruder up to temp!
M104 S190 ; Set Extruder temperature
M109 S190 ; Wait for Extruder temperature
G1 Z1.0 F3000 ; move z up little to prevent scratching of surface
G1 X0.1 Y20 Z0.3 F5000.0 ; move to start-line position
M117 LET THE PURGE BEGIN!
G1 X0.1 Y200.0 Z0.3 F1500.0 E15 ; draw 1st line
G1 X0.4 Y200.0 Z0.3 F5000.0 ; move to side a little
G1 X0.4 Y20 Z0.3 F1500.0 E30 ; draw 2nd line
G92 E0 ; reset extruder
G1 Z1.0 F3000 ; move z up little to prevent scratching of surface
M117 Autobots! Roll Out!
; End of custom start GCode
G92 E0
G92 E0
G1 F3000 E-10
;LAYER_COUNT:13
;LAYER:0
M107
G0 F6000 X45.703 Y59.266 Z0.2
;TYPE:SKIRT
G1 F3000 E0
G1 F1200 X46.49 Y58.756 E0.03119
G1 X47.318 Y58.315 E0.06239
G1 X48.18 Y57.946 E0.09358
G1 X49.071 Y57.652 E0.12479
G1 X49.983 Y57.434 E0.15597
G1 X50.91 Y57.296 E0.18715
G1 X51.764 Y57.238 E0.21562
G1 X52.084 Y57.229 E0.22626
G1 X52.393 Y57.225 E0.23654
G1 X89.746 Y57.225 E1.47891
G1 X90.608 Y57.236 E1.50758
G1 X90.917 Y57.245 E1.51786
G1 X91.729 Y57.28 E1.54489
G1 X93.144 Y57.359 E1.59203
G1 X95.672 Y57.43 E1.67614
G1 X98.197 Y57.428 E1.76013
G1 X100.715 Y57.356 E1.84391
G1 X102.023 Y57.29 E1.88747
G1 X102.672 Y57.253 E1.90909
G1 X102.97 Y57.24 E1.91901
G1 X103.303 Y57.23 E1.93009
G1 X103.633 Y57.225 E1.94107
G1 X162.253 Y57.226 E3.89078
G1 X162.954 Y57.236 E3.9141
G1 X163.89 Y57.289 E3.94528
G1 X164.819 Y57.422 E3.97649
G1 X165.732 Y57.634 E4.00767
G1 X166.625 Y57.922 E4.03887
G1 X167.489 Y58.286 E4.07006
G1 X168.32 Y58.722 E4.10127
G1 X169.013 Y59.16 E4.12854
G1 X169.159 Y59.26 E4.13442
G1 X169.449 Y59.466 E4.14625
G1 X169.82 Y59.739 E4.16157
G1 X185.079 Y71.193 E4.79616
G1 X185.687 Y71.664 E4.82174
G1 X186.006 Y71.92 E4.83535
G1 X186.263 Y72.136 E4.84651
G1 X186.766 Y72.572 E4.86865
G1 X186.946 Y72.732 E4.87666
G1 X187.403 Y73.146 E4.89717
G1 X188.316 Y74.076 E4.94052
G1 X189.014 Y74.878 E4.97588
G1 X189.264 Y75.176 E4.98882
G1 X189.571 Y75.555 E5.00504
G1 X190.333 Y76.62 E5.0486
G1 X190.883 Y77.494 E5.08294
G1 X191.079 Y77.819 E5.09557
G1 X191.327 Y78.245 E5.11196
G1 X191.924 Y79.429 E5.15606
G1 X192.358 Y80.437 E5.19257
G1 X192.498 Y80.777 E5.20479
G1 X192.664 Y81.201 E5.21994
G1 X193.074 Y82.47 E5.26429
G1 X193.33 Y83.465 E5.29847
G1 X193.417 Y83.829 E5.31091
G1 X193.529 Y84.335 E5.32815
G1 X193.737 Y85.642 E5.37217
G1 X193.837 Y86.665 E5.40636
G1 X193.867 Y87.04 E5.41887
G1 X193.905 Y87.64 E5.43886
G1 X193.92 Y87.936 E5.44872
G1 X193.927 Y88.129 E5.45515
G1 X193.934 Y88.424 E5.46496
G1 X193.937 Y88.742 E5.47554
G1 X193.936 Y148.613 E7.46686
G1 X193.926 Y149.319 E7.49034
G1 X193.911 Y149.778 E7.50561
G1 X193.897 Y150.051 E7.51471
G1 X193.867 Y150.494 E7.52947
G1 X193.826 Y151.012 E7.54676
G1 X193.771 Y151.612 E7.5668
G1 X193.573 Y152.911 E7.6105
G1 X193.357 Y153.92 E7.64482
G1 X193.271 Y154.29 E7.65745
G1 X193.148 Y154.781 E7.67429
G1 X192.75 Y156.043 E7.7183
G1 X192.38 Y157.009 E7.75271
G1 X192.243 Y157.349 E7.7649
G1 X192.046 Y157.816 E7.78176
G1 X191.457 Y159.006 E7.82592
G1 X190.928 Y159.93 E7.86133
G1 X190.728 Y160.266 E7.87434
G1 X190.476 Y160.672 E7.89023
G1 X189.725 Y161.736 E7.93355
G1 X189.086 Y162.536 E7.9676
G1 X188.826 Y162.849 E7.98113
G1 X188.485 Y163.245 E7.99852
G1 X187.587 Y164.172 E8.04144
G1 X186.835 Y164.862 E8.07539
G1 X186.533 Y165.129 E8.08879
G1 X185.933 Y165.639 E8.11499
G1 X185.806 Y165.744 E8.12047
G1 X185.464 Y166.015 E8.13498
G1 X185.11 Y166.284 E8.14977
G1 X169.859 Y177.731 E8.78401
G1 X169.297 Y178.142 E8.80716
G1 X168.517 Y178.663 E8.83836
G1 X167.696 Y179.115 E8.86953
G1 X166.839 Y179.496 E8.90073
G1 X165.953 Y179.803 E8.93191
G1 X165.043 Y180.033 E8.96313
G1 X164.118 Y180.184 E8.9943
G1 X163.333 Y180.25 E9.02051
G1 X163.146 Y180.259 E9.02673
G1 X162.723 Y180.271 E9.04081
G1 X162.306 Y180.275 E9.05468
G1 X103.854 Y180.274 E10.9988
G1 X103.148 Y180.264 E11.02228
G1 X102.839 Y180.255 E11.03256
G1 X102.027 Y180.22 E11.0596
G1 X100.612 Y180.141 E11.10673
G1 X98.084 Y180.07 E11.19085
G1 X95.559 Y180.072 E11.27483
G1 X93.041 Y180.144 E11.35861
G1 X91.733 Y180.21 E11.40217
G1 X91.084 Y180.247 E11.42379
G1 X90.786 Y180.26 E11.43371
G1 X90.453 Y180.27 E11.4448
G1 X90.123 Y180.275 E11.45577
G1 X52.612 Y180.274 E12.70339
G1 X51.914 Y180.264 E12.72661
G1 X50.978 Y180.21 E12.75779
G1 X50.05 Y180.078 E12.78897
G1 X49.136 Y179.866 E12.82018
G1 X48.244 Y179.577 E12.85136
G1 X47.379 Y179.214 E12.88256
G1 X46.549 Y178.778 E12.91375
G1 X45.758 Y178.273 E12.94496
G1 X45.014 Y177.702 E12.97615
G1 X44.321 Y177.07 E13.00735
G1 X43.684 Y176.382 E13.03853
G1 X43.109 Y175.641 E13.06973
G1 X42.598 Y174.855 E13.10091
G1 X42.156 Y174.027 E13.13213
G1 X41.787 Y173.165 E13.16332
G1 X41.492 Y172.275 E13.1945
G1 X41.274 Y171.363 E13.22569
G1 X41.134 Y170.435 E13.2569
G1 X41.076 Y169.563 E13.28597
G1 X41.067 Y169.231 E13.29702
G1 X41.063 Y168.933 E13.30693
G1 X41.064 Y143.743 E14.14475
G1 X41.094 Y141.622 E14.2153
G1 X41.103 Y140.275 E14.26011
G1 X41.102 Y132.273 E14.52625
G1 X41.084 Y130.482 E14.58583
G1 X41.065 Y129.544 E14.61703
G1 X41.063 Y129.321 E14.62445
G1 X41.064 Y107.693 E15.3438
G1 X41.094 Y105.572 E15.41435
G1 X41.103 Y104.225 E15.45915
G1 X41.102 Y96.223 E15.7253
G1 X41.084 Y94.432 E15.78487
G1 X41.065 Y93.494 E15.81608
G1 X41.063 Y93.271 E15.82349
G1 X41.064 Y68.734 E16.6396
G1 X41.074 Y68.069 E16.66172
G1 X41.128 Y67.132 E16.69293
G1 X41.262 Y66.204 E16.72412
G1 X41.474 Y65.29 E16.75533
G1 X41.763 Y64.398 E16.78651
G1 X42.128 Y63.534 E16.81771
G1 X42.564 Y62.704 E16.84889
G1 X43.07 Y61.914 E16.88009
G1 X43.641 Y61.17 E16.91129
G1 X44.273 Y60.477 E16.94248
G1 X44.962 Y59.841 E16.97367
G1 X45.703 Y59.266 E17.00487
G0 F6000 X46.087 Y59.486
G1 F1200 X46.869 Y58.999 E17.03551
G1 X47.69 Y58.583 E17.06612
G1 X48.544 Y58.239 E17.09674
G1 X49.424 Y57.97 E17.12735
G1 X50.325 Y57.779 E17.15798
G1 X51.239 Y57.667 E17.18861
G1 X51.775 Y57.638 E17.20646
G1 X52.095 Y57.629 E17.21711
G1 X52.393 Y57.625 E17.22702
G1 X89.746 Y57.625 E18.46939
G1 X90.602 Y57.636 E18.49786
G1 X90.9 Y57.644 E18.50777
G1 X91.562 Y57.672 E18.52981
G1 X93.111 Y57.759 E18.58141
G1 X95.661 Y57.83 E18.66626
G1 X98.173 Y57.828 E18.74981
G1 X100.747 Y57.754 E18.83545
G1 X102.068 Y57.688 E18.87945
G1 X102.695 Y57.652 E18.90033
G1 X102.982 Y57.64 E18.90989
G1 X103.315 Y57.63 E18.92097
G1 X103.633 Y57.625 E18.93155
G1 X162.247 Y57.626 E20.88106
G1 X162.948 Y57.636 E20.90437
G1 X163.867 Y57.689 E20.93499
G1 X164.778 Y57.822 E20.96561
G1 X165.674 Y58.033 E20.99623
G1 X166.549 Y58.321 E21.02687
G1 X167.395 Y58.684 E21.05749
G1 X168.206 Y59.119 E21.0881
G1 X168.787 Y59.49 E21.11102
G1 X168.933 Y59.59 E21.11691
G1 X169.213 Y59.788 E21.12832
G1 X169.58 Y60.058 E21.14347
G1 X184.834 Y71.509 E21.77787
G1 X185.442 Y71.98 E21.80345
G1 X185.754 Y72.231 E21.81677
G1 X186.001 Y72.438 E21.82748
G1 X186.504 Y72.874 E21.84962
G1 X186.678 Y73.028 E21.85735
G1 X187.135 Y73.442 E21.87786
G1 X188.014 Y74.339 E21.91963
G1 X188.712 Y75.141 E21.955
G1 X188.953 Y75.428 E21.96746
G1 X189.26 Y75.807 E21.98368
G1 X189.994 Y76.833 E22.02564
G1 X190.544 Y77.707 E22.05999
G1 X190.734 Y78.02 E22.07217
G1 X190.982 Y78.446 E22.08856
G1 X191.557 Y79.587 E22.13106
G1 X191.991 Y80.595 E22.16756
G1 X192.125 Y80.923 E22.17934
G1 X192.291 Y81.347 E22.19449
G1 X192.687 Y82.57 E22.23724
G1 X192.943 Y83.565 E22.27142
G1 X193.027 Y83.915 E22.28339
G1 X193.139 Y84.421 E22.30062
G1 X193.339 Y85.681 E22.34306
G1 X193.439 Y86.704 E22.37724
G1 X193.468 Y87.065 E22.38929
G1 X193.506 Y87.665 E22.40929
G1 X193.52 Y87.951 E22.41881
G1 X193.534 Y88.428 E22.43468
G1 X193.537 Y88.746 E22.44526
G1 X193.536 Y148.607 E24.43624
G1 X193.526 Y149.313 E24.45973
G1 X193.519 Y149.587 E24.46884
G1 X193.498 Y150.025 E24.48343
G1 X193.468 Y150.463 E24.49803
G1 X193.428 Y150.976 E24.51514
G1 X193.373 Y151.576 E24.53518
G1 X193.182 Y152.827 E24.57727
G1 X192.966 Y153.836 E24.61159
G1 X192.883 Y154.193 E24.62378
G1 X192.76 Y154.684 E24.64062
G1 X192.377 Y155.899 E24.68299
G1 X192.007 Y156.865 E24.7174
G1 X191.875 Y157.194 E24.72919
G1 X191.678 Y157.661 E24.74605
G1 X191.11 Y158.808 E24.78862
G1 X190.581 Y159.732 E24.82403
G1 X190.388 Y160.055 E24.83654
G1 X190.136 Y160.461 E24.85244
G1 X189.412 Y161.486 E24.89418
G1 X188.773 Y162.286 E24.92823
G1 X188.523 Y162.588 E24.94127
G1 X188.182 Y162.984 E24.95865
G1 X187.316 Y163.877 E25.00002
G1 X186.564 Y164.567 E25.03397
G1 X186.274 Y164.824 E25.04686
G1 X185.678 Y165.33 E25.07286
G1 X185.551 Y165.435 E25.07834
G1 X185.222 Y165.697 E25.09233
G1 X184.87 Y165.965 E25.10704
G1 X169.623 Y177.408 E25.7411
G1 X169.061 Y177.819 E25.76425
G1 X168.295 Y178.33 E25.79488
G1 X167.488 Y178.772 E25.82548
G1 X166.645 Y179.143 E25.85612
G1 X165.773 Y179.439 E25.88674
G1 X164.879 Y179.658 E25.91736
G1 X163.969 Y179.799 E25.94799
G1 X163.314 Y179.851 E25.96984
G1 X163.127 Y179.86 E25.97607
G1 X162.719 Y179.872 E25.98964
G1 X162.408 Y179.875 E25.99999
G1 X103.86 Y179.874 E27.9473
G1 X103.154 Y179.864 E27.97079
G1 X102.856 Y179.856 E27.9807
G1 X102.194 Y179.828 E28.00274
G1 X100.645 Y179.741 E28.05434
G1 X98.095 Y179.67 E28.13919
G1 X95.583 Y179.672 E28.22274
G1 X93.009 Y179.746 E28.30838
G1 X91.688 Y179.812 E28.35237
G1 X91.061 Y179.848 E28.37326
G1 X90.774 Y179.86 E28.38282
G1 X90.441 Y179.87 E28.3939
G1 X90.123 Y179.875 E28.40448
G1 X52.618 Y179.874 E29.6519
G1 X51.92 Y179.864 E29.67511
G1 X51.001 Y179.811 E29.70573
G1 X50.09 Y179.678 E29.73635
G1 X49.194 Y179.467 E29.76697
G1 X48.32 Y179.179 E29.79758
G1 X47.473 Y178.816 E29.82823
G1 X46.662 Y178.381 E29.85883
G1 X45.892 Y177.877 E29.88944
G1 X45.168 Y177.308 E29.92007
G1 X44.496 Y176.678 E29.95071
G1 X43.881 Y175.993 E29.98133
G1 X43.328 Y175.257 E30.01194
G1 X42.841 Y174.476 E30.04256
G1 X42.424 Y173.655 E30.07318
G1 X42.079 Y172.801 E30.10382
G1 X41.81 Y171.921 E30.13442
G1 X41.618 Y171.02 E30.16506
G1 X41.505 Y170.107 E30.19566
G1 X41.476 Y169.552 E30.21415
G1 X41.467 Y169.22 E30.22519
G1 X41.463 Y168.933 E30.23474
G1 X41.464 Y143.749 E31.07236
G1 X41.494 Y141.628 E31.14292
G1 X41.503 Y140.278 E31.18782
G1 X41.502 Y132.273 E31.45406
G1 X41.484 Y130.474 E31.5139
G1 X41.465 Y129.536 E31.54511
G1 X41.463 Y129.321 E31.55226
G1 X41.464 Y107.699 E32.27141
G1 X41.494 Y105.578 E32.34196
G1 X41.503 Y104.228 E32.38686
G1 X41.502 Y96.223 E32.65311
G1 X41.484 Y94.424 E32.71295
G1 X41.465 Y93.486 E32.74415
G1 X41.463 Y93.271 E32.7513
G1 X41.464 Y68.74 E33.56721
G1 X41.474 Y68.075 E33.58933
G1 X41.528 Y67.156 E33.61995
G1 X41.661 Y66.245 E33.65057
G1 X41.873 Y65.349 E33.68119
G1 X42.162 Y64.474 E33.71184
G1 X42.526 Y63.629 E33.74244
G1 X42.961 Y62.818 E33.77305
G1 X43.466 Y62.047 E33.80371
G1 X44.035 Y61.324 E33.83431
G1 X44.665 Y60.652 E33.86495
G1 X45.351 Y60.038 E33.89557
G1 X46.087 Y59.486 E33.92617
G0 F6000 X46.47 Y59.71
G1 F1200 X47.246 Y59.248 E33.9562
G1 X48.06 Y58.857 E33.98624
G1 X48.905 Y58.538 E34.01628
G1 X49.775 Y58.296 E34.04631
G1 X50.663 Y58.132 E34.07635
G1 X51.786 Y58.038 E34.11383
G1 X52.106 Y58.029 E34.12448
G1 X52.393 Y58.025 E34.13402
G1 X89.89 Y58.026 E35.38118
G1 X90.596 Y58.036 E35.40466
G1 X90.883 Y58.044 E35.41421
G1 X91.684 Y58.079 E35.44088
G1 X93.111 Y58.159 E35.48842
G1 X95.65 Y58.23 E35.5729
G1 X98.185 Y58.228 E35.65721
G1 X100.777 Y58.154 E35.74346
G1 X102.105 Y58.087 E35.78768
G1 X102.718 Y58.052 E35.8081
G1 X102.994 Y58.04 E35.81729
G1 X103.327 Y58.03 E35.82837
G1 X103.633 Y58.025 E35.83855
G1 X162.241 Y58.026 E37.78786
G1 X162.942 Y58.036 E37.81118
G1 X163.844 Y58.089 E37.84123
G1 X164.737 Y58.221 E37.87126
G1 X165.616 Y58.432 E37.90132
G1 X166.472 Y58.72 E37.93136
G1 X167.299 Y59.082 E37.96139
G1 X168.091 Y59.516 E37.99143
G1 X168.561 Y59.82 E38.01004
G1 X168.707 Y59.92 E38.01593
G1 X168.976 Y60.111 E38.0269
G1 X169.34 Y60.378 E38.04192
G1 X184.589 Y71.825 E38.6761
G1 X185.197 Y72.296 E38.70168
G1 X185.501 Y72.541 E38.71467
G1 X185.739 Y72.74 E38.72498
G1 X186.242 Y73.176 E38.74712
G1 X186.866 Y73.739 E38.77508
G1 X187.712 Y74.602 E38.81527
G1 X188.41 Y75.404 E38.85064
G1 X188.642 Y75.68 E38.86263
G1 X188.949 Y76.059 E38.87885
G1 X189.656 Y77.046 E38.91923
G1 X190.206 Y77.92 E38.95358
G1 X190.388 Y78.221 E38.96528
G1 X190.636 Y78.647 E38.98167
G1 X191.19 Y79.745 E39.02258
G1 X191.624 Y80.753 E39.05908
G1 X191.753 Y81.068 E39.0704
G1 X191.919 Y81.492 E39.08554
G1 X192.299 Y82.669 E39.12668
G1 X192.555 Y83.664 E39.16085
G1 X192.636 Y84.002 E39.17241
G1 X192.748 Y84.508 E39.18965
G1 X192.941 Y85.72 E39.23047
G1 X193.041 Y86.743 E39.26466
G1 X193.069 Y87.09 E39.27623
G1 X193.107 Y87.69 E39.29623
G1 X193.127 Y88.158 E39.31181
G1 X193.134 Y88.432 E39.32093
G1 X193.137 Y88.75 E39.3315
G1 X193.136 Y148.601 E41.32216
G1 X193.126 Y149.307 E41.34564
G1 X193.119 Y149.571 E41.35442
G1 X193.099 Y149.999 E41.36867
G1 X193.07 Y150.433 E41.38314
G1 X193.029 Y150.939 E41.40003
G1 X192.974 Y151.539 E41.42007
G1 X192.791 Y152.743 E41.46057
G1 X192.575 Y153.752 E41.49489
G1 X192.495 Y154.096 E41.50664
G1 X192.372 Y154.587 E41.52347
G1 X192.003 Y155.756 E41.56425
G1 X191.633 Y156.722 E41.59865
G1 X191.506 Y157.038 E41.60998
G1 X191.309 Y157.505 E41.62684
G1 X190.763 Y158.609 E41.6678
G1 X190.234 Y159.533 E41.70321
G1 X190.048 Y159.844 E41.71527
G1 X189.796 Y160.25 E41.73116
G1 X189.1 Y161.237 E41.77133
G1 X188.461 Y162.037 E41.80538
G1 X188.22 Y162.327 E41.81792
G1 X187.879 Y162.723 E41.8353
G1 X187.046 Y163.583 E41.87513
G1 X186.294 Y164.273 E41.90907
G1 X186.014 Y164.52 E41.92149
G1 X185.423 Y165.022 E41.94728
G1 X185.296 Y165.127 E41.95276
G1 X184.979 Y165.379 E41.96623
G1 X184.63 Y165.645 E41.98083
G1 X169.387 Y177.085 E42.61471
G1 X168.825 Y177.496 E42.63787
G1 X168.073 Y177.997 E42.66792
G1 X167.28 Y178.428 E42.69794
G1 X166.452 Y178.788 E42.72797
G1 X165.595 Y179.074 E42.75802
G1 X164.716 Y179.282 E42.78806
G1 X163.823 Y179.412 E42.81808
G1 X163.294 Y179.451 E42.83572
G1 X163.107 Y179.46 E42.84195
G1 X162.715 Y179.472 E42.85499
G1 X162.404 Y179.475 E42.86534
G1 X103.866 Y179.474 E44.81232
G1 X103.16 Y179.464 E44.8358
G1 X102.873 Y179.456 E44.84535
G1 X102.072 Y179.421 E44.87202
G1 X100.645 Y179.341 E44.91955
G1 X98.106 Y179.27 E45.00403
G1 X95.571 Y179.272 E45.08835
G1 X92.979 Y179.346 E45.17459
G1 X91.651 Y179.413 E45.21882
G1 X91.038 Y179.448 E45.23924
G1 X90.762 Y179.46 E45.24843
G1 X90.429 Y179.47 E45.25951
G1 X90.123 Y179.475 E45.26969
G1 X52.624 Y179.474 E46.51691
G1 X51.926 Y179.464 E46.54013
G1 X51.024 Y179.411 E46.57018
G1 X50.131 Y179.279 E46.60021
G1 X49.253 Y179.068 E46.63024
G1 X48.397 Y178.78 E46.66028
G1 X47.57 Y178.418 E46.6903
G1 X46.778 Y177.983 E46.72036
G1 X46.027 Y177.481 E46.7504
G1 X45.324 Y176.914 E46.78044
G1 X44.674 Y176.287 E46.81048
G1 X44.082 Y175.605 E46.84052
G1 X43.552 Y174.874 E46.87055
G1 X43.09 Y174.098 E46.90059
G1 X42.697 Y173.285 E46.93062
G1 X42.379 Y172.44 E46.96065
G1 X42.136 Y171.57 E46.99069
G1 X41.971 Y170.682 E47.02073
G1 X41.876 Y169.541 E47.05882
G1 X41.867 Y169.209 E47.06986
G1 X41.863 Y168.933 E47.07904
G1 X41.864 Y143.755 E47.91647
G1 X41.894 Y141.634 E47.98702
G1 X41.903 Y140.28 E48.03205
G1 X41.902 Y132.273 E48.29837
G1 X41.884 Y130.466 E48.35847
G1 X41.865 Y129.528 E48.38968
G1 X41.863 Y129.321 E48.39656
G1 X41.864 Y107.705 E49.11551
G1 X41.894 Y105.584 E49.18606
G1 X41.903 Y104.23 E49.2311
G1 X41.902 Y96.223 E49.49741
G1 X41.884 Y94.416 E49.55752
G1 X41.865 Y93.478 E49.58872
G1 X41.863 Y93.271 E49.59561
G1 X41.864 Y68.746 E50.41131
G1 X41.874 Y68.081 E50.43343
G1 X41.928 Y67.179 E50.46349
G1 X42.061 Y66.286 E50.49352
G1 X42.272 Y65.408 E50.52355
G1 X42.561 Y64.552 E50.5536
G1 X42.924 Y63.725 E50.58364
G1 X43.358 Y62.934 E50.61365
G1 X43.861 Y62.183 E50.64371
