;FLAVOR:Marlin
;TIME:952
;Filament used: 0.419517m
;Layer height: 0.16
;MINX:97.227
;MINY:106.925
;MINZ:0.2
;MAXX:137.773
;MAXY:147.464
;MAXZ:6.96
;Generated with Cura_SteamEngine 4.8.0
M82 ;absolute extrusion mode
; Ender 3 Custom Start G-code
M117 Getting the bed up to temp!
M140 S60 ; Set Heat Bed temperature
M190 S60 ; Wait for Heat Bed temperature
M117 Pre-heating the extruder!
M104 S160; start warming extruder to 160
G28 ; Home all axes
M117 Auto bed-level GO!
G29 ; Auto bed-level (BL-Touch)
G92 E0 ; Reset Extruder
M117 Getting the extruder up to temp!
M104 S190 ; Set Extruder temperature
M109 S190 ; Wait for Extruder temperature
G1 Z1.0 F3000 ; move z up little to prevent scratching of surface
G1 X0.1 Y20 Z0.3 F5000.0 ; move to start-line position
M117 LET THE PURGE BEGIN!
G1 X0.1 Y200.0 Z0.3 F1500.0 E15 ; draw 1st line
G1 X0.4 Y200.0 Z0.3 F5000.0 ; move to side a little
G1 X0.4 Y20 Z0.3 F1500.0 E30 ; draw 2nd line
G92 E0 ; reset extruder
G1 Z1.0 F3000 ; move z up little to prevent scratching of surface
M117 Autobots! Roll Out!
; End of custom start GCode
G92 E0
G92 E0
G1 F3000 E-10
;LAYER_COUNT:46
;LAYER:0
M107
G0 F6000 X103.629 Y112.41 Z0.2
;TYPE:SKIRT
G1 F3000 E0
G1 F1200 X104.318 Y111.792 E0.03078
G1 X104.755 Y111.428 E0.0497
G1 X105.465 Y110.879 E0.07955
G1 X105.938 Y110.54 E0.09891
G1 X106.712 Y110.029 E0.12975
G1 X107.193 Y109.736 E0.14849
G1 X107.977 Y109.296 E0.17839
G1 X108.498 Y109.028 E0.19788
G1 X109.326 Y108.642 E0.22826
G1 X109.835 Y108.427 E0.24664
G1 X110.695 Y108.098 E0.27726
G1 X111.235 Y107.914 E0.29624
G1 X112.096 Y107.655 E0.32614
G1 X112.635 Y107.513 E0.34468
G1 X113.526 Y107.313 E0.37505
G1 X114.11 Y107.205 E0.39481
G1 X115.023 Y107.072 E0.42549
G1 X115.568 Y107.013 E0.44373
G1 X116.455 Y106.947 E0.47331
G1 X117.034 Y106.925 E0.49258
G1 X117.966 Y106.925 E0.52358
G1 X118.549 Y106.947 E0.54298
G1 X119.443 Y107.014 E0.5728
G1 X119.984 Y107.073 E0.5909
G1 X120.897 Y107.206 E0.62159
G1 X121.481 Y107.314 E0.64134
G1 X122.372 Y107.514 E0.67172
G1 X122.919 Y107.658 E0.69053
G1 X123.78 Y107.918 E0.72044
G1 X124.312 Y108.1 E0.73914
G1 X125.172 Y108.429 E0.76977
G1 X125.694 Y108.651 E0.78864
G1 X126.52 Y109.038 E0.81897
G1 X127.031 Y109.301 E0.83809
G1 X127.816 Y109.742 E0.86804
G1 X128.299 Y110.037 E0.88686
G1 X129.073 Y110.549 E0.91773
G1 X129.54 Y110.883 E0.93682
G1 X130.249 Y111.431 E0.96663
G1 X130.687 Y111.796 E0.98559
G1 X131.376 Y112.414 E1.01637
G1 X131.79 Y112.814 E1.03552
G1 X132.415 Y113.464 E1.06551
G1 X132.782 Y113.872 E1.08377
G1 X133.372 Y114.579 E1.11439
G1 X133.734 Y115.049 E1.13412
G1 X134.258 Y115.784 E1.16415
G1 X134.566 Y116.25 E1.18273
G1 X135.037 Y117.022 E1.2128
G1 X135.312 Y117.512 E1.23149
G1 X135.737 Y118.337 E1.26236
G1 X135.983 Y118.86 E1.28158
G1 X136.338 Y119.696 E1.31179
G1 X136.541 Y120.229 E1.33076
G1 X136.831 Y121.08 E1.36066
G1 X136.995 Y121.626 E1.37962
G1 X137.225 Y122.507 E1.40991
G1 X137.348 Y123.061 E1.42878
G1 X137.516 Y123.971 E1.45956
G1 X137.6 Y124.542 E1.47876
G1 X137.699 Y125.45 E1.50914
G1 X137.74 Y126.01 E1.52781
G1 X137.773 Y126.911 E1.5578
G1 X137.772 Y127.495 E1.57722
G1 X137.737 Y128.406 E1.60755
G1 X137.697 Y128.95 E1.62569
G1 X137.599 Y129.851 E1.65583
G1 X137.516 Y130.423 E1.67506
G1 X137.348 Y131.334 E1.70587
G1 X137.219 Y131.91 E1.7255
G1 X136.988 Y132.785 E1.7556
G1 X136.834 Y133.297 E1.77338
G1 X136.544 Y134.153 E1.80344
G1 X136.332 Y134.706 E1.82314
G1 X135.976 Y135.542 E1.85336
G1 X135.737 Y136.052 E1.8721
G1 X135.315 Y136.873 E1.9028
G1 X135.03 Y137.381 E1.92217
G1 X134.556 Y138.155 E1.95236
G1 X134.254 Y138.611 E1.97055
G1 X133.729 Y139.347 E2.00062
G1 X133.368 Y139.814 E2.02025
G1 X132.779 Y140.52 E2.05083
G1 X132.404 Y140.938 E2.06951
G1 X131.777 Y141.588 E2.09955
G1 X131.371 Y141.979 E2.11829
G1 X130.682 Y142.597 E2.14908
G1 X130.24 Y142.966 E2.16823
G1 X129.53 Y143.514 E2.19806
G1 X129.067 Y143.845 E2.21699
G1 X128.296 Y144.355 E2.24774
G1 X127.813 Y144.65 E2.26656
G1 X127.026 Y145.092 E2.29658
G1 X126.502 Y145.361 E2.31617
G1 X125.674 Y145.747 E2.34656
G1 X125.168 Y145.961 E2.36483
G1 X124.309 Y146.29 E2.39542
G1 X123.756 Y146.478 E2.41485
G1 X122.891 Y146.737 E2.44488
G1 X122.357 Y146.877 E2.46324
G1 X121.472 Y147.075 E2.49341
G1 X120.906 Y147.18 E2.51255
G1 X119.99 Y147.315 E2.54335
G1 X119.432 Y147.376 E2.56202
G1 X118.545 Y147.442 E2.5916
G1 X117.966 Y147.464 E2.61087
G1 X117.034 Y147.464 E2.64187
G1 X116.452 Y147.442 E2.66124
G1 X115.557 Y147.375 E2.69109
G1 X115.001 Y147.313 E2.7097
G1 X114.086 Y147.178 E2.74046
G1 X113.521 Y147.074 E2.75957
G1 X112.636 Y146.876 E2.78973
G1 X112.094 Y146.734 E2.80837
G1 X111.229 Y146.474 E2.83841
G1 X110.684 Y146.288 E2.85756
G1 X109.825 Y145.959 E2.88816
G1 X109.305 Y145.738 E2.90695
G1 X108.477 Y145.35 E2.93736
G1 X107.964 Y145.086 E2.95655
G1 X107.178 Y144.644 E2.98655
G1 X106.698 Y144.351 E3.00525
G1 X105.927 Y143.841 E3.036
G1 X105.459 Y143.505 E3.05516
G1 X104.749 Y142.956 E3.08501
G1 X104.312 Y142.592 E3.10393
G1 X103.623 Y141.974 E3.13471
G1 X103.209 Y141.574 E3.15386
G1 X102.584 Y140.924 E3.18385
G1 X102.217 Y140.516 E3.2021
G1 X101.627 Y139.809 E3.23273
G1 X101.262 Y139.335 E3.25263
G1 X100.738 Y138.599 E3.28268
G1 X100.436 Y138.142 E3.30089
G1 X99.963 Y137.368 E3.33106
G1 X99.682 Y136.867 E3.35017
G1 X99.26 Y136.046 E3.38087
G1 X99.017 Y135.527 E3.39993
G1 X98.661 Y134.688 E3.43025
G1 X98.455 Y134.149 E3.44944
G1 X98.165 Y133.295 E3.47944
G1 X98.005 Y132.762 E3.49794
G1 X97.776 Y131.887 E3.52803
G1 X97.651 Y131.325 E3.54718
G1 X97.483 Y130.413 E3.57802
G1 X97.4 Y129.845 E3.59711
G1 X97.301 Y128.937 E3.62749
G1 X97.26 Y128.377 E3.64617
G1 X97.227 Y127.476 E3.67615
G1 X97.228 Y126.891 E3.69561
G1 X97.263 Y125.981 E3.7259
G1 X97.303 Y125.437 E3.74404
G1 X97.401 Y124.537 E3.77415
G1 X97.484 Y123.966 E3.79335
G1 X97.652 Y123.055 E3.82416
G1 X97.781 Y122.482 E3.84369
G1 X98.013 Y121.602 E3.87396
G1 X98.168 Y121.084 E3.89194
G1 X98.457 Y120.232 E3.92187
G1 X98.668 Y119.682 E3.94146
G1 X99.024 Y118.846 E3.97168
G1 X99.266 Y118.33 E3.99064
G1 X99.69 Y117.507 E4.02143
G1 X99.972 Y117.006 E4.04055
G1 X100.444 Y116.235 E4.07062
G1 X100.746 Y115.778 E4.08884
G1 X101.271 Y115.042 E4.11891
G1 X101.632 Y114.575 E4.13854
G1 X102.221 Y113.869 E4.16912
G1 X102.596 Y113.451 E4.1878
G1 X103.223 Y112.801 E4.21784
G1 X103.629 Y112.41 E4.23658
G0 F6000 X103.896 Y112.707
G1 F1200 X104.585 Y112.089 E4.26737
G1 X104.999 Y111.744 E4.28529
G1 X105.709 Y111.195 E4.31514
G1 X106.159 Y110.873 E4.33355
G1 X106.933 Y110.362 E4.36439
G1 X107.388 Y110.085 E4.38211
G1 X108.172 Y109.645 E4.41201
G1 X108.667 Y109.391 E4.43052
G1 X109.495 Y109.005 E4.4609
G1 X109.978 Y108.8 E4.47835
G1 X110.838 Y108.471 E4.50898
G1 X111.35 Y108.297 E4.52697
G1 X112.211 Y108.038 E4.55687
G1 X112.722 Y107.904 E4.57444
G1 X113.613 Y107.704 E4.60481
G1 X114.167 Y107.601 E4.62355
G1 X115.08 Y107.468 E4.65424
G1 X115.598 Y107.411 E4.67157
G1 X116.485 Y107.345 E4.70116
G1 X117.034 Y107.325 E4.71943
G1 X117.966 Y107.325 E4.75043
G1 X118.519 Y107.346 E4.76883
G1 X119.413 Y107.413 E4.79865
G1 X119.927 Y107.469 E4.81585
G1 X120.84 Y107.602 E4.84654
G1 X121.394 Y107.705 E4.86528
G1 X122.285 Y107.905 E4.89565
G1 X122.803 Y108.041 E4.91346
G1 X123.664 Y108.301 E4.94338
G1 X124.169 Y108.473 E4.96112
G1 X125.029 Y108.802 E4.99175
G1 X125.525 Y109.013 E5.00967
G1 X126.351 Y109.4 E5.04001
G1 X126.835 Y109.649 E5.05812
G1 X127.62 Y110.09 E5.08806
G1 X128.079 Y110.37 E5.10595
G1 X128.853 Y110.882 E5.13681
G1 X129.295 Y111.199 E5.1549
G1 X130.004 Y111.747 E5.18471
G1 X130.42 Y112.093 E5.2027
G1 X131.109 Y112.711 E5.23349
G1 X131.502 Y113.091 E5.25167
G1 X132.127 Y113.741 E5.28166
G1 X132.475 Y114.129 E5.299
G1 X133.065 Y114.836 E5.32962
G1 X133.409 Y115.281 E5.34833
G1 X133.933 Y116.016 E5.37835
G1 X134.224 Y116.458 E5.39596
G1 X134.695 Y117.23 E5.42603
G1 X134.956 Y117.695 E5.44377
G1 X135.381 Y118.52 E5.47464
G1 X135.614 Y119.017 E5.49289
G1 X135.969 Y119.853 E5.5231
G1 X136.162 Y120.358 E5.54108
G1 X136.452 Y121.209 E5.57099
G1 X136.608 Y121.727 E5.58898
G1 X136.838 Y122.608 E5.61926
G1 X136.955 Y123.134 E5.63718
G1 X137.123 Y124.044 E5.66796
G1 X137.202 Y124.585 E5.68615
G1 X137.301 Y125.493 E5.71653
G1 X137.34 Y126.024 E5.73424
G1 X137.373 Y126.925 E5.76422
G1 X137.373 Y127.48 E5.78268
G1 X137.338 Y128.391 E5.813
G1 X137.3 Y128.907 E5.83021
G1 X137.202 Y129.808 E5.86036
G1 X137.122 Y130.35 E5.87858
G1 X136.954 Y131.261 E5.90939
G1 X136.832 Y131.808 E5.92803
G1 X136.601 Y132.683 E5.95813
G1 X136.455 Y133.168 E5.97498
G1 X136.165 Y134.024 E6.00504
G1 X135.964 Y134.549 E6.02373
G1 X135.608 Y135.385 E6.05396
G1 X135.381 Y135.869 E6.07174
G1 X134.959 Y136.69 E6.10244
G1 X134.689 Y137.172 E6.12081
G1 X134.215 Y137.946 E6.151
G1 X133.928 Y138.378 E6.16825
G1 X133.403 Y139.114 E6.19832
G1 X133.061 Y139.558 E6.21696
G1 X132.472 Y140.264 E6.24754
G1 X132.116 Y140.661 E6.26528
G1 X131.489 Y141.311 E6.29532
G1 X131.104 Y141.682 E6.3131
G1 X130.415 Y142.3 E6.34388
G1 X129.995 Y142.649 E6.36205
G1 X129.285 Y143.197 E6.39188
G1 X128.847 Y143.511 E6.4098
G1 X128.076 Y144.021 E6.44055
G1 X127.617 Y144.301 E6.45843
G1 X126.83 Y144.743 E6.48845
G1 X126.333 Y144.998 E6.50703
G1 X125.505 Y145.384 E6.53741
G1 X125.025 Y145.587 E6.55475
G1 X124.166 Y145.916 E6.58534
G1 X123.642 Y146.095 E6.60376
G1 X122.777 Y146.354 E6.63379
G1 X122.27 Y146.486 E6.65122
G1 X121.385 Y146.684 E6.68138
G1 X120.848 Y146.784 E6.69955
G1 X119.932 Y146.919 E6.73034
G1 X119.402 Y146.978 E6.74808
G1 X118.515 Y147.044 E6.77766
G1 X117.966 Y147.064 E6.79594
G1 X117.034 Y147.064 E6.82693
G1 X116.482 Y147.043 E6.84531
G1 X115.587 Y146.976 E6.87516
G1 X115.059 Y146.918 E6.89282
G1 X114.144 Y146.783 E6.92359
G1 X113.608 Y146.683 E6.94172
G1 X112.723 Y146.485 E6.97189
G1 X112.209 Y146.351 E6.98955
G1 X111.344 Y146.091 E7.01959
G1 X110.827 Y145.914 E7.03777
G1 X109.968 Y145.585 E7.06836
G1 X109.475 Y145.376 E7.08617
G1 X108.647 Y144.988 E7.11659
G1 X108.16 Y144.737 E7.13481
G1 X107.374 Y144.295 E7.1648
G1 X106.918 Y144.017 E7.18256
G1 X106.147 Y143.507 E7.21331
G1 X105.703 Y143.189 E7.23147
G1 X104.993 Y142.64 E7.26133
G1 X104.579 Y142.295 E7.27925
G1 X103.89 Y141.677 E7.31003
G1 X103.497 Y141.297 E7.32822
G1 X102.872 Y140.647 E7.35821
G1 X102.524 Y140.259 E7.37554
G1 X101.934 Y139.552 E7.40617
G1 X101.588 Y139.103 E7.42502
G1 X101.064 Y138.367 E7.45507
G1 X100.778 Y137.934 E7.47233
G1 X100.305 Y137.16 E7.5025
G1 X100.038 Y136.684 E7.52066
G1 X99.616 Y135.863 E7.55136
G1 X99.385 Y135.37 E7.56947
G1 X99.029 Y134.531 E7.59978
G1 X98.834 Y134.02 E7.61797
G1 X98.544 Y133.166 E7.64797
G1 X98.392 Y132.661 E7.66551
G1 X98.163 Y131.786 E7.69559
G1 X98.044 Y131.253 E7.71376
G1 X97.876 Y130.341 E7.7446
G1 X97.798 Y129.802 E7.76271
G1 X97.699 Y128.894 E7.79309
G1 X97.66 Y128.363 E7.8108
G1 X97.627 Y127.462 E7.84079
G1 X97.627 Y126.907 E7.85925
G1 X97.662 Y125.997 E7.88954
G1 X97.7 Y125.48 E7.90678
G1 X97.798 Y124.58 E7.93689
G1 X97.878 Y124.039 E7.95508
G1 X98.046 Y123.128 E7.98589
G1 X98.167 Y122.584 E8.00443
G1 X98.399 Y121.704 E8.03469
G1 X98.547 Y121.213 E8.05175
G1 X98.836 Y120.361 E8.08167
G1 X99.036 Y119.839 E8.10027
G1 X99.392 Y119.003 E8.13049
G1 X99.622 Y118.513 E8.14849
G1 X100.046 Y117.69 E8.17928
G1 X100.313 Y117.215 E8.19741
G1 X100.785 Y116.444 E8.22748
G1 X101.072 Y116.011 E8.24475
G1 X101.597 Y115.275 E8.27482
G1 X101.939 Y114.831 E8.29346
G1 X102.528 Y114.125 E8.32404
G1 X102.884 Y113.728 E8.34178
G1 X103.511 Y113.078 E8.37182
G1 X103.896 Y112.707 E8.3896
G0 F6000 X104.163 Y113.005
G1 F1200 X104.852 Y112.387 E8.42038
G1 X105.244 Y112.06 E8.43736
G1 X105.954 Y111.511 E8.46721
G1 X106.379 Y111.207 E8.48459
G1 X107.153 Y110.696 E8.51544
G1 X107.584 Y110.434 E8.53222
G1 X108.368 Y109.994 E8.56212
G1 X108.836 Y109.754 E8.57961
G1 X109.664 Y109.368 E8.61
G1 X110.121 Y109.174 E8.62651
G1 X110.981 Y108.845 E8.65713
G1 X111.466 Y108.68 E8.67417
G1 X112.327 Y108.421 E8.70408
G1 X112.81 Y108.294 E8.72069
G1 X113.701 Y108.094 E8.75106
G1 X114.225 Y107.997 E8.76879
G1 X115.138 Y107.864 E8.79947
G1 X115.628 Y107.81 E8.81587
G1 X116.515 Y107.744 E8.84545
G1 X117.034 Y107.725 E8.86273
G1 X117.966 Y107.725 E8.89372
G1 X118.489 Y107.745 E8.91113
G1 X119.383 Y107.812 E8.94095
G1 X119.869 Y107.865 E8.95721
G1 X120.782 Y107.998 E8.9879
G1 X121.306 Y108.095 E9.00562
G1 X122.197 Y108.295 E9.03599
G1 X122.688 Y108.424 E9.05288
G1 X123.549 Y108.684 E9.08279
G1 X124.026 Y108.847 E9.09956
G1 X124.886 Y109.176 E9.13018
G1 X125.355 Y109.375 E9.14713
G1 X126.181 Y109.762 E9.17747
G1 X126.64 Y109.998 E9.19463
G1 X127.425 Y110.439 E9.22458
G1 X127.858 Y110.704 E9.24147
G1 X128.632 Y111.216 E9.27233
G1 X129.051 Y111.516 E9.28947
G1 X129.76 Y112.064 E9.31928
G1 X130.153 Y112.391 E9.33628
G1 X130.842 Y113.009 E9.36706
G1 X131.214 Y113.368 E9.38426
G1 X131.839 Y114.018 E9.41425
G1 X132.167 Y114.385 E9.43062
G1 X132.757 Y115.092 E9.46125
G1 X133.083 Y115.513 E9.47896
G1 X133.607 Y116.248 E9.50898
G1 X133.883 Y116.666 E9.52564
G1 X134.354 Y117.438 E9.55572
G1 X134.601 Y117.878 E9.5725
G1 X135.026 Y118.703 E9.60337
G1 X135.246 Y119.173 E9.62063
G1 X135.601 Y120.009 E9.65084
G1 X135.784 Y120.487 E9.66786
G1 X136.074 Y121.338 E9.69776
G1 X136.221 Y121.828 E9.71478
G1 X136.451 Y122.709 E9.74506
G1 X136.562 Y123.206 E9.762
G1 X136.73 Y124.116 E9.79278
G1 X136.805 Y124.628 E9.80999
G1 X136.904 Y125.536 E9.84037
G1 X136.94 Y126.039 E9.85714
G1 X136.973 Y126.94 E9.88713
G1 X136.973 Y127.465 E9.90459
G1 X136.938 Y128.376 E9.93491
G1 X136.902 Y128.864 E9.95119
G1 X136.804 Y129.765 E9.98133
G1 X136.729 Y130.277 E9.99854
G1 X136.561 Y131.188 E10.02935
G1 X136.445 Y131.706 E10.04701
G1 X136.214 Y132.581 E10.07711
G1 X136.076 Y133.04 E10.09305
G1 X135.786 Y133.896 E10.12311
G1 X135.596 Y134.393 E10.14081
G1 X135.24 Y135.229 E10.17103
G1 X135.026 Y135.686 E10.18781
G1 X134.604 Y136.507 E10.21852
G1 X134.348 Y136.963 E10.23591
G1 X133.874 Y137.737 E10.2661
G1 X133.603 Y138.146 E10.28242
G1 X133.078 Y138.882 E10.31248
G1 X132.754 Y139.301 E10.3301
G1 X132.165 Y140.007 E10.36068
G1 X131.828 Y140.383 E10.37748
G1 X131.201 Y141.033 E10.40751
G1 X130.837 Y141.384 E10.42433
G1 X130.148 Y142.002 E10.45512
G1 X129.751 Y142.332 E10.47229
G1 X129.041 Y142.88 E10.50212
G1 X128.626 Y143.177 E10.51909
G1 X127.855 Y143.687 E10.54984
G1 X127.421 Y143.952 E10.56675
G1 X126.634 Y144.394 E10.59677
G1 X126.164 Y144.635 E10.61434
G1 X125.336 Y145.021 E10.64472
G1 X124.882 Y145.214 E10.66113
G1 X124.023 Y145.543 E10.69173
G1 X123.527 Y145.712 E10.70915
G1 X122.662 Y145.971 E10.73919
G1 X122.182 Y146.096 E10.75568
G1 X121.297 Y146.294 E10.78585
G1 X120.79 Y146.388 E10.803
G1 X119.874 Y146.523 E10.83379
G1 X119.372 Y146.579 E10.85059
G1 X118.485 Y146.645 E10.88017
G1 X117.966 Y146.664 E10.89745
G1 X117.034 Y146.664 E10.92845
G1 X116.511 Y146.644 E10.94585
G1 X115.616 Y146.577 E10.97571
G1 X115.117 Y146.522 E10.9924
G1 X114.202 Y146.387 E11.02317
G1 X113.696 Y146.293 E11.04028
G1 X112.811 Y146.095 E11.07045
G1 X112.324 Y145.968 E11.08719
G1 X111.459 Y145.708 E11.11723
G1 X110.97 Y145.541 E11.13441
G1 X110.111 Y145.212 E11.16501
G1 X109.645 Y145.014 E11.18185
G1 X108.817 Y144.626 E11.21226
G1 X108.356 Y144.388 E11.22952
G1 X107.57 Y143.946 E11.25951
G1 X107.139 Y143.683 E11.2763
G1 X106.368 Y143.173 E11.30705
G1 X105.948 Y142.873 E11.32422
G1 X105.238 Y142.324 E11.35407
G1 X104.846 Y141.997 E11.37105
G1 X104.157 Y141.379 E11.40183
G1 X103.785 Y141.02 E11.41902
G1 X103.16 Y140.37 E11.44902
G1 X102.832 Y140.003 E11.46539
G1 X102.242 Y139.296 E11.49601
G1 X101.914 Y138.871 E11.51387
G1 X101.39 Y138.135 E11.54392
G1 X101.119 Y137.725 E11.56027
G1 X100.646 Y136.951 E11.59044
G1 X100.393 Y136.501 E11.60761
G1 X99.971 Y135.68 E11.63831
G1 X99.753 Y135.214 E11.65542
G1 X99.397 Y134.375 E11.68573
G1 X99.213 Y133.892 E11.70292
G1 X98.923 Y133.038 E11.73292
G1 X98.779 Y132.559 E11.74956
G1 X98.55 Y131.684 E11.77964
G1 X98.438 Y131.18 E11.79681
G1 X98.27 Y130.268 E11.82766
G1 X98.195 Y129.759 E11.84477
G1 X98.096 Y128.851 E11.87515
G1 X98.06 Y128.348 E11.89192
G1 X98.027 Y127.447 E11.92191
G1 X98.027 Y126.922 E11.93937
G1 X98.062 Y126.012 E11.96966
