;FLAVOR:Marlin
;TIME:815
;Filament used: 0.228067m
;Layer height: 0.16
;MINX:104.451
;MINY:104.451
;MINZ:0.2
;MAXX:130.549
;MAXY:130.544
;MAXZ:12
;Generated with Cura_SteamEngine 4.5.0
M140 S50
M105
M190 S50
M104 S200
M105
M109 S200
M82 ;absolute extrusion mode
; Ender 3 Custom Start G-code
G92 E0 ; Reset Extruder
G28 ; Home all axes
G1 Z2.0 F3000 ; Move Z Axis up little to prevent scratching of Heat Bed
G1 X0.1 Y20 Z0.3 F5000.0 ; Move to start position
G1 X0.1 Y200.0 Z0.3 F1500.0 E15 ; Draw the first line
G1 X0.4 Y200.0 Z0.3 F5000.0 ; Move to side a little
G1 X0.4 Y20 Z0.3 F1500.0 E30 ; Draw the second line
G92 E0 ; Reset Extruder
G1 Z2.0 F3000 ; Move Z Axis up little to prevent scratching of Heat Bed
G1 X5 Y20 Z0.3 F5000.0 ; Move over to prevent blob squish
G92 E0
G92 E0
G1 F2700 E-5
;LAYER_COUNT:61
;LAYER:0
M107
G0 F6000 X107.397 Y107.102 Z0.2
;TYPE:SKIRT
G1 F2700 E0
G1 F1200 X107.899 Y106.66 E0.02225
G1 X108.121 Y106.481 E0.03173
G1 X108.76 Y106.017 E0.058
G1 X109.347 Y105.67 E0.08068
G1 X109.679 Y105.493 E0.09319
G1 X110.394 Y105.157 E0.11947
G1 X111.022 Y104.931 E0.14166
G1 X111.294 Y104.846 E0.15114
G1 X112.059 Y104.649 E0.17742
G1 X112.796 Y104.535 E0.20222
G1 X113.172 Y104.495 E0.2148
G1 X113.96 Y104.451 E0.24105
G1 X114.8 Y104.492 E0.26902
G1 X115.177 Y104.531 E0.28163
G1 X115.957 Y104.652 E0.30788
G1 X116.618 Y104.82 E0.33056
G1 X116.891 Y104.902 E0.34004
G1 X117.509 Y105.122 E0.36186
G1 X117.629 Y105.074 E0.36616
G1 X118.376 Y104.818 E0.39242
G1 X119.052 Y104.656 E0.41554
G1 X119.332 Y104.602 E0.42503
G1 X120.114 Y104.492 E0.45129
G1 X120.768 Y104.461 E0.47307
G1 X121.144 Y104.459 E0.48558
G1 X121.932 Y104.495 E0.51181
G1 X122.662 Y104.6 E0.53634
G1 X122.942 Y104.654 E0.54583
G1 X123.709 Y104.843 E0.5721
G1 X124.312 Y105.051 E0.59332
G1 X124.664 Y105.189 E0.60589
G1 X125.384 Y105.514 E0.63217
G1 X126.2 Y105.999 E0.66374
G1 X126.515 Y106.213 E0.6764
G1 X127.145 Y106.689 E0.70267
G1 X127.661 Y107.163 E0.72597
G1 X127.861 Y107.364 E0.7354
G1 X128.389 Y107.952 E0.76169
G1 X128.66 Y108.306 E0.77651
G1 X128.825 Y108.535 E0.7859
G1 X129.254 Y109.198 E0.81217
G1 X129.474 Y109.607 E0.82761
G1 X129.601 Y109.861 E0.83706
G1 X129.917 Y110.584 E0.8633
G1 X130.069 Y111.022 E0.87872
G1 X130.154 Y111.294 E0.8882
G1 X130.351 Y112.059 E0.91447
G1 X130.465 Y112.796 E0.93928
G1 X130.505 Y113.172 E0.95186
G1 X130.549 Y113.96 E0.97811
G1 X130.527 Y114.576 E0.99861
G1 X130.506 Y114.858 E1.00801
G1 X130.408 Y115.642 E1.03429
G1 X130.257 Y116.316 E1.05726
G1 X130.158 Y116.682 E1.06987
G1 X129.914 Y117.433 E1.09614
G1 X129.882 Y117.505 E1.09876
G1 X129.917 Y117.584 E1.10163
G1 X130.069 Y118.022 E1.11705
G1 X130.154 Y118.294 E1.12653
G1 X130.351 Y119.059 E1.15281
G1 X130.465 Y119.796 E1.17761
G1 X130.505 Y120.172 E1.19019
G1 X130.549 Y120.96 E1.21644
G1 X130.527 Y121.576 E1.23694
G1 X130.506 Y121.858 E1.24634
G1 X130.408 Y122.642 E1.27262
G1 X130.257 Y123.316 E1.29559
G1 X130.158 Y123.682 E1.3082
G1 X129.914 Y124.433 E1.33447
G1 X129.611 Y125.122 E1.3595
G1 X129.484 Y125.377 E1.36898
G1 X129.097 Y126.065 E1.39523
G1 X128.84 Y126.447 E1.41055
G1 X128.675 Y126.677 E1.41996
G1 X128.183 Y127.294 E1.44621
G1 X127.839 Y127.659 E1.46289
G1 X127.636 Y127.861 E1.47241
G1 X127.049 Y128.389 E1.49867
G1 X126.527 Y128.777 E1.52031
G1 X126.216 Y128.989 E1.53283
G1 X125.542 Y129.4 E1.55908
G1 X124.723 Y129.785 E1.58918
G1 X124.371 Y129.926 E1.60179
G1 X123.624 Y130.182 E1.62806
G1 X122.948 Y130.344 E1.65118
G1 X122.668 Y130.398 E1.66066
G1 X121.886 Y130.508 E1.68693
G1 X121.439 Y130.535 E1.70182
G1 X121.156 Y130.544 E1.71124
G1 X120.366 Y130.529 E1.73752
G1 X119.863 Y130.478 E1.75434
G1 X119.582 Y130.44 E1.76377
G1 X118.806 Y130.294 E1.79003
G1 X118.391 Y130.183 E1.80432
G1 X118.117 Y130.101 E1.81383
G1 X117.491 Y129.878 E1.83593
G1 X117.371 Y129.926 E1.84023
G1 X116.624 Y130.182 E1.86649
G1 X115.948 Y130.344 E1.88962
G1 X115.668 Y130.398 E1.8991
G1 X114.886 Y130.508 E1.92537
G1 X114.439 Y130.535 E1.94026
G1 X114.156 Y130.544 E1.94968
G1 X113.366 Y130.529 E1.97596
G1 X112.863 Y130.478 E1.99277
G1 X112.582 Y130.44 E2.0022
G1 X111.806 Y130.294 E2.02847
G1 X111.391 Y130.183 E2.04275
G1 X111.117 Y130.101 E2.05227
G1 X110.373 Y129.836 E2.07854
G1 X109.683 Y129.511 E2.1039
G1 X109.351 Y129.334 E2.11642
G1 X108.674 Y128.928 E2.14267
G1 X107.965 Y128.391 E2.17226
G1 X107.676 Y128.145 E2.18488
G1 X107.102 Y127.603 E2.21114
G1 X106.66 Y127.101 E2.23338
G1 X106.481 Y126.879 E2.24287
G1 X106.017 Y126.24 E2.26913
G1 X105.67 Y125.651 E2.29187
G1 X105.492 Y125.317 E2.30446
G1 X105.156 Y124.603 E2.3307
G1 X104.927 Y123.966 E2.35322
G1 X104.843 Y123.696 E2.36262
G1 X104.647 Y122.931 E2.38889
G1 X104.535 Y122.204 E2.41335
G1 X104.495 Y121.828 E2.42593
G1 X104.451 Y121.04 E2.45218
G1 X104.473 Y120.424 E2.47268
G1 X104.494 Y120.142 E2.48209
G1 X104.592 Y119.358 E2.50836
G1 X104.743 Y118.684 E2.53134
G1 X104.842 Y118.318 E2.54395
G1 X105.086 Y117.567 E2.57021
G1 X105.122 Y117.489 E2.57307
G1 X105.073 Y117.368 E2.57741
G1 X104.817 Y116.621 E2.60368
G1 X104.656 Y115.948 E2.62669
G1 X104.602 Y115.668 E2.63618
G1 X104.492 Y114.886 E2.66244
G1 X104.465 Y114.439 E2.67734
G1 X104.456 Y114.156 E2.68675
G1 X104.471 Y113.366 E2.71303
G1 X104.522 Y112.863 E2.72985
G1 X104.56 Y112.582 E2.73928
G1 X104.706 Y111.806 E2.76554
G1 X104.814 Y111.401 E2.77948
G1 X104.895 Y111.129 E2.78892
G1 X105.159 Y110.384 E2.81521
G1 X105.488 Y109.687 E2.84085
G1 X105.666 Y109.353 E2.85343
G1 X106.072 Y108.675 E2.87972
G1 X106.609 Y107.965 E2.90933
G1 X106.855 Y107.676 E2.92195
G1 X107.397 Y107.102 E2.94821
G0 F6000 X107.688 Y107.376
G1 F1200 X108.15 Y106.971 E2.96864
G1 X108.372 Y106.792 E2.97813
G1 X108.995 Y106.341 E3.00371
G1 X109.536 Y106.023 E3.02458
G1 X109.868 Y105.846 E3.03709
G1 X110.564 Y105.52 E3.06266
G1 X111.142 Y105.313 E3.08308
G1 X111.414 Y105.228 E3.09255
G1 X112.159 Y105.037 E3.11813
G1 X112.838 Y104.933 E3.14098
G1 X113.214 Y104.893 E3.15356
G1 X113.982 Y104.851 E3.17914
G1 X114.758 Y104.89 E3.20498
G1 X115.135 Y104.929 E3.21759
G1 X115.895 Y105.048 E3.24317
G1 X116.503 Y105.203 E3.26404
G1 X116.776 Y105.285 E3.27352
G1 X117.5 Y105.544 E3.2991
G1 X117.777 Y105.446 E3.30887
G1 X118.505 Y105.197 E3.33446
G1 X119.128 Y105.049 E3.35576
G1 X119.408 Y104.995 E3.36524
G1 X120.169 Y104.889 E3.3908
G1 X120.77 Y104.861 E3.41081
G1 X121.146 Y104.859 E3.42332
G1 X121.914 Y104.895 E3.44889
G1 X122.586 Y104.993 E3.47148
G1 X122.866 Y105.047 E3.48096
G1 X123.613 Y105.232 E3.50656
G1 X124.166 Y105.424 E3.52603
G1 X124.518 Y105.562 E3.5386
G1 X125.219 Y105.879 E3.56419
G1 X125.975 Y106.33 E3.59347
G1 X126.29 Y106.544 E3.60613
G1 X126.903 Y107.009 E3.63172
G1 X127.378 Y107.445 E3.65317
G1 X127.578 Y107.646 E3.6626
G1 X128.091 Y108.219 E3.68818
G1 X128.336 Y108.54 E3.70161
G1 X128.501 Y108.769 E3.711
G1 X128.917 Y109.416 E3.73658
G1 X129.116 Y109.786 E3.75056
G1 X129.243 Y110.04 E3.76
G1 X129.551 Y110.745 E3.78559
G1 X129.687 Y111.142 E3.79955
G1 X129.772 Y111.414 E3.80903
G1 X129.963 Y112.159 E3.83461
G1 X130.067 Y112.838 E3.85745
G1 X130.107 Y113.214 E3.87003
G1 X130.149 Y113.982 E3.89561
G1 X130.129 Y114.547 E3.91442
G1 X130.108 Y114.829 E3.92382
G1 X130.011 Y115.592 E3.9494
G1 X129.871 Y116.211 E3.97051
G1 X129.772 Y116.577 E3.98312
G1 X129.533 Y117.308 E4.0087
G1 X129.446 Y117.505 E4.01586
G1 X129.551 Y117.745 E4.02458
G1 X129.687 Y118.142 E4.03853
G1 X129.772 Y118.414 E4.04801
G1 X129.963 Y119.159 E4.07359
G1 X130.067 Y119.838 E4.09644
G1 X130.107 Y120.214 E4.10902
G1 X130.149 Y120.982 E4.1346
G1 X130.129 Y121.547 E4.1534
G1 X130.108 Y121.829 E4.16281
G1 X130.011 Y122.592 E4.18839
G1 X129.871 Y123.211 E4.2095
G1 X129.772 Y123.577 E4.22211
G1 X129.533 Y124.308 E4.24769
G1 X129.253 Y124.944 E4.2708
G1 X129.126 Y125.199 E4.28027
G1 X128.748 Y125.869 E4.30586
G1 X128.515 Y126.214 E4.31971
G1 X128.35 Y126.444 E4.32912
G1 X127.87 Y127.044 E4.35468
G1 X127.557 Y127.375 E4.36983
G1 X127.354 Y127.577 E4.37935
G1 X126.781 Y128.091 E4.40496
G1 X126.302 Y128.446 E4.42479
G1 X125.991 Y128.658 E4.43731
G1 X125.334 Y129.058 E4.46289
G1 X124.575 Y129.413 E4.49076
G1 X124.223 Y129.554 E4.50337
G1 X123.495 Y129.803 E4.52896
G1 X122.872 Y129.951 E4.55026
G1 X122.592 Y130.005 E4.55974
G1 X121.831 Y130.111 E4.5853
G1 X121.426 Y130.135 E4.59879
G1 X121.143 Y130.144 E4.60821
G1 X120.374 Y130.129 E4.63379
G1 X119.916 Y130.081 E4.64911
G1 X119.635 Y130.043 E4.65854
G1 X118.879 Y129.901 E4.68412
G1 X118.505 Y129.799 E4.69702
G1 X118.231 Y129.717 E4.70653
G1 X117.507 Y129.459 E4.73209
G1 X117.223 Y129.554 E4.74205
G1 X116.495 Y129.803 E4.76764
G1 X115.872 Y129.951 E4.78894
G1 X115.592 Y130.005 E4.79843
G1 X114.831 Y130.111 E4.82398
G1 X114.426 Y130.135 E4.83748
G1 X114.143 Y130.144 E4.84689
G1 X113.374 Y130.129 E4.87248
G1 X112.916 Y130.081 E4.88779
G1 X112.635 Y130.043 E4.89722
G1 X111.879 Y129.901 E4.92281
G1 X111.505 Y129.799 E4.9357
G1 X111.231 Y129.717 E4.94521
G1 X110.507 Y129.459 E4.97078
G1 X109.872 Y129.158 E4.99415
G1 X109.54 Y128.981 E5.00666
G1 X108.881 Y128.584 E5.03225
G1 X108.224 Y128.086 E5.05967
G1 X107.935 Y127.84 E5.07229
G1 X107.376 Y127.312 E5.09787
G1 X106.971 Y126.85 E5.1183
G1 X106.792 Y126.628 E5.12779
G1 X106.341 Y126.005 E5.15337
G1 X106.023 Y125.463 E5.17427
G1 X105.845 Y125.129 E5.18686
G1 X105.519 Y124.433 E5.21242
G1 X105.309 Y123.847 E5.23313
G1 X105.225 Y123.577 E5.24253
G1 X105.035 Y122.832 E5.2681
G1 X104.933 Y122.162 E5.29064
G1 X104.893 Y121.786 E5.30322
G1 X104.851 Y121.018 E5.3288
G1 X104.871 Y120.453 E5.34761
G1 X104.892 Y120.171 E5.35701
G1 X104.989 Y119.408 E5.38259
G1 X105.129 Y118.789 E5.4037
G1 X105.228 Y118.423 E5.41631
G1 X105.467 Y117.692 E5.44189
G1 X105.556 Y117.498 E5.44899
G1 X105.444 Y117.219 E5.45899
G1 X105.196 Y116.491 E5.48457
G1 X105.049 Y115.872 E5.50573
G1 X104.995 Y115.592 E5.51521
G1 X104.889 Y114.831 E5.54077
G1 X104.865 Y114.426 E5.55426
G1 X104.856 Y114.143 E5.56368
G1 X104.871 Y113.374 E5.58926
G1 X104.919 Y112.916 E5.60458
G1 X104.957 Y112.635 E5.61401
G1 X105.198 Y111.515 E5.65211
G1 X105.279 Y111.243 E5.66155
G1 X105.536 Y110.518 E5.68714
G1 X105.841 Y109.875 E5.71081
G1 X106.019 Y109.541 E5.7234
G1 X106.415 Y108.882 E5.74897
G1 X106.914 Y108.224 E5.77643
G1 X107.16 Y107.935 E5.78906
G1 X107.688 Y107.376 E5.81463
G0 F6000 X107.979 Y107.652
G1 F1200 X108.401 Y107.283 E5.83328
G1 X108.623 Y107.104 E5.84276
G1 X109.23 Y106.666 E5.86766
G1 X109.724 Y106.376 E5.88671
G1 X110.056 Y106.199 E5.89922
G1 X110.734 Y105.883 E5.9241
G1 X111.261 Y105.695 E5.94271
G1 X111.533 Y105.61 E5.95219
G1 X112.258 Y105.425 E5.97708
G1 X112.88 Y105.33 E5.99801
G1 X113.256 Y105.29 E6.01058
G1 X114.004 Y105.251 E6.03549
G1 X114.717 Y105.288 E6.05924
G1 X115.094 Y105.327 E6.07185
G1 X115.833 Y105.444 E6.09673
G1 X116.388 Y105.586 E6.11579
G1 X116.661 Y105.668 E6.12527
G1 X117.365 Y105.921 E6.15015
G1 X117.508 Y105.989 E6.15541
G1 X117.574 Y105.958 E6.15784
G1 X117.926 Y105.817 E6.17045
G1 X118.634 Y105.576 E6.19533
G1 X119.203 Y105.442 E6.21477
G1 X119.483 Y105.388 E6.22425
G1 X120.224 Y105.285 E6.24914
G1 X120.772 Y105.261 E6.26738
G1 X121.148 Y105.259 E6.27989
G1 X121.895 Y105.295 E6.30476
G1 X122.511 Y105.386 E6.32547
G1 X122.791 Y105.44 E6.33496
G1 X123.516 Y105.62 E6.3598
G1 X124.02 Y105.796 E6.37756
G1 X124.372 Y105.934 E6.39013
G1 X125.053 Y106.244 E6.41502
G1 X125.751 Y106.661 E6.44206
G1 X126.066 Y106.875 E6.45473
G1 X126.661 Y107.328 E6.4796
G1 X127.094 Y107.728 E6.49921
G1 X127.294 Y107.929 E6.50864
G1 X128.011 Y108.774 E6.5455
G1 X128.176 Y109.003 E6.55488
G1 X128.581 Y109.632 E6.57977
G1 X128.758 Y109.965 E6.59231
G1 X128.885 Y110.219 E6.60175
G1 X129.183 Y110.905 E6.62663
G1 X129.305 Y111.261 E6.63915
G1 X129.39 Y111.533 E6.64863
G1 X129.575 Y112.258 E6.67351
G1 X129.67 Y112.88 E6.69444
G1 X129.71 Y113.256 E6.70702
G1 X129.749 Y114.004 E6.73193
G1 X129.73 Y114.517 E6.749
G1 X129.709 Y114.799 E6.75841
G1 X129.613 Y115.541 E6.78329
G1 X129.485 Y116.107 E6.80259
G1 X129.386 Y116.473 E6.8152
G1 X129.153 Y117.183 E6.84006
G1 X129.01 Y117.506 E6.85181
G1 X129.183 Y117.905 E6.86627
G1 X129.305 Y118.261 E6.87879
G1 X129.39 Y118.533 E6.88827
G1 X129.575 Y119.258 E6.91315
G1 X129.67 Y119.88 E6.93408
G1 X129.71 Y120.256 E6.94666
G1 X129.749 Y121.004 E6.97157
G1 X129.73 Y121.517 E6.98864
G1 X129.709 Y121.799 E6.99805
G1 X129.613 Y122.541 E7.02293
G1 X129.485 Y123.107 E7.04223
G1 X129.386 Y123.473 E7.05484
G1 X129.153 Y124.183 E7.0797
G1 X128.895 Y124.766 E7.1009
G1 X128.768 Y125.021 E7.11038
G1 X128.19 Y125.98 E7.14762
G1 X128.025 Y126.21 E7.15703
G1 X127.557 Y126.794 E7.18193
G1 X127.275 Y127.092 E7.19557
G1 X127.072 Y127.294 E7.2051
G1 X126.514 Y127.793 E7.22999
G1 X126.077 Y128.116 E7.24807
G1 X125.766 Y128.328 E7.26059
G1 X125.126 Y128.716 E7.28548
G1 X124.426 Y129.042 E7.31116
G1 X124.074 Y129.183 E7.32377
G1 X123.366 Y129.424 E7.34865
G1 X122.797 Y129.558 E7.36809
G1 X122.517 Y129.612 E7.37758
G1 X121.414 Y129.735 E7.41449
G1 X121.131 Y129.744 E7.42391
G1 X120.383 Y129.728 E7.44879
G1 X119.97 Y129.685 E7.4626
G1 X119.689 Y129.647 E7.47203
G1 X118.62 Y129.416 E7.50841
G1 X118.346 Y129.334 E7.51792
G1 X117.642 Y129.082 E7.54279
G1 X117.493 Y129.011 E7.54828
G1 X117.426 Y129.042 E7.55074
G1 X117.074 Y129.183 E7.56335
G1 X116.366 Y129.424 E7.58822
G1 X115.797 Y129.558 E7.60767
G1 X115.517 Y129.612 E7.61715
G1 X114.414 Y129.735 E7.65406
G1 X114.131 Y129.744 E7.66348
G1 X113.383 Y129.728 E7.68837
G1 X112.97 Y129.685 E7.70218
G1 X112.689 Y129.647 E7.71161
G1 X111.62 Y129.416 E7.74798
G1 X111.346 Y129.334 E7.7575
G1 X110.642 Y129.082 E7.78237
G1 X110.06 Y128.805 E7.8038
G1 X109.728 Y128.628 E7.81632
G1 X109.087 Y128.241 E7.84122
G1 X108.484 Y127.781 E7.86645
G1 X108.195 Y127.535 E7.87907
G1 X107.652 Y127.021 E7.90394
G1 X107.283 Y126.599 E7.92258
G1 X107.104 Y126.377 E7.93207
G1 X106.666 Y125.77 E7.95696
G1 X106.376 Y125.275 E7.97605
G1 X106.198 Y124.941 E7.98863
G1 X105.881 Y124.263 E8.01353
G1 X105.691 Y123.728 E8.03241
G1 X105.607 Y123.458 E8.04182
G1 X105.423 Y122.733 E8.06669
G1 X105.33 Y122.12 E8.08731
G1 X105.29 Y121.744 E8.09989
G1 X105.251 Y120.996 E8.1248
G1 X105.27 Y120.483 E8.14188
G1 X105.291 Y120.201 E8.15128
G1 X105.387 Y119.459 E8.17617
G1 X105.515 Y118.893 E8.19547
G1 X105.614 Y118.527 E8.20808
G1 X105.847 Y117.817 E8.23293
G1 X105.993 Y117.5 E8.24454
G1 X105.956 Y117.421 E8.24744
G1 X105.816 Y117.071 E8.25998
G1 X105.575 Y116.362 E8.28489
G1 X105.442 Y115.797 E8.30419
G1 X105.388 Y115.517 E8.31368
G1 X105.265 Y114.414 E8.35059
G1 X105.256 Y114.131 E8.36001
G1 X105.272 Y113.383 E8.38489
G1 X105.315 Y112.97 E8.3987
G1 X105.353 Y112.689 E8.40813
G1 X105.581 Y111.629 E8.4442
G1 X105.662 Y111.357 E8.45364
G1 X105.914 Y110.653 E8.47851
G1 X106.194 Y110.063 E8.50023
G1 X106.372 Y109.729 E8.51281
G1 X106.758 Y109.088 E8.5377
G1 X107.219 Y108.484 E8.56297
G1 X107.465 Y108.195 E8.5756
G1 X107.979 Y107.652 E8.60046
G0 F6000 X108.27 Y107.928
G1 F1200 X108.652 Y107.594 E8.61734
G1 X108.874 Y107.415 E8.62683
G1 X109.464 Y106.991 E8.65099
G1 X109.912 Y106.729 E8.66825
G1 X110.244 Y106.552 E8.68077
G1 X110.903 Y106.246 E8.70493
G1 X111.38 Y106.076 E8.72178
G1 X111.652 Y105.991 E8.73125
G1 X112.357 Y105.813 E8.75544
G1 X112.923 Y105.728 E8.77447
G1 X113.299 Y105.688 E8.78705
G1 X114.024 Y105.651 E8.8112
G1 X114.676 Y105.686 E8.83291
G1 X115.053 Y105.725 E8.84552
G1 X115.77 Y105.839 E8.86967
G1 X116.273 Y105.969 E8.88695
G1 X116.546 Y106.051 E8.89643
G1 X117.229 Y106.298 E8.92058
G1 X117.505 Y106.43 E8.93076
G1 X117.723 Y106.329 E8.93875
G1 X118.075 Y106.188 E8.95136
G1 X118.763 Y105.956 E8.97551
G1 X119.279 Y105.834 E8.99315
G1 X119.559 Y105.78 E9.00263
G1 X120.279 Y105.682 E9.0268
G1 X120.774 Y105.661 E9.04328
G1 X121.15 Y105.659 E9.05578
G1 X121.875 Y105.695 E9.07993
G1 X122.435 Y105.778 E9.09875
G1 X122.715 Y105.832 E9.10824
G1 X123.419 Y106.009 E9.13238
G1 X123.874 Y106.168 E9.14841
G1 X124.226 Y106.306 E9.16099
G1 X124.887 Y106.608 E9.18516
G1 X125.526 Y106.992 E9.20996
G1 X125.841 Y107.206 E9.22262
G1 X126.418 Y107.646 E9.24676
G1 X126.811 Y108.01 E9.26457
G1 X127.011 Y108.211 E9.274
G1 X127.687 Y109.008 E9.30876
G1 X127.852 Y109.237 E9.31815
