;FLAVOR:Marlin
;TIME:7274
;Filament used: 5.02218m
;Layer height: 0.16
;MINX:94.769
;MINY:76.349
;MINZ:0.2
;MAXX:140.24
;MAXY:158.662
;MAXZ:39.76
;Generated with Cura_SteamEngine 4.5.0
M140 S50
M105
M190 S50
M104 S200
M105
M109 S200
M82 ;absolute extrusion mode
; Ender 3 Custom Start G-code
G92 E0 ; Reset Extruder
G28 ; Home all axes
G1 Z2.0 F3000 ; Move Z Axis up little to prevent scratching of Heat Bed
G1 X0.1 Y20 Z0.3 F5000.0 ; Move to start position
G1 X0.1 Y200.0 Z0.3 F1500.0 E15 ; Draw the first line
G1 X0.4 Y200.0 Z0.3 F5000.0 ; Move to side a little
G1 X0.4 Y20 Z0.3 F1500.0 E30 ; Draw the second line
G92 E0 ; Reset Extruder
G1 Z2.0 F3000 ; Move Z Axis up little to prevent scratching of Heat Bed
G1 X5 Y20 Z0.3 F5000.0 ; Move over to prevent blob squish
G92 E0
G92 E0
G1 F2700 E-5
;LAYER_COUNT:218
;LAYER:0
M107
G0 F6000 X97.354 Y89.359 Z0.2
;TYPE:SKIRT
G1 F2700 E0
G1 F1200 X108.093 Y78.619 E0.50515
G1 X108.679 Y78.089 E0.53143
G1 X109.316 Y77.622 E0.5577
G1 X109.996 Y77.221 E0.58396
G1 X110.714 Y76.891 E0.61024
G1 X111.461 Y76.636 E0.6365
G1 X112.23 Y76.457 E0.66276
G1 X113.013 Y76.357 E0.68901
G1 X114.094 Y76.349 E0.72497
G1 X114.351 Y76.365 E0.73353
G1 X115.135 Y76.454 E0.75977
G1 X115.656 Y76.558 E0.77744
G1 X116.042 Y76.649 E0.79063
G1 X117.021 Y76.949 E0.82469
G1 X117.316 Y77.061 E0.83519
G1 X117.911 Y77.315 E0.8567
G1 X118.183 Y77.445 E0.86673
G1 X118.81 Y77.781 E0.89039
G1 X119.077 Y77.94 E0.90073
G1 X119.67 Y78.331 E0.92435
G1 X119.955 Y78.538 E0.93607
G1 X120.507 Y78.979 E0.95956
G1 X120.771 Y79.21 E0.97123
G1 X121.292 Y79.709 E0.99523
G1 X121.536 Y79.966 E1.00701
G1 X121.911 Y80.392 E1.02589
G1 X122.052 Y80.564 E1.03329
G1 X122.52 Y81.198 E1.0595
G1 X122.778 Y81.587 E1.07502
G1 X123.17 Y82.245 E1.1005
G1 X123.267 Y82.428 E1.10739
G1 X123.55 Y83.021 E1.12924
G1 X123.666 Y83.293 E1.13907
G1 X123.942 Y84.046 E1.16575
G1 X124.016 Y84.285 E1.17407
G1 X124.249 Y85.254 E1.20722
G1 X124.288 Y85.478 E1.21478
G1 X124.384 Y86.262 E1.24105
G1 X124.404 Y86.814 E1.25942
G1 X124.411 Y114.498 E2.1802
G1 X124.371 Y115.287 E2.20647
G1 X124.252 Y116.067 E2.23272
G1 X124.054 Y116.832 E2.259
G1 X123.803 Y117.51 E2.28304
G1 X123.922 Y117.786 E2.29304
G1 X124.159 Y118.539 E2.3193
G1 X124.318 Y119.313 E2.34558
G1 X124.399 Y120.098 E2.37183
G1 X124.409 Y120.501 E2.38523
G1 X124.404 Y148.184 E3.30597
G1 X124.364 Y148.973 E3.33225
G1 X124.257 Y149.691 E3.35639
G1 X124.203 Y149.965 E3.36568
G1 X123.916 Y151.024 E3.40218
G1 X123.801 Y151.354 E3.4138
G1 X123.44 Y152.217 E3.44491
G1 X123.298 Y152.507 E3.45565
G1 X122.882 Y153.252 E3.48403
G1 X122.69 Y153.555 E3.49596
G1 X122.24 Y154.191 E3.52188
G1 X122.019 Y154.473 E3.53379
G1 X121.41 Y155.163 E3.5644
G1 X121.038 Y155.537 E3.58195
G1 X120.349 Y156.152 E3.61266
G1 X120.061 Y156.38 E3.62488
G1 X119.518 Y156.773 E3.64718
G1 X119.253 Y156.948 E3.65774
G1 X118.518 Y157.378 E3.68606
G1 X118.109 Y157.588 E3.70135
G1 X117.323 Y157.938 E3.72997
G1 X117.05 Y158.042 E3.73969
G1 X116.284 Y158.289 E3.76646
G1 X116.003 Y158.364 E3.77613
G1 X115.056 Y158.555 E3.80826
G1 X114.809 Y158.589 E3.81655
G1 X114.036 Y158.657 E3.84236
G1 X113.902 Y158.662 E3.84682
G1 X113.112 Y158.651 E3.8731
G1 X112.328 Y158.561 E3.89935
G1 X111.556 Y158.392 E3.92563
G1 X110.806 Y158.145 E3.9519
G1 X110.085 Y157.824 E3.97815
G1 X109.399 Y157.432 E4.00442
G1 X108.757 Y156.973 E4.03067
G1 X108.096 Y156.382 E4.06016
G1 X97.355 Y145.641 E4.56539
G1 X96.825 Y145.055 E4.59167
G1 X96.358 Y144.419 E4.61791
G1 X95.957 Y143.739 E4.64417
G1 X95.627 Y143.021 E4.67045
G1 X95.372 Y142.274 E4.6967
G1 X95.193 Y141.505 E4.72296
G1 X95.093 Y140.721 E4.74925
G1 X95.072 Y139.932 E4.7755
G1 X95.132 Y139.145 E4.80175
G1 X95.271 Y138.367 E4.82804
G1 X95.488 Y137.608 E4.8543
G1 X95.78 Y136.874 E4.88057
G1 X96.145 Y136.174 E4.90683
G1 X96.579 Y135.514 E4.9331
G1 X97.314 Y134.651 E4.9708
G1 X97.562 Y134.399 E4.98256
G1 X97.969 Y133.974 E5.00213
G1 X98.379 Y133.522 E5.02243
G1 X98.797 Y133.034 E5.0438
G1 X99.182 Y132.563 E5.06404
G1 X99.496 Y132.162 E5.08098
G1 X99.82 Y131.725 E5.09907
G1 X100.167 Y131.233 E5.11909
G1 X100.507 Y130.727 E5.13937
G1 X100.81 Y130.245 E5.15831
G1 X101.152 Y129.675 E5.18041
G1 X101.412 Y129.221 E5.19782
G1 X101.818 Y128.458 E5.22656
G1 X102.157 Y127.764 E5.25225
G1 X102.54 Y126.899 E5.28372
G1 X102.854 Y126.127 E5.31144
G1 X103.102 Y125.444 E5.3356
G1 X103.309 Y124.818 E5.35753
G1 X103.47 Y124.292 E5.37583
G1 X103.621 Y123.751 E5.39451
G1 X103.795 Y123.055 E5.41837
G1 X103.909 Y122.552 E5.43553
G1 X104.024 Y121.99 E5.45461
G1 X104.124 Y121.412 E5.47412
G1 X104.243 Y120.583 E5.50197
G1 X104.287 Y120.239 E5.51351
G1 X104.343 Y119.697 E5.53163
G1 X104.464 Y118.917 E5.55788
G1 X104.664 Y118.153 E5.58415
G1 X104.909 Y117.493 E5.60756
G1 X104.789 Y117.214 E5.61767
G1 X104.552 Y116.461 E5.64392
G1 X104.344 Y115.304 E5.68302
G1 X104.294 Y114.826 E5.69901
G1 X104.189 Y114.013 E5.72627
G1 X104.127 Y113.606 E5.73996
G1 X104.023 Y113.013 E5.75999
G1 X103.892 Y112.374 E5.78168
G1 X103.754 Y111.768 E5.80235
G1 X103.579 Y111.094 E5.82552
G1 X103.476 Y110.722 E5.83835
G1 X103.301 Y110.157 E5.85803
G1 X103.114 Y109.592 E5.87782
G1 X102.789 Y108.712 E5.90902
G1 X102.467 Y107.925 E5.9373
G1 X102.123 Y107.164 E5.96508
G1 X101.776 Y106.459 E5.99122
G1 X101.359 Y105.684 E6.02049
G1 X101.014 Y105.09 E6.04333
G1 X100.862 Y104.839 E6.05309
G1 X100.502 Y104.267 E6.07557
G1 X100.18 Y103.785 E6.09485
G1 X99.873 Y103.348 E6.11262
G1 X99.506 Y102.852 E6.13314
G1 X99.113 Y102.35 E6.15434
G1 X98.704 Y101.855 E6.1757
G1 X98.372 Y101.47 E6.19261
G1 X97.959 Y101.015 E6.21304
G1 X97.566 Y100.603 E6.23198
G1 X97.334 Y100.369 E6.24294
G1 X96.807 Y99.781 E6.2692
G1 X96.342 Y99.143 E6.29546
G1 X95.944 Y98.461 E6.32173
G1 X95.617 Y97.742 E6.348
G1 X95.364 Y96.994 E6.37426
G1 X95.188 Y96.224 E6.40053
G1 X95.091 Y95.441 E6.42677
G1 X95.073 Y94.651 E6.45306
G1 X95.136 Y93.864 E6.47931
G1 X95.277 Y93.087 E6.50558
G1 X95.497 Y92.329 E6.53183
G1 X95.792 Y91.596 E6.55811
G1 X96.16 Y90.897 E6.58439
G1 X96.596 Y90.239 E6.61064
G1 X97.354 Y89.359 E6.64927
G0 F6000 X97.637 Y89.642
G1 F1200 X108.376 Y78.902 E7.15442
G1 X108.948 Y78.387 E7.18002
G1 X109.569 Y77.934 E7.20559
G1 X110.235 Y77.548 E7.23119
G1 X110.937 Y77.233 E7.25678
G1 X111.667 Y76.993 E7.28234
G1 X112.419 Y76.83 E7.30793
G1 X113.183 Y76.746 E7.3335
G1 X114.069 Y76.748 E7.36297
G1 X114.326 Y76.764 E7.37153
G1 X115.09 Y76.852 E7.39711
G1 X115.564 Y76.947 E7.41319
G1 X115.95 Y77.038 E7.42638
G1 X116.879 Y77.323 E7.4587
G1 X117.174 Y77.435 E7.46919
G1 X117.738 Y77.676 E7.48959
G1 X118.01 Y77.806 E7.49962
G1 X118.605 Y78.125 E7.52207
G1 X118.872 Y78.284 E7.53241
G1 X119.435 Y78.655 E7.55484
G1 X119.72 Y78.862 E7.56655
G1 X120.244 Y79.28 E7.58884
G1 X120.508 Y79.511 E7.60051
G1 X121.002 Y79.985 E7.62328
G1 X121.246 Y80.242 E7.63507
G1 X121.602 Y80.646 E7.65298
G1 X121.743 Y80.818 E7.66038
G1 X122.187 Y81.419 E7.68523
G1 X122.445 Y81.808 E7.70075
G1 X122.816 Y82.432 E7.7249
G1 X122.913 Y82.615 E7.73179
G1 X123.182 Y83.178 E7.75254
G1 X123.298 Y83.45 E7.76238
G1 X123.56 Y84.164 E7.78767
G1 X123.634 Y84.403 E7.79599
G1 X123.855 Y85.323 E7.82746
G1 X123.894 Y85.547 E7.83503
G1 X123.987 Y86.31 E7.86059
G1 X124.004 Y86.814 E7.87736
G1 X124.011 Y114.498 E8.79814
G1 X123.971 Y115.266 E8.82372
G1 X123.852 Y116.026 E8.8493
G1 X123.654 Y116.769 E8.87488
G1 X123.381 Y117.488 E8.90046
G1 X123.626 Y118.151 E8.92397
G1 X123.832 Y118.893 E8.94958
G1 X123.96 Y119.651 E8.97515
G1 X124.009 Y120.501 E9.00346
G1 X124.004 Y148.184 E9.9242
G1 X123.964 Y148.952 E9.94978
G1 X123.864 Y149.614 E9.97205
G1 X123.81 Y149.888 E9.98134
G1 X123.538 Y150.892 E10.01594
G1 X123.423 Y151.222 E10.02756
G1 X123.081 Y152.041 E10.05708
G1 X122.939 Y152.331 E10.06782
G1 X122.544 Y153.038 E10.09476
G1 X122.352 Y153.341 E10.10669
G1 X121.925 Y153.945 E10.13129
G1 X121.704 Y154.227 E10.1432
G1 X121.127 Y154.881 E10.17221
G1 X120.755 Y155.255 E10.18976
G1 X120.101 Y155.838 E10.2189
G1 X119.813 Y156.066 E10.23112
G1 X119.298 Y156.439 E10.25226
G1 X119.033 Y156.614 E10.26283
G1 X118.335 Y157.022 E10.28972
G1 X117.926 Y157.232 E10.30501
G1 X117.18 Y157.564 E10.33217
G1 X116.907 Y157.668 E10.34188
G1 X116.181 Y157.903 E10.36726
G1 X115.9 Y157.978 E10.37694
G1 X115.001 Y158.159 E10.40744
G1 X114.754 Y158.193 E10.41573
G1 X114.021 Y158.257 E10.4402
G1 X113.887 Y158.262 E10.44466
G1 X113.118 Y158.251 E10.47024
G1 X112.354 Y158.159 E10.49584
G1 X111.604 Y157.99 E10.52141
G1 X110.875 Y157.743 E10.54701
G1 X110.177 Y157.422 E10.57256
G1 X109.515 Y157.03 E10.59815
G1 X108.897 Y156.571 E10.62375
G1 X108.378 Y156.1 E10.64707
G1 X97.637 Y145.359 E11.15229
G1 X97.123 Y144.787 E11.17787
G1 X96.67 Y144.165 E11.20346
G1 X96.284 Y143.5 E11.22903
G1 X95.969 Y142.798 E11.25463
G1 X95.729 Y142.067 E11.28022
G1 X95.566 Y141.316 E11.30578
G1 X95.482 Y140.551 E11.33137
G1 X95.478 Y139.782 E11.35695
G1 X95.554 Y139.017 E11.38252
G1 X95.708 Y138.263 E11.40811
G1 X95.94 Y137.53 E11.43369
G1 X96.247 Y136.825 E11.45926
G1 X96.626 Y136.155 E11.48486
G1 X97.072 Y135.528 E11.51046
G1 X97.599 Y134.932 E11.53692
G1 X97.868 Y134.659 E11.54966
G1 X98.236 Y134.274 E11.56738
G1 X98.696 Y133.766 E11.59017
G1 X99.107 Y133.287 E11.61116
G1 X99.481 Y132.83 E11.63081
G1 X99.812 Y132.406 E11.6487
G1 X100.148 Y131.953 E11.66746
G1 X100.478 Y131.485 E11.6865
G1 X100.854 Y130.926 E11.70891
G1 X101.158 Y130.442 E11.72792
G1 X101.495 Y129.881 E11.74968
G1 X101.775 Y129.392 E11.76843
G1 X102.161 Y128.666 E11.79577
G1 X102.525 Y127.922 E11.82332
G1 X102.913 Y127.046 E11.85519
G1 X103.221 Y126.288 E11.8824
G1 X103.486 Y125.558 E11.90823
G1 X103.678 Y124.975 E11.92865
G1 X103.854 Y124.402 E11.94858
G1 X104.011 Y123.841 E11.96796
G1 X104.185 Y123.144 E11.99185
G1 X104.301 Y122.634 E12.00925
G1 X104.422 Y122.041 E12.02938
G1 X104.515 Y121.501 E12.0476
G1 X104.641 Y120.626 E12.07701
G1 X104.684 Y120.287 E12.08837
G1 X104.741 Y119.739 E12.1067
G1 X104.86 Y118.979 E12.13228
G1 X105.057 Y118.235 E12.15788
G1 X105.33 Y117.516 E12.18346
G1 X105.085 Y116.849 E12.20709
G1 X104.879 Y116.107 E12.23271
G1 X104.741 Y115.263 E12.26115
G1 X104.686 Y114.73 E12.27897
G1 X104.591 Y113.995 E12.30362
G1 X104.518 Y113.515 E12.31977
G1 X104.416 Y112.941 E12.33916
G1 X104.282 Y112.283 E12.3615
G1 X104.145 Y111.682 E12.382
G1 X103.981 Y111.051 E12.40368
G1 X103.852 Y110.585 E12.41976
G1 X103.678 Y110.023 E12.43933
G1 X103.496 Y109.472 E12.45863
G1 X103.165 Y108.575 E12.49043
G1 X102.834 Y107.766 E12.51951
G1 X102.482 Y106.989 E12.54788
G1 X102.135 Y106.283 E12.57404
G1 X101.7 Y105.472 E12.60465
G1 X101.369 Y104.904 E12.62652
G1 X101.174 Y104.584 E12.63898
G1 X100.83 Y104.036 E12.6605
G1 X100.534 Y103.593 E12.67822
G1 X100.183 Y103.094 E12.69851
G1 X99.808 Y102.588 E12.71946
G1 X99.467 Y102.151 E12.7379
G1 X99.011 Y101.599 E12.76171
G1 X98.649 Y101.18 E12.78013
G1 X98.262 Y100.754 E12.79927
G1 X97.833 Y100.303 E12.81997
G1 X97.618 Y100.087 E12.83011
G1 X97.105 Y99.514 E12.85569
G1 X96.655 Y98.891 E12.88125
G1 X96.272 Y98.224 E12.90683
G1 X95.959 Y97.521 E12.93243
G1 X95.722 Y96.789 E12.95802
G1 X95.562 Y96.037 E12.98359
G1 X95.481 Y95.272 E13.00917
G1 X95.479 Y94.503 E13.03475
G1 X95.558 Y93.738 E13.06033
G1 X95.715 Y92.985 E13.08591
G1 X95.95 Y92.252 E13.11152
G1 X96.259 Y91.548 E13.13709
G1 X96.64 Y90.88 E13.16267
G1 X97.089 Y90.255 E13.18826
G1 X97.637 Y89.642 E13.21561
G0 F6000 X97.92 Y89.924
G1 F1200 X108.659 Y79.184 E13.72076
G1 X109.215 Y78.685 E13.74561
G1 X109.822 Y78.247 E13.77051
G1 X110.472 Y77.876 E13.7954
G1 X111.158 Y77.577 E13.82029
G1 X111.871 Y77.353 E13.84515
G1 X112.605 Y77.206 E13.87004
G1 X113.35 Y77.139 E13.89492
G1 X114.044 Y77.148 E13.91801
G1 X114.301 Y77.164 E13.92657
G1 X115.044 Y77.25 E13.95145
G1 X115.472 Y77.337 E13.96597
G1 X115.858 Y77.428 E13.97917
G1 X116.737 Y77.697 E14.00974
G1 X117.032 Y77.809 E14.02023
G1 X117.566 Y78.037 E14.03955
G1 X117.838 Y78.167 E14.04957
G1 X118.401 Y78.469 E14.07082
G1 X118.668 Y78.628 E14.08116
G1 X119.2 Y78.978 E14.10234
G1 X119.485 Y79.185 E14.11405
G1 X119.981 Y79.581 E14.13516
G1 X120.245 Y79.812 E14.14683
G1 X120.711 Y80.26 E14.16833
G1 X120.955 Y80.517 E14.18012
G1 X121.292 Y80.899 E14.19706
G1 X121.433 Y81.071 E14.20446
G1 X121.854 Y81.64 E14.228
G1 X122.112 Y82.029 E14.24353
G1 X122.463 Y82.62 E14.26639
G1 X122.56 Y82.803 E14.27328
G1 X122.814 Y83.335 E14.29288
G1 X122.93 Y83.607 E14.30272
G1 X123.178 Y84.283 E14.32667
G1 X123.252 Y84.522 E14.33499
G1 X123.461 Y85.391 E14.36472
G1 X123.5 Y85.615 E14.37228
G1 X123.589 Y86.358 E14.39717
G1 X123.604 Y86.814 E14.41234
G1 X123.611 Y114.498 E15.33312
G1 X123.571 Y115.245 E15.358
G1 X123.452 Y115.984 E15.38289
G1 X123.255 Y116.705 E15.40775
G1 X122.981 Y117.402 E15.43266
G1 X122.926 Y117.507 E15.43661
G1 X123.071 Y117.808 E15.44772
G1 X123.321 Y118.513 E15.4726
G1 X123.495 Y119.241 E15.49749
G1 X123.59 Y119.983 E15.52237
G1 X123.609 Y120.501 E15.53961
G1 X123.604 Y148.184 E16.46035
G1 X123.564 Y148.931 E16.48523
G1 X123.472 Y149.537 E16.50562
G1 X123.418 Y149.811 E16.51491
G1 X123.16 Y150.761 E16.54765
G1 X123.045 Y151.091 E16.55927
G1 X122.722 Y151.865 E16.58717
G1 X122.58 Y152.155 E16.59791
G1 X122.206 Y152.824 E16.6234
G1 X122.014 Y153.127 E16.63533
G1 X121.611 Y153.698 E16.65858
G1 X121.39 Y153.98 E16.67049
G1 X120.843 Y154.598 E16.69794
G1 X120.471 Y154.972 E16.71549
G1 X119.853 Y155.524 E16.74305
G1 X119.565 Y155.752 E16.75527
G1 X119.077 Y156.105 E16.7753
G1 X118.812 Y156.28 E16.78586
G1 X118.152 Y156.666 E16.81129
G1 X117.743 Y156.876 E16.82658
G1 X117.038 Y157.19 E16.85225
G1 X116.765 Y157.294 E16.86197
G1 X116.078 Y157.516 E16.88598
G1 X115.797 Y157.591 E16.89565
G1 X114.947 Y157.763 E16.9245
G1 X114.7 Y157.797 E16.93279
G1 X114.006 Y157.857 E16.95596
G1 X113.872 Y157.862 E16.96042
G1 X113.124 Y157.85 E16.9853
G1 X112.382 Y157.758 E17.01017
G1 X111.653 Y157.588 E17.03507
G1 X110.947 Y157.34 E17.05995
G1 X110.272 Y157.019 E17.08481
G1 X109.634 Y156.628 E17.1097
G1 X109.042 Y156.17 E17.1346
G1 X108.661 Y155.817 E17.15187
G1 X97.92 Y145.076 E17.6571
G1 X97.42 Y144.519 E17.68199
G1 X96.983 Y143.913 E17.70684
G1 X96.612 Y143.263 E17.73173
G1 X96.313 Y142.577 E17.75662
G1 X96.089 Y141.863 E17.78151
G1 X95.942 Y141.13 E17.80638
G1 X95.875 Y140.385 E17.83126
G1 X95.887 Y139.637 E17.85614
G1 X95.979 Y138.894 E17.88104
G1 X96.15 Y138.166 E17.90591
G1 X96.397 Y137.46 E17.93079
G1 X96.719 Y136.785 E17.95566
G1 X97.111 Y136.147 E17.98057
G1 X97.568 Y135.556 E18.00542
G1 X97.884 Y135.213 E18.02093
G1 X98.111 Y134.982 E18.0317
G1 X98.537 Y134.537 E18.05219
G1 X99.013 Y134.012 E18.07576
G1 X99.4 Y133.561 E18.09553
G1 X99.803 Y133.068 E18.1167
G1 X100.11 Y132.676 E18.13326
G1 X100.491 Y132.163 E18.15452
G1 X100.812 Y131.707 E18.17307
G1 X101.188 Y131.148 E18.19547
G1 X101.492 Y130.663 E18.21451
G1 X101.826 Y130.107 E18.23608
G1 X102.132 Y129.573 E18.25655
G1 X102.528 Y128.827 E18.28464
G1 X102.883 Y128.103 E18.31146
G1 X103.268 Y127.233 E18.34311
G1 X103.6 Y126.417 E18.37241
G1 X103.866 Y125.683 E18.39837
G1 X104.052 Y125.119 E18.41813
G1 X104.242 Y124.501 E18.43963
G1 X104.408 Y123.907 E18.46014
G1 X104.562 Y123.288 E18.48136
G1 X104.695 Y122.706 E18.50122
G1 X104.814 Y122.123 E18.52101
G1 X104.912 Y121.554 E18.54021
G1 X105.038 Y120.676 E18.56971
G1 X105.082 Y120.334 E18.58118
G1 X105.139 Y119.78 E18.5997
G1 X105.256 Y119.041 E18.62459
G1 X105.451 Y118.319 E18.64946
G1 X105.721 Y117.621 E18.67436
G1 X105.786 Y117.496 E18.67904
G1 X105.64 Y117.192 E18.69026
G1 X105.39 Y116.487 E18.71514
G1 X105.216 Y115.759 E18.74003
G1 X105.139 Y115.221 E18.75811
G1 X105.083 Y114.681 E18.77617
G1 X104.985 Y113.921 E18.80165
G1 X104.917 Y113.478 E18.81656
G1 X104.815 Y112.9 E18.83608
G1 X104.664 Y112.16 E18.8612
G1 X104.536 Y111.598 E18.88037
G1 X104.348 Y110.874 E18.90525
G1 X104.234 Y110.465 E18.91937
G1 X104.066 Y109.921 E18.93831
G1 X103.881 Y109.361 E18.95793
G1 X103.524 Y108.395 E18.99218
G1 X103.206 Y107.617 E19.02013
G1 X102.848 Y106.826 E19.04901
G1 X102.484 Y106.085 E19.07647
G1 X102.053 Y105.283 E19.10675
G1 X101.724 Y104.717 E19.12853
G1 X101.513 Y104.369 E19.14206
G1 X101.169 Y103.823 E19.16353
