;FLAVOR:Marlin
;TIME:407
;Filament used: 0.235417m
;Layer height: 0.16
;MINX:96.598
;MINY:96.598
;MINZ:0.2
;MAXX:138.402
;MAXY:138.402
;MAXZ:1
;Generated with Cura_SteamEngine 4.5.0
M140 S50
M105
M190 S50
M104 S200
M105
M109 S200
M82 ;absolute extrusion mode
; Ender 3 Custom Start G-code
G92 E0 ; Reset Extruder
G28 ; Home all axes
G1 Z2.0 F3000 ; Move Z Axis up little to prevent scratching of Heat Bed
G1 X0.1 Y20 Z0.3 F5000.0 ; Move to start position
G1 X0.1 Y200.0 Z0.3 F1500.0 E15 ; Draw the first line
G1 X0.4 Y200.0 Z0.3 F5000.0 ; Move to side a little
G1 X0.4 Y20 Z0.3 F1500.0 E30 ; Draw the second line
G92 E0 ; Reset Extruder
G1 Z2.0 F3000 ; Move Z Axis up little to prevent scratching of Heat Bed
G1 X5 Y20 Z0.3 F5000.0 ; Move over to prevent blob squish
G92 E0
G92 E0
G1 F2700 E-5
;LAYER_COUNT:6
;LAYER:0
M107
G0 F6000 X102.573 Y102.867 Z0.2
;TYPE:SKIRT
G1 F2700 E0
G1 F1200 X103.048 Y102.398 E0.0222
G1 X103.366 Y102.099 E0.03672
G1 X103.589 Y101.898 E0.0467
G1 X104.085 Y101.47 E0.06849
G1 X104.423 Y101.192 E0.08305
G1 X104.661 Y101.004 E0.09314
G1 X105.209 Y100.593 E0.11592
G1 X105.769 Y100.2 E0.13868
G1 X106.135 Y99.957 E0.15329
G1 X106.376 Y99.803 E0.1628
G1 X106.955 Y99.453 E0.1853
G1 X107.566 Y99.109 E0.20862
G1 X108.188 Y98.786 E0.23194
G1 X108.834 Y98.478 E0.25574
G1 X109.455 Y98.208 E0.27826
G1 X109.862 Y98.043 E0.29287
G1 X110.118 Y97.945 E0.30199
G1 X110.758 Y97.715 E0.3246
G1 X111.426 Y97.499 E0.34795
G1 X112.113 Y97.303 E0.37172
G1 X112.755 Y97.143 E0.39372
G1 X113.183 Y97.047 E0.40831
G1 X113.484 Y96.986 E0.41853
G1 X114.163 Y96.865 E0.44147
G1 X114.826 Y96.769 E0.46375
G1 X115.26 Y96.717 E0.47829
G1 X115.548 Y96.688 E0.48791
G1 X116.233 Y96.636 E0.51076
G1 X116.937 Y96.605 E0.5342
G1 X117.625 Y96.598 E0.55708
G1 X118.063 Y96.605 E0.57165
G1 X119.013 Y96.652 E0.60329
G1 X119.451 Y96.688 E0.61791
G1 X119.74 Y96.717 E0.62757
G1 X120.404 Y96.8 E0.64982
G1 X120.837 Y96.865 E0.66439
G1 X121.102 Y96.91 E0.67333
G1 X121.8 Y97.044 E0.69697
G1 X122.476 Y97.199 E0.72003
G1 X123.144 Y97.374 E0.743
G1 X123.827 Y97.578 E0.76671
G1 X124.465 Y97.793 E0.7891
G1 X125.13 Y98.04 E0.8127
G1 X125.78 Y98.307 E0.83607
G1 X126.418 Y98.595 E0.85935
G1 X127.047 Y98.905 E0.88267
G1 X127.663 Y99.235 E0.90592
G1 X128.255 Y99.577 E0.92866
G1 X128.857 Y99.951 E0.95223
G1 X129.221 Y100.192 E0.96675
G1 X129.44 Y100.343 E0.97559
G1 X129.996 Y100.743 E0.99838
G1 X130.343 Y101.007 E1.01288
G1 X130.568 Y101.185 E1.02242
G1 X131.098 Y101.625 E1.04533
G1 X131.614 Y102.083 E1.06828
G1 X132.133 Y102.574 E1.09204
G1 X132.6 Y103.047 E1.11415
G1 X132.9 Y103.366 E1.12871
G1 X133.102 Y103.59 E1.13875
G1 X133.53 Y104.086 E1.16054
G1 X133.99 Y104.653 E1.18482
G1 X134.405 Y105.205 E1.20779
G1 X134.801 Y105.77 E1.23074
G1 X135.044 Y106.136 E1.24535
G1 X135.196 Y106.374 E1.25474
G1 X135.555 Y106.968 E1.27783
G1 X135.887 Y107.558 E1.30034
G1 X136.21 Y108.18 E1.32365
G1 X136.518 Y108.825 E1.34743
G1 X136.79 Y109.448 E1.37004
G1 X136.955 Y109.854 E1.38461
G1 X137.062 Y110.133 E1.39455
G1 X137.287 Y110.762 E1.41677
G1 X137.501 Y111.426 E1.43997
G1 X137.624 Y111.846 E1.45453
G1 X137.7 Y112.125 E1.46415
G1 X137.857 Y112.758 E1.48584
G1 X137.953 Y113.187 E1.50046
G1 X138.009 Y113.463 E1.50983
G1 X138.135 Y114.162 E1.53345
G1 X138.231 Y114.827 E1.5558
G1 X138.283 Y115.262 E1.57037
G1 X138.312 Y115.548 E1.57993
G1 X138.364 Y116.232 E1.60275
G1 X138.395 Y116.937 E1.62622
G1 X138.402 Y117.625 E1.6491
G1 X138.386 Y118.328 E1.67249
G1 X138.348 Y119.015 E1.69537
G1 X138.312 Y119.452 E1.70996
G1 X138.283 Y119.738 E1.71952
G1 X138.199 Y120.41 E1.74204
G1 X138.091 Y121.098 E1.76521
G1 X137.956 Y121.8 E1.78898
G1 X137.805 Y122.463 E1.8116
G1 X137.624 Y123.154 E1.83536
G1 X137.424 Y123.822 E1.85855
G1 X137.205 Y124.472 E1.88136
G1 X136.96 Y125.13 E1.90472
G1 X136.69 Y125.788 E1.92837
G1 X136.407 Y126.412 E1.95116
G1 X136.099 Y127.041 E1.97446
G1 X135.896 Y127.427 E1.98896
G1 X135.766 Y127.662 E1.99789
G1 X135.416 Y128.267 E2.02114
G1 X135.051 Y128.852 E2.04407
G1 X134.659 Y129.438 E2.06752
G1 X134.255 Y129.999 E2.09052
G1 X133.99 Y130.347 E2.10507
G1 X133.824 Y130.556 E2.11394
G1 X133.375 Y131.099 E2.13738
G1 X132.918 Y131.615 E2.1603
G1 X132.62 Y131.934 E2.17482
G1 X132.427 Y132.133 E2.18404
G1 X131.952 Y132.602 E2.20624
G1 X131.634 Y132.901 E2.22076
G1 X131.411 Y133.102 E2.23075
G1 X130.915 Y133.53 E2.25254
G1 X130.577 Y133.808 E2.26709
G1 X130.339 Y133.996 E2.27718
G1 X129.791 Y134.407 E2.29996
G1 X129.231 Y134.8 E2.32272
G1 X128.865 Y135.043 E2.33733
G1 X128.624 Y135.197 E2.34684
G1 X128.045 Y135.547 E2.36935
G1 X127.434 Y135.891 E2.39267
G1 X126.809 Y136.216 E2.4161
G1 X126.291 Y136.462 E2.43517
G1 X125.545 Y136.792 E2.4623
G1 X125.138 Y136.957 E2.47691
G1 X124.882 Y137.055 E2.48603
G1 X124.242 Y137.285 E2.50865
G1 X123.574 Y137.501 E2.532
G1 X122.887 Y137.697 E2.55576
G1 X122.245 Y137.857 E2.57776
G1 X121.817 Y137.953 E2.59235
G1 X121.516 Y138.014 E2.60257
G1 X120.837 Y138.135 E2.62551
G1 X120.174 Y138.231 E2.64779
G1 X119.74 Y138.283 E2.66233
G1 X119.452 Y138.312 E2.67195
G1 X118.767 Y138.364 E2.6948
G1 X118.063 Y138.395 E2.71824
G1 X117.375 Y138.402 E2.74112
G1 X116.669 Y138.386 E2.76461
G1 X115.987 Y138.348 E2.78733
G1 X115.549 Y138.312 E2.80195
G1 X115.26 Y138.283 E2.81161
G1 X114.596 Y138.2 E2.83386
G1 X114.163 Y138.135 E2.84843
G1 X113.898 Y138.09 E2.85737
G1 X113.2 Y137.956 E2.88101
G1 X112.524 Y137.801 E2.90407
G1 X111.856 Y137.626 E2.92704
G1 X111.173 Y137.422 E2.95075
G1 X110.535 Y137.207 E2.97314
G1 X109.87 Y136.96 E2.99674
G1 X109.22 Y136.693 E3.02011
G1 X108.582 Y136.405 E3.04339
G1 X107.953 Y136.095 E3.06671
G1 X107.337 Y135.765 E3.08996
G1 X106.745 Y135.423 E3.1127
G1 X106.143 Y135.049 E3.13627
G1 X105.779 Y134.808 E3.15079
G1 X105.56 Y134.657 E3.15964
G1 X105.001 Y134.255 E3.18254
G1 X104.653 Y133.99 E3.19709
G1 X104.433 Y133.815 E3.20644
G1 X103.902 Y133.375 E3.22937
G1 X103.386 Y132.917 E3.25232
G1 X102.867 Y132.426 E3.27608
G1 X102.398 Y131.951 E3.29828
G1 X102.099 Y131.633 E3.3128
G1 X101.898 Y131.41 E3.32279
G1 X101.47 Y130.914 E3.34458
G1 X101.192 Y130.576 E3.35913
G1 X101.012 Y130.349 E3.36877
G1 X100.592 Y129.79 E3.39202
G1 X100.199 Y129.23 E3.41478
G1 X99.956 Y128.864 E3.42939
G1 X99.804 Y128.626 E3.43878
G1 X99.448 Y128.038 E3.46165
G1 X99.109 Y127.434 E3.48468
G1 X98.786 Y126.812 E3.50799
G1 X98.485 Y126.181 E3.53125
G1 X98.21 Y125.552 E3.55408
G1 X98.045 Y125.146 E3.56865
G1 X97.938 Y124.867 E3.57859
G1 X97.712 Y124.233 E3.60098
G1 X97.501 Y123.578 E3.62387
G1 X97.378 Y123.159 E3.63839
G1 X97.3 Y122.875 E3.64819
G1 X97.143 Y122.242 E3.66988
G1 X97.047 Y121.813 E3.6845
G1 X96.99 Y121.533 E3.694
G1 X96.866 Y120.84 E3.71742
G1 X96.769 Y120.171 E3.7399
G1 X96.688 Y119.453 E3.76394
G1 X96.636 Y118.768 E3.78678
G1 X96.605 Y118.063 E3.81026
G1 X96.598 Y117.375 E3.83314
G1 X96.614 Y116.672 E3.85653
G1 X96.652 Y115.985 E3.87941
G1 X96.688 Y115.548 E3.894
G1 X96.717 Y115.262 E3.90356
G1 X96.801 Y114.59 E3.92608
G1 X96.909 Y113.902 E3.94925
G1 X97.044 Y113.2 E3.97302
G1 X97.195 Y112.537 E3.99564
G1 X97.376 Y111.846 E4.0194
G1 X97.576 Y111.178 E4.04259
G1 X97.795 Y110.528 E4.0654
G1 X98.04 Y109.87 E4.08875
G1 X98.31 Y109.214 E4.11235
G1 X98.592 Y108.589 E4.13515
G1 X98.901 Y107.959 E4.15849
G1 X99.104 Y107.573 E4.173
G1 X99.234 Y107.338 E4.18193
G1 X99.584 Y106.733 E4.20518
G1 X99.949 Y106.148 E4.22811
G1 X100.341 Y105.562 E4.25156
G1 X100.745 Y105.001 E4.27455
G1 X101.01 Y104.653 E4.2891
G1 X101.176 Y104.444 E4.29798
G1 X101.625 Y103.901 E4.32142
G1 X102.082 Y103.385 E4.34434
G1 X102.38 Y103.066 E4.35886
G1 X102.573 Y102.867 E4.36808
G0 F6000 X102.856 Y103.15
G1 F1200 X103.322 Y102.69 E4.38986
G1 X103.64 Y102.391 E4.40438
G1 X103.852 Y102.199 E4.41389
G1 X104.339 Y101.779 E4.43528
G1 X104.677 Y101.501 E4.44984
G1 X104.903 Y101.322 E4.45942
G1 X105.44 Y100.919 E4.48175
G1 X105.99 Y100.533 E4.5041
G1 X106.356 Y100.29 E4.51872
G1 X106.585 Y100.144 E4.52775
G1 X107.153 Y99.8 E4.54983
G1 X107.752 Y99.463 E4.57269
G1 X108.362 Y99.146 E4.59556
G1 X108.996 Y98.844 E4.61892
G1 X109.605 Y98.579 E4.64101
G1 X110.255 Y98.32 E4.66428
G1 X110.883 Y98.095 E4.68647
G1 X111.538 Y97.883 E4.70936
G1 X112.211 Y97.691 E4.73264
G1 X112.842 Y97.533 E4.75428
G1 X113.27 Y97.437 E4.76886
G1 X113.556 Y97.379 E4.77857
G1 X114.222 Y97.261 E4.80107
G1 X114.874 Y97.167 E4.82298
G1 X115.58 Y97.087 E4.84661
G1 X116.253 Y97.035 E4.86906
G1 X116.944 Y97.005 E4.89206
G1 X117.618 Y96.998 E4.91448
G1 X118.056 Y97.005 E4.92905
G1 X118.98 Y97.051 E4.95982
G1 X119.418 Y97.087 E4.97444
G1 X119.692 Y97.115 E4.9836
G1 X120.345 Y97.196 E5.00549
G1 X121.029 Y97.303 E5.02851
G1 X121.713 Y97.435 E5.05168
G1 X122.376 Y97.586 E5.0743
G1 X123.032 Y97.758 E5.09685
G1 X123.702 Y97.958 E5.12011
G1 X124.329 Y98.169 E5.14211
G1 X124.981 Y98.411 E5.16524
G1 X125.617 Y98.672 E5.18811
G1 X126.244 Y98.955 E5.21099
G1 X126.861 Y99.259 E5.23387
G1 X127.465 Y99.582 E5.25665
G1 X128.046 Y99.918 E5.27897
G1 X128.636 Y100.285 E5.30208
G1 X129.208 Y100.669 E5.325
G1 X129.754 Y101.062 E5.34737
G1 X130.314 Y101.494 E5.37089
G1 X130.834 Y101.926 E5.39338
G1 X131.341 Y102.375 E5.4159
G1 X131.85 Y102.857 E5.43922
G1 X132.309 Y103.321 E5.46093
G1 X132.609 Y103.64 E5.47549
G1 X132.801 Y103.853 E5.48503
G1 X133.221 Y104.34 E5.50642
G1 X133.499 Y104.678 E5.52098
G1 X133.671 Y104.896 E5.53021
G1 X134.079 Y105.437 E5.55275
G1 X134.468 Y105.991 E5.57526
G1 X134.711 Y106.357 E5.58988
G1 X134.855 Y106.583 E5.59879
G1 X135.207 Y107.165 E5.62141
G1 X135.533 Y107.745 E5.64354
G1 X135.851 Y108.355 E5.66642
G1 X136.042 Y108.748 E5.68095
G1 X136.152 Y108.987 E5.6897
G1 X136.419 Y109.599 E5.71191
G1 X136.686 Y110.269 E5.7359
G1 X136.907 Y110.887 E5.75773
G1 X137.117 Y111.538 E5.78048
G1 X137.24 Y111.958 E5.79504
G1 X137.312 Y112.223 E5.80417
G1 X137.466 Y112.845 E5.82548
G1 X137.616 Y113.536 E5.849
G1 X137.739 Y114.221 E5.87215
G1 X137.834 Y114.875 E5.89413
G1 X137.886 Y115.31 E5.9087
G1 X137.913 Y115.58 E5.91773
G1 X137.965 Y116.252 E5.94014
G1 X137.995 Y116.943 E5.96315
G1 X138.002 Y117.619 E5.98563
G1 X137.987 Y118.308 E6.00855
G1 X137.949 Y118.983 E6.03104
G1 X137.886 Y119.69 E6.05465
G1 X137.803 Y120.351 E6.07681
G1 X137.697 Y121.025 E6.0995
G1 X137.565 Y121.713 E6.1228
G1 X137.417 Y122.365 E6.14504
G1 X137.24 Y123.042 E6.16831
G1 X137.044 Y123.697 E6.19105
G1 X136.83 Y124.335 E6.21343
G1 X136.589 Y124.981 E6.23637
G1 X136.324 Y125.625 E6.25953
G1 X136.047 Y126.238 E6.2819
G1 X135.744 Y126.854 E6.30473
G1 X135.419 Y127.464 E6.32772
G1 X135.076 Y128.057 E6.35051
G1 X134.718 Y128.631 E6.37301
G1 X134.333 Y129.206 E6.39602
G1 X133.936 Y129.756 E6.41858
G1 X133.514 Y130.303 E6.44156
G1 X133.074 Y130.835 E6.46452
G1 X132.626 Y131.342 E6.48703
G1 X132.328 Y131.661 E6.50155
G1 X132.144 Y131.85 E6.51032
G1 X131.678 Y132.31 E6.5321
G1 X131.36 Y132.609 E6.54662
G1 X131.148 Y132.801 E6.55613
G1 X130.661 Y133.221 E6.57752
G1 X130.323 Y133.499 E6.59207
G1 X130.097 Y133.678 E6.60166
G1 X129.56 Y134.081 E6.62399
G1 X129.01 Y134.467 E6.64634
G1 X128.644 Y134.71 E6.66095
G1 X128.415 Y134.856 E6.66999
G1 X127.847 Y135.2 E6.69207
G1 X127.248 Y135.537 E6.71493
G1 X126.634 Y135.856 E6.73795
G1 X126.127 Y136.098 E6.75663
G1 X125.646 Y136.314 E6.77417
G1 X125.395 Y136.421 E6.78324
G1 X124.745 Y136.68 E6.80652
G1 X124.117 Y136.905 E6.8287
G1 X123.462 Y137.117 E6.8516
G1 X122.789 Y137.309 E6.87488
G1 X122.158 Y137.467 E6.89651
G1 X121.73 Y137.563 E6.9111
G1 X121.444 Y137.621 E6.92081
G1 X120.778 Y137.739 E6.94331
G1 X120.126 Y137.833 E6.96522
G1 X119.42 Y137.913 E6.98885
G1 X118.747 Y137.965 E7.0113
G1 X118.056 Y137.995 E7.0343
G1 X117.382 Y138.002 E7.05672
G1 X116.689 Y137.987 E7.07978
G1 X116.02 Y137.949 E7.10206
G1 X115.582 Y137.913 E7.11668
G1 X115.308 Y137.885 E7.12584
G1 X114.655 Y137.804 E7.14773
G1 X113.971 Y137.697 E7.17075
G1 X113.287 Y137.565 E7.19392
G1 X112.624 Y137.414 E7.21654
G1 X111.968 Y137.242 E7.23909
G1 X111.298 Y137.042 E7.26235
G1 X110.671 Y136.831 E7.28435
G1 X110.019 Y136.589 E7.30748
G1 X109.383 Y136.328 E7.33035
G1 X108.756 Y136.045 E7.35323
G1 X108.139 Y135.741 E7.37611
G1 X107.535 Y135.418 E7.39889
G1 X106.954 Y135.082 E7.42121
G1 X106.364 Y134.715 E7.44432
G1 X105.792 Y134.331 E7.46724
G1 X105.244 Y133.936 E7.4897
G1 X104.687 Y133.506 E7.51311
G1 X104.166 Y133.074 E7.53562
G1 X103.659 Y132.625 E7.55814
G1 X103.15 Y132.143 E7.58146
G1 X102.69 Y131.677 E7.60324
G1 X102.391 Y131.359 E7.61776
G1 X102.199 Y131.147 E7.62727
G1 X101.779 Y130.66 E7.64866
G1 X101.501 Y130.322 E7.66321
G1 X101.331 Y130.107 E7.67233
G1 X100.918 Y129.559 E7.69515
G1 X100.532 Y129.009 E7.7175
G1 X100.289 Y128.643 E7.73211
G1 X100.145 Y128.417 E7.74103
G1 X99.796 Y127.84 E7.76346
G1 X99.463 Y127.248 E7.78605
G1 X99.146 Y126.638 E7.80891
G1 X98.85 Y126.018 E7.83176
G1 X98.581 Y125.401 E7.85415
G1 X98.314 Y124.731 E7.87814
G1 X98.092 Y124.108 E7.90013
G1 X97.885 Y123.465 E7.9226
G1 X97.688 Y122.777 E7.9464
G1 X97.534 Y122.155 E7.96772
G1 X97.383 Y121.46 E7.99137
G1 X97.261 Y120.78 E8.01435
G1 X97.166 Y120.123 E8.03643
G1 X97.087 Y119.42 E8.05996
G1 X97.035 Y118.748 E8.08238
G1 X97.005 Y118.057 E8.10538
G1 X96.998 Y117.381 E8.12787
G1 X97.013 Y116.692 E8.15079
G1 X97.051 Y116.017 E8.17327
G1 X97.114 Y115.31 E8.19688
G1 X97.197 Y114.649 E8.21904
G1 X97.303 Y113.975 E8.24173
G1 X97.435 Y113.287 E8.26503
G1 X97.583 Y112.635 E8.28727
G1 X97.76 Y111.958 E8.31054
G1 X97.956 Y111.303 E8.33328
G1 X98.17 Y110.665 E8.35567
G1 X98.411 Y110.019 E8.3786
G1 X98.675 Y109.376 E8.40172
G1 X98.952 Y108.764 E8.42406
G1 X99.256 Y108.146 E8.44697
G1 X99.581 Y107.536 E8.46996
G1 X99.924 Y106.943 E8.49274
G1 X100.282 Y106.369 E8.51524
G1 X100.667 Y105.794 E8.53826
G1 X101.064 Y105.244 E8.56082
G1 X101.486 Y104.697 E8.58379
G1 X101.926 Y104.165 E8.60676
G1 X102.374 Y103.658 E8.62926
G1 X102.672 Y103.339 E8.64378
G1 X102.856 Y103.15 E8.65255
G0 F6000 X103.138 Y103.433
G1 F1200 X103.596 Y102.981 E8.67395
G1 X103.914 Y102.682 E8.68847
G1 X104.114 Y102.501 E8.69744
G1 X104.593 Y102.088 E8.71848
G1 X104.931 Y101.81 E8.73304
G1 X105.145 Y101.641 E8.74211
G1 X105.672 Y101.245 E8.76403
G1 X106.211 Y100.866 E8.78595
G1 X106.577 Y100.623 E8.80056
G1 X106.794 Y100.485 E8.80911
G1 X107.352 Y100.147 E8.83081
G1 X107.939 Y99.817 E8.85321
G1 X108.536 Y99.506 E8.8756
G1 X109.157 Y99.21 E8.89848
G1 X109.755 Y98.95 E8.92017
G1 X110.392 Y98.696 E8.94297
G1 X111.009 Y98.475 E8.96477
G1 X111.651 Y98.267 E8.98722
G1 X112.31 Y98.079 E9.01001
G1 X112.93 Y97.924 E9.03127
G1 X113.358 Y97.828 E9.04586
G1 X113.628 Y97.773 E9.05502
G1 X114.282 Y97.657 E9.07711
G1 X114.921 Y97.564 E9.09859
G1 X115.613 Y97.486 E9.12175
G1 X116.273 Y97.435 E9.14377
G1 X116.95 Y97.405 E9.16631
G1 X117.612 Y97.398 E9.18833
G1 X118.05 Y97.405 E9.2029
G1 X118.947 Y97.45 E9.23277
G1 X119.645 Y97.512 E9.25608
G1 X120.285 Y97.592 E9.27753
G1 X120.956 Y97.697 E9.30012
G1 X121.627 Y97.825 E9.32284
G1 X122.277 Y97.973 E9.34501
G1 X122.92 Y98.142 E9.36712
G1 X123.576 Y98.338 E9.38989
G1 X124.192 Y98.544 E9.4115
G1 X124.604 Y98.694 E9.42608
G1 X124.831 Y98.782 E9.43418
G1 X125.455 Y99.038 E9.45661
G1 X126.07 Y99.315 E9.47904
G1 X126.674 Y99.613 E9.50145
G1 X127.267 Y99.929 E9.52379
G1 X127.837 Y100.259 E9.5457
G1 X128.415 Y100.618 E9.56833
G1 X128.976 Y100.994 E9.59079
G1 X129.511 Y101.38 E9.61274
G1 X129.858 Y101.644 E9.62724
G1 X130.06 Y101.804 E9.63581
G1 X130.571 Y102.227 E9.65787
G1 X131.068 Y102.667 E9.67995
G1 X131.567 Y103.139 E9.70279
G1 X132.017 Y103.595 E9.7241
G1 X132.317 Y103.914 E9.73867
G1 X132.499 Y104.115 E9.74769
G1 X132.912 Y104.594 E9.76872
G1 X133.353 Y105.138 E9.79201
G1 X133.753 Y105.669 E9.81413
G1 X134.135 Y106.212 E9.83621
G1 X134.378 Y106.578 E9.85082
G1 X134.514 Y106.792 E9.85925
G1 X134.86 Y107.363 E9.88146
G1 X135.179 Y107.932 E9.90316
G1 X135.491 Y108.53 E9.92559
G1 X135.787 Y109.149 E9.94841
G1 X136.049 Y109.75 E9.97022
G1 X136.31 Y110.405 E9.99367
G1 X136.527 Y111.012 E10.01511
G1 X136.733 Y111.651 E10.03744
G1 X136.856 Y112.071 E10.05199
G1 X136.924 Y112.321 E10.06061
G1 X137.076 Y112.932 E10.08155
G1 X137.223 Y113.61 E10.10463
G1 X137.343 Y114.281 E10.1273
