;FLAVOR:Marlin
;TIME:15269
;Filament used: 3.32165m
;Layer height: 0.06
;MINX:75.1
;MINY:54.4
;MINZ:0.12
;MAXX:159.9
;MAXY:180.583
;MAXZ:5.16
;Generated with Cura_SteamEngine 4.8.0
M82 ;absolute extrusion mode
; Ender 3 Custom Start G-code
M117 Getting the bed up to temp!
M140 S60 ; Set Heat Bed temperature
M190 S60 ; Wait for Heat Bed temperature
M117 Pre-heating the extruder!
M104 S160; start warming extruder to 160
G28 ; Home all axes
M117 Auto bed-level GO!
G29 ; Auto bed-level (BL-Touch)
G92 E0 ; Reset Extruder
M117 Getting the extruder up to temp!
M104 S210 ; Set Extruder temperature
M109 S210 ; Wait for Extruder temperature
G1 Z1.0 F3000 ; move z up little to prevent scratching of surface
G1 X0.1 Y20 Z0.3 F5000.0 ; move to start-line position
M117 LET THE PURGE BEGIN!
G1 X0.1 Y200.0 Z0.3 F1500.0 E15 ; draw 1st line
G1 X0.4 Y200.0 Z0.3 F5000.0 ; move to side a little
G1 X0.4 Y20 Z0.3 F1500.0 E30 ; draw 2nd line
G92 E0 ; reset extruder
G1 Z1.0 F3000 ; move z up little to prevent scratching of surface
M117 Autobots! Roll Out!
; End of custom start GCode
G92 E0
G92 E0
G1 F2700 E-5
;LAYER_COUNT:85
;LAYER:0
M107
G0 F6000 X77.738 Y59.258 Z0.12
;TYPE:SKIRT
G1 F2700 E0
G1 F1200 X78.332 Y58.532 E0.01872
G1 X78.986 Y57.86 E0.03743
G1 X79.726 Y57.221 E0.05694
G1 X80.01 Y56.997 E0.06416
G1 X80.77 Y56.448 E0.08287
G1 X81.575 Y55.966 E0.1016
G1 X82.452 Y55.539 E0.12106
G1 X82.847 Y55.368 E0.12965
G1 X83.723 Y55.033 E0.14837
G1 X84.624 Y54.773 E0.16708
G1 X85.573 Y54.586 E0.18638
G1 X85.798 Y54.552 E0.19093
G1 X86.193 Y54.5 E0.19888
G1 X86.368 Y54.48 E0.20239
G1 X87.291 Y54.414 E0.22086
G1 X87.727 Y54.403 E0.22956
G1 X88.027 Y54.4 E0.23555
G1 X140.697 Y54.4 E1.28664
G1 X141.553 Y54.411 E1.30372
G1 X142.373 Y54.454 E1.32011
G1 X142.485 Y54.464 E1.32235
G1 X143.154 Y54.544 E1.3358
G1 X143.405 Y54.582 E1.34086
G1 X144.325 Y54.762 E1.35957
G1 X145.227 Y55.019 E1.37829
G1 X145.777 Y55.218 E1.38996
G1 X146.149 Y55.364 E1.39793
G1 X147.006 Y55.744 E1.41664
G1 X147.829 Y56.195 E1.43537
G1 X148.71 Y56.789 E1.45657
G1 X148.994 Y57.001 E1.46365
G1 X149.574 Y57.465 E1.47847
G1 X150.262 Y58.103 E1.49719
G1 X151.048 Y58.99 E1.52084
G1 X151.274 Y59.274 E1.52809
G1 X151.826 Y60.032 E1.5468
G1 X152.312 Y60.834 E1.56551
G1 X152.767 Y61.765 E1.58619
G1 X152.937 Y62.159 E1.59476
G1 X153.271 Y63.035 E1.61347
G1 X153.53 Y63.937 E1.63219
G1 X153.714 Y64.873 E1.65123
G1 X153.748 Y65.098 E1.65577
G1 X153.81 Y65.577 E1.66541
G1 X153.885 Y66.553 E1.68494
G1 X153.897 Y66.995 E1.69377
G1 X153.9 Y67.292 E1.69969
G1 X153.9 Y122.73 E2.80602
G1 X153.937 Y125.338 E2.85807
G1 X154.044 Y127.859 E2.90843
G1 X154.221 Y130.354 E2.95834
G1 X154.469 Y132.854 E3.00848
G1 X154.788 Y135.347 E3.05863
G1 X155.179 Y137.84 E3.10899
G1 X155.642 Y140.33 E3.15953
G1 X156.172 Y142.794 E3.20983
G1 X156.761 Y145.196 E3.25918
G1 X157.437 Y147.652 E3.31002
G1 X158.188 Y150.104 E3.3612
G1 X158.374 Y150.665 E3.37299
G1 X158.778 Y151.905 E3.39902
G1 X158.964 Y152.541 E3.41224
G1 X159.184 Y153.386 E3.42966
G1 X159.265 Y153.719 E3.4365
G1 X159.348 Y154.084 E3.44397
G1 X159.481 Y154.767 E3.45786
G1 X159.627 Y155.67 E3.47611
G1 X159.675 Y156 E3.48277
G1 X159.718 Y156.329 E3.48939
G1 X159.787 Y157.028 E3.50341
G1 X159.85 Y157.979 E3.52243
G1 X159.868 Y158.352 E3.52988
G1 X159.892 Y159.097 E3.54475
G1 X159.899 Y159.49 E3.5526
G1 X159.9 Y160.595 E3.57465
G1 X159.888 Y161.496 E3.59263
G1 X159.838 Y162.386 E3.61042
G1 X159.81 Y162.677 E3.61625
G1 X159.774 Y163.003 E3.6228
G1 X159.741 Y163.264 E3.62805
G1 X159.584 Y164.188 E3.64675
G1 X159.24 Y165.432 E3.67251
G1 X159.133 Y165.746 E3.67913
G1 X159.022 Y166.055 E3.68568
G1 X158.937 Y166.282 E3.69052
G1 X158.571 Y167.146 E3.70925
G1 X157.996 Y168.204 E3.73328
G1 X157.833 Y168.468 E3.73947
G1 X157.633 Y168.78 E3.74686
G1 X157.5 Y168.98 E3.75166
G1 X156.985 Y169.691 E3.76918
G1 X156.411 Y170.418 E3.78766
G1 X151.868 Y176.007 E3.93139
G1 X151.334 Y176.646 E3.94801
G1 X150.702 Y177.339 E3.96673
G1 X150.013 Y177.976 E3.98546
G1 X149.273 Y178.551 E4.00416
G1 X148.486 Y179.061 E4.02287
G1 X147.658 Y179.503 E4.0416
G1 X146.796 Y179.872 E4.06031
G1 X145.906 Y180.166 E4.07902
G1 X144.993 Y180.384 E4.09775
G1 X144.066 Y180.523 E4.11646
G1 X143.13 Y180.583 E4.13517
G1 X142.192 Y180.562 E4.1539
G1 X141.26 Y180.462 E4.1726
G1 X140.441 Y180.307 E4.18924
G1 X139.233 Y180.03 E4.21397
G1 X138.757 Y179.913 E4.22375
G1 X136.285 Y179.375 E4.27424
G1 X133.796 Y178.905 E4.32479
G1 X131.334 Y178.516 E4.37453
G1 X128.838 Y178.191 E4.42476
G1 X126.341 Y177.938 E4.47484
G1 X123.809 Y177.754 E4.52551
G1 X121.323 Y177.643 E4.57517
G1 X118.502 Y177.6 E4.63147
G1 X86.634 Y177.599 E5.26743
G1 X85.936 Y177.588 E5.28136
G1 X84.999 Y177.533 E5.30009
G1 X84.071 Y177.399 E5.3188
G1 X83.158 Y177.186 E5.33751
G1 X82.266 Y176.896 E5.35623
G1 X81.402 Y176.531 E5.37495
G1 X80.572 Y176.094 E5.39367
G1 X79.783 Y175.588 E5.41237
G1 X79.039 Y175.016 E5.4311
G1 X78.347 Y174.383 E5.44982
G1 X77.711 Y173.694 E5.46853
G1 X77.136 Y172.952 E5.48726
G1 X76.627 Y172.165 E5.50597
G1 X76.186 Y171.337 E5.52469
G1 X75.818 Y170.475 E5.54339
G1 X75.525 Y169.584 E5.56211
G1 X75.308 Y168.671 E5.58084
G1 X75.17 Y167.744 E5.59954
G1 X75.113 Y166.888 E5.61666
G1 X75.104 Y166.557 E5.62327
G1 X75.1 Y166.258 E5.62923
G1 X75.101 Y67.447 E7.60111
G1 X75.111 Y66.743 E7.61517
G1 X75.158 Y65.875 E7.63251
G1 X75.168 Y65.768 E7.63466
G1 X75.24 Y65.169 E7.6467
G1 X75.277 Y64.921 E7.6517
G1 X75.455 Y64 E7.67042
G1 X75.711 Y63.098 E7.68913
G1 X75.919 Y62.52 E7.70139
G1 X76.066 Y62.146 E7.70941
G1 X76.446 Y61.289 E7.72812
G1 X76.898 Y60.467 E7.74684
G1 X77.504 Y59.57 E7.76844
G1 X77.738 Y59.258 E7.77622
G0 F6000 X78.058 Y59.498
G1 F1200 X78.642 Y58.786 E7.7946
G1 X79.285 Y58.128 E7.81296
G1 X79.974 Y57.535 E7.8311
G1 X80.258 Y57.311 E7.83832
G1 X81.005 Y56.773 E7.85669
G1 X81.795 Y56.302 E7.87505
G1 X82.611 Y55.906 E7.89315
G1 X83.006 Y55.735 E7.90174
G1 X83.866 Y55.407 E7.9201
G1 X84.751 Y55.154 E7.93847
G1 X85.633 Y54.982 E7.95641
G1 X85.858 Y54.948 E7.96095
G1 X86.238 Y54.898 E7.9686
G1 X86.413 Y54.878 E7.97211
G1 X87.303 Y54.814 E7.98992
G1 X87.731 Y54.803 E7.99846
G1 X88.027 Y54.8 E8.00437
G1 X140.697 Y54.8 E9.05546
G1 X141.547 Y54.811 E9.07242
G1 X142.338 Y54.852 E9.08823
G1 X142.45 Y54.862 E9.09047
G1 X143.094 Y54.939 E9.10341
G1 X143.345 Y54.977 E9.10848
G1 X144.248 Y55.155 E9.12685
G1 X145.133 Y55.41 E9.14523
G1 X145.631 Y55.591 E9.1558
G1 X146.003 Y55.737 E9.16377
G1 X146.844 Y56.11 E9.18213
G1 X147.65 Y56.555 E9.20051
G1 X148.471 Y57.11 E9.22028
G1 X148.755 Y57.322 E9.22736
G1 X149.315 Y57.77 E9.24167
G1 X149.989 Y58.397 E9.26004
G1 X150.735 Y59.239 E9.28249
G1 X150.961 Y59.523 E9.28973
G1 X151.503 Y60.267 E9.3081
G1 X151.978 Y61.056 E9.32648
G1 X152.4 Y61.924 E9.34574
G1 X152.57 Y62.318 E9.3543
G1 X152.897 Y63.178 E9.37266
G1 X153.149 Y64.064 E9.39105
G1 X153.318 Y64.933 E9.40871
G1 X153.352 Y65.158 E9.41325
G1 X153.394 Y65.468 E9.4195
G1 X153.413 Y65.625 E9.42265
G1 X153.485 Y66.565 E9.44147
G1 X153.497 Y67 E9.45015
G1 X153.5 Y67.292 E9.45598
G1 X153.5 Y122.736 E10.56242
G1 X153.537 Y125.361 E10.61481
G1 X153.644 Y127.869 E10.66491
G1 X153.822 Y130.389 E10.71532
G1 X154.071 Y132.904 E10.76576
G1 X154.39 Y135.393 E10.81583
G1 X154.791 Y137.945 E10.86739
G1 X155.243 Y140.376 E10.91673
G1 X155.779 Y142.868 E10.9676
G1 X156.381 Y145.325 E11.01808
G1 X157.054 Y147.77 E11.06869
G1 X157.792 Y150.182 E11.11903
G1 X157.994 Y150.789 E11.13179
G1 X158.398 Y152.029 E11.15782
G1 X158.577 Y152.642 E11.17056
G1 X158.797 Y153.487 E11.18799
G1 X158.875 Y153.808 E11.19458
G1 X158.958 Y154.173 E11.20205
G1 X159.086 Y154.831 E11.21543
G1 X159.232 Y155.734 E11.23368
G1 X159.279 Y156.052 E11.2401
G1 X159.322 Y156.381 E11.24672
G1 X159.388 Y157.054 E11.26021
G1 X159.451 Y158.005 E11.27923
G1 X159.469 Y158.365 E11.28643
G1 X159.493 Y159.11 E11.3013
G1 X159.5 Y159.62 E11.31148
G1 X159.499 Y160.753 E11.33409
G1 X159.488 Y161.49 E11.3488
G1 X159.44 Y162.347 E11.36593
G1 X159.412 Y162.638 E11.37176
G1 X159.377 Y162.953 E11.37809
G1 X159.344 Y163.214 E11.38334
G1 X159.189 Y164.121 E11.4017
G1 X158.861 Y165.303 E11.42618
G1 X158.754 Y165.617 E11.4328
G1 X158.648 Y165.915 E11.43911
G1 X158.563 Y166.142 E11.44395
G1 X158.203 Y166.989 E11.46231
G1 X157.655 Y167.994 E11.48516
G1 X157.492 Y168.258 E11.49135
G1 X157.3 Y168.559 E11.49847
G1 X157.167 Y168.759 E11.50327
G1 X156.671 Y169.444 E11.52015
G1 X156.206 Y170.035 E11.53515
G1 X151.46 Y175.874 E11.68531
G1 X151.028 Y176.39 E11.69874
G1 X150.407 Y177.069 E11.7171
G1 X149.729 Y177.692 E11.73548
G1 X149 Y178.254 E11.75385
G1 X148.224 Y178.751 E11.77224
G1 X147.409 Y179.178 E11.7906
G1 X146.559 Y179.533 E11.80898
G1 X145.682 Y179.813 E11.82735
G1 X144.784 Y180.016 E11.84573
G1 X143.872 Y180.14 E11.86409
G1 X142.953 Y180.185 E11.88246
G1 X142.033 Y180.149 E11.90083
G1 X141.119 Y180.034 E11.91921
G1 X140.531 Y179.917 E11.93118
G1 X139.323 Y179.64 E11.95591
G1 X138.842 Y179.522 E11.96579
G1 X136.366 Y178.983 E12.01636
G1 X133.872 Y178.513 E12.06701
G1 X131.376 Y178.118 E12.11744
G1 X128.893 Y177.795 E12.16741
G1 X126.374 Y177.54 E12.21793
G1 X123.82 Y177.353 E12.26904
G1 X121.348 Y177.243 E12.31842
G1 X118.508 Y177.2 E12.3751
G1 X86.64 Y177.199 E13.01106
G1 X85.942 Y177.188 E13.02499
G1 X85.023 Y177.133 E13.04336
G1 X84.112 Y176.999 E13.06174
G1 X83.216 Y176.787 E13.08011
G1 X82.342 Y176.497 E13.09849
G1 X81.497 Y176.133 E13.11685
G1 X80.686 Y175.697 E13.13523
G1 X79.916 Y175.192 E13.1536
G1 X79.193 Y174.622 E13.17198
G1 X78.522 Y173.992 E13.19034
G1 X77.908 Y173.305 E13.20873
G1 X77.357 Y172.568 E13.22709
G1 X76.871 Y171.786 E13.24547
G1 X76.455 Y170.965 E13.26383
G1 X76.111 Y170.111 E13.28221
G1 X75.843 Y169.23 E13.30058
G1 X75.653 Y168.329 E13.31896
G1 X75.541 Y167.416 E13.33732
G1 X75.513 Y166.877 E13.34809
G1 X75.504 Y166.546 E13.3547
G1 X75.5 Y166.258 E13.36044
G1 X75.501 Y67.452 E15.33222
G1 X75.511 Y66.748 E15.34627
G1 X75.556 Y65.913 E15.36296
G1 X75.566 Y65.806 E15.36511
G1 X75.636 Y65.228 E15.37673
G1 X75.673 Y64.98 E15.38173
G1 X75.848 Y64.076 E15.4001
G1 X76.101 Y63.191 E15.41847
G1 X76.292 Y62.666 E15.42962
G1 X76.439 Y62.292 E15.43764
G1 X76.812 Y61.451 E15.456
G1 X77.258 Y60.645 E15.47438
G1 X77.824 Y59.81 E15.49451
G1 X78.058 Y59.498 E15.5023
G0 F6000 X78.378 Y59.738
G1 F1200 X78.951 Y59.04 E15.52032
G1 X79.584 Y58.396 E15.53834
G1 X80.221 Y57.849 E15.5551
G1 X80.505 Y57.625 E15.56231
G1 X81.238 Y57.098 E15.58033
G1 X82.015 Y56.638 E15.59835
G1 X82.77 Y56.273 E15.61508
G1 X83.165 Y56.102 E15.62367
G1 X84.009 Y55.781 E15.64169
G1 X84.878 Y55.535 E15.65972
G1 X85.693 Y55.377 E15.67628
G1 X85.918 Y55.343 E15.68083
G1 X86.284 Y55.295 E15.68819
G1 X86.459 Y55.275 E15.69171
G1 X87.315 Y55.213 E15.70883
G1 X87.736 Y55.203 E15.71724
G1 X88.027 Y55.2 E15.72305
G1 X140.697 Y55.2 E16.77413
G1 X141.541 Y55.211 E16.79098
G1 X142.302 Y55.25 E16.80618
G1 X142.414 Y55.26 E16.80843
G1 X143.034 Y55.335 E16.82089
G1 X143.285 Y55.373 E16.82596
G1 X144.171 Y55.548 E16.84398
G1 X145.038 Y55.8 E16.862
G1 X145.484 Y55.963 E16.87147
G1 X145.856 Y56.109 E16.87945
G1 X146.682 Y56.476 E16.89749
G1 X147.471 Y56.914 E16.91549
G1 X148.232 Y57.43 E16.93384
G1 X148.516 Y57.642 E16.94092
G1 X149.055 Y58.074 E16.9547
G1 X149.716 Y58.69 E16.97273
G1 X150.422 Y59.488 E16.99399
G1 X150.648 Y59.772 E17.00124
G1 X151.179 Y60.503 E17.01927
G1 X151.643 Y61.277 E17.03728
G1 X152.032 Y62.082 E17.05512
G1 X152.202 Y62.476 E17.06368
G1 X152.523 Y63.32 E17.0817
G1 X152.768 Y64.19 E17.09974
G1 X152.923 Y64.993 E17.11606
G1 X152.957 Y65.218 E17.1206
G1 X153.016 Y65.674 E17.12978
G1 X153.085 Y66.578 E17.14787
G1 X153.097 Y67.006 E17.15641
G1 X153.1 Y67.292 E17.16212
G1 X153.1 Y122.742 E18.26869
G1 X153.137 Y125.348 E18.3207
G1 X153.246 Y127.913 E18.37193
G1 X153.424 Y130.42 E18.42209
G1 X153.675 Y132.961 E18.47304
G1 X153.996 Y135.469 E18.5235
G1 X154.39 Y137.974 E18.5741
G1 X154.852 Y140.461 E18.62458
G1 X155.393 Y142.975 E18.6759
G1 X155.992 Y145.421 E18.72616
G1 X156.665 Y147.865 E18.77675
G1 X157.418 Y150.325 E18.82809
G1 X157.613 Y150.913 E18.84045
G1 X158.017 Y152.153 E18.86647
G1 X158.19 Y152.743 E18.87874
G1 X158.41 Y153.588 E18.89617
G1 X158.485 Y153.896 E18.90249
G1 X158.568 Y154.261 E18.90996
G1 X158.691 Y154.895 E18.92285
G1 X158.837 Y155.798 E18.94111
G1 X158.882 Y156.104 E18.94728
G1 X158.925 Y156.433 E18.9539
G1 X158.989 Y157.081 E18.9669
G1 X159.052 Y158.032 E18.98591
G1 X159.069 Y158.378 E18.99283
G1 X159.093 Y159.123 E19.0077
G1 X159.1 Y159.62 E19.01762
G1 X159.099 Y160.747 E19.04011
G1 X159.088 Y161.484 E19.05482
G1 X159.042 Y162.309 E19.07131
G1 X159.014 Y162.6 E19.07715
G1 X158.98 Y162.902 E19.08321
G1 X158.947 Y163.163 E19.08846
G1 X158.795 Y164.054 E19.1065
G1 X158.483 Y165.174 E19.1297
G1 X158.376 Y165.488 E19.13632
G1 X158.273 Y165.775 E19.1424
G1 X158.188 Y166.002 E19.14724
G1 X157.834 Y166.833 E19.16527
G1 X157.315 Y167.784 E19.18689
G1 X157.152 Y168.048 E19.19308
G1 X156.966 Y168.337 E19.19994
G1 X156.833 Y168.537 E19.20473
G1 X156.356 Y169.196 E19.22097
G1 X155.79 Y169.914 E19.23921
G1 X151.153 Y175.617 E19.38589
G1 X150.721 Y176.133 E19.39932
G1 X150.111 Y176.799 E19.41735
G1 X149.445 Y177.408 E19.43536
G1 X148.727 Y177.957 E19.45339
G1 X147.964 Y178.439 E19.4714
G1 X147.161 Y178.852 E19.48942
G1 X146.324 Y179.193 E19.50746
G1 X145.461 Y179.458 E19.52547
G1 X144.578 Y179.646 E19.54349
G1 X143.681 Y179.755 E19.56152
G1 X142.778 Y179.784 E19.57955
G1 X141.877 Y179.734 E19.59756
G1 X140.62 Y179.527 E19.62298
G1 X139.412 Y179.25 E19.64772
G1 X138.919 Y179.129 E19.65785
G1 X136.453 Y178.593 E19.70821
G1 X133.938 Y178.118 E19.75928
G1 X131.454 Y177.725 E19.80947
G1 X128.918 Y177.395 E19.86051
G1 X126.407 Y177.141 E19.91087
G1 X123.867 Y176.956 E19.9617
G1 X121.337 Y176.843 E20.01223
G1 X118.515 Y176.8 E20.06856
G1 X86.646 Y176.799 E20.70454
G1 X85.948 Y176.788 E20.71847
G1 X85.047 Y176.734 E20.73648
G1 X84.154 Y176.6 E20.7545
G1 X83.276 Y176.388 E20.77253
G1 X82.42 Y176.099 E20.79056
G1 X81.594 Y175.735 E20.80857
G1 X80.802 Y175.3 E20.8266
G1 X80.053 Y174.796 E20.84462
G1 X79.35 Y174.228 E20.86265
G1 X78.701 Y173.601 E20.88066
G1 X78.11 Y172.918 E20.89869
G1 X77.581 Y172.186 E20.91671
G1 X77.12 Y171.409 E20.93474
G1 X76.729 Y170.595 E20.95276
G1 X76.411 Y169.75 E20.97078
G1 X76.17 Y168.88 E20.98879
G1 X76.006 Y167.992 E21.00681
G1 X75.913 Y166.866 E21.02936
G1 X75.904 Y166.535 E21.03597
G1 X75.9 Y166.258 E21.0415
G1 X75.901 Y67.458 E23.01316
G1 X75.911 Y66.754 E23.02721
G1 X75.954 Y65.95 E23.04328
G1 X75.964 Y65.843 E23.04542
G1 X76.032 Y65.287 E23.0566
G1 X76.069 Y65.039 E23.0616
G1 X76.241 Y64.152 E23.07963
G1 X76.492 Y63.285 E23.09765
G1 X76.664 Y62.813 E23.10767
G1 X76.811 Y62.439 E23.11569
G1 X77.178 Y61.614 E23.13371
G1 X77.617 Y60.824 E23.15175
G1 X78.144 Y60.05 E23.17043
G1 X78.378 Y59.738 E23.17822
G1 F2700 E18.17822
;MESH:change_compartment_orange.stl
G0 F6000 X138.188 Y69.268
G0 X136.58 Y70.223
G0 X138.495 Y71.109
;TYPE:WALL-INNER
G1 F2700 E23.17822
G1 F1200 X139.015 Y71.031 E23.18871
G1 X139.495 Y70.825 E23.19913
G1 X139.907 Y70.502 E23.20958
G1 X140.221 Y70.08 E23.22008
G1 X140.414 Y69.596 E23.23048
G1 X140.478 Y69.074 E23.24097
G1 X140.4 Y68.555 E23.25144
G1 X140.196 Y68.075 E23.26185
G1 X139.87 Y67.663 E23.27234
G1 X139.45 Y67.349 E23.2828
G1 X138.965 Y67.156 E23.29322
G1 X138.446 Y67.091 E23.30366
G1 X137.923 Y67.169 E23.31421
G1 X137.447 Y67.375 E23.32456
G1 X137.031 Y67.698 E23.33507
G1 X136.717 Y68.122 E23.3456
G1 X136.526 Y68.604 E23.35595
G1 X136.461 Y69.124 E23.3664
G1 X136.539 Y69.646 E23.37694
G1 X136.745 Y70.125 E23.38734
G1 X137.067 Y70.537 E23.39778
G1 X137.492 Y70.851 E23.40832
G1 X137.539 Y70.869 E23.40933
G1 X137.973 Y71.044 E23.41866
G1 X138.495 Y71.109 E23.42916
G0 F6000 X138.49 Y70.705
G1 F1200 X138.905 Y70.643 E23.43754
G1 X139.289 Y70.478 E23.44588
G1 X139.618 Y70.22 E23.45422
G1 X139.869 Y69.883 E23.46261
G1 X140.023 Y69.496 E23.47092
G1 X140.074 Y69.079 E23.4793
G1 X140.012 Y68.665 E23.48766
G1 X139.849 Y68.281 E23.49598
G1 X139.589 Y67.952 E23.50435
G1 X139.253 Y67.701 E23.51272
G1 X138.865 Y67.547 E23.52105
G1 X138.451 Y67.495 E23.52938
