;FLAVOR:Marlin
;TIME:15429
;Filament used: 3.34664m
;Layer height: 0.06
;MINX:75.367
;MINY:54.677
;MINZ:0.12
;MAXX:159.634
;MAXY:180.345
;MAXZ:13.26
;Generated with Cura_SteamEngine 4.8.0
M82 ;absolute extrusion mode
; Ender 3 Custom Start G-code
M117 Getting the bed up to temp!
M140 S60 ; Set Heat Bed temperature
M190 S60 ; Wait for Heat Bed temperature
M117 Pre-heating the extruder!
M104 S160; start warming extruder to 160
G28 ; Home all axes
M117 Auto bed-level GO!
G29 ; Auto bed-level (BL-Touch)
G92 E0 ; Reset Extruder
M117 Getting the extruder up to temp!
M104 S210 ; Set Extruder temperature
M109 S210 ; Wait for Extruder temperature
G1 Z1.0 F3000 ; move z up little to prevent scratching of surface
G1 X0.1 Y20 Z0.3 F5000.0 ; move to start-line position
M117 LET THE PURGE BEGIN!
G1 X0.1 Y200.0 Z0.3 F1500.0 E15 ; draw 1st line
G1 X0.4 Y200.0 Z0.3 F5000.0 ; move to side a little
G1 X0.4 Y20 Z0.3 F1500.0 E30 ; draw 2nd line
G92 E0 ; reset extruder
G1 Z1.0 F3000 ; move z up little to prevent scratching of surface
M117 Autobots! Roll Out!
; End of custom start GCode
G92 E0
G92 E0
G1 F2700 E-5
;LAYER_COUNT:220
;LAYER:0
M107
G0 F6000 X83.851 Y59.546 Z0.12
;TYPE:SKIRT
G1 F2700 E0
G1 F1200 X84.678 Y58.569 E0.02554
G1 X84.836 Y58.403 E0.03012
G1 X85.511 Y57.752 E0.04883
G1 X86.29 Y57.123 E0.06881
G1 X86.456 Y57.001 E0.07292
G1 X87.234 Y56.479 E0.09162
G1 X88.055 Y56.024 E0.11035
G1 X88.555 Y55.79 E0.12137
G1 X88.838 Y55.666 E0.12754
G1 X89.713 Y55.326 E0.14627
G1 X90.613 Y55.063 E0.16498
G1 X91.543 Y54.875 E0.18391
G1 X91.867 Y54.824 E0.19046
G1 X92.725 Y54.723 E0.2077
G1 X93.458 Y54.688 E0.22235
G1 X94.317 Y54.677 E0.23949
G1 X146.865 Y54.679 E1.28814
G1 X147.573 Y54.69 E1.30227
G1 X148.742 Y54.771 E1.32566
G1 X149.019 Y54.805 E1.33123
G1 X149.944 Y54.959 E1.34994
G1 X150.853 Y55.191 E1.36866
G1 X151.683 Y55.477 E1.38618
G1 X152.008 Y55.604 E1.39314
G1 X152.866 Y55.983 E1.41186
G1 X153.689 Y56.433 E1.43058
G1 X154.556 Y57.014 E1.45141
G1 X154.792 Y57.189 E1.45727
G1 X155.521 Y57.779 E1.47599
G1 X156.197 Y58.43 E1.49472
G1 X156.862 Y59.194 E1.51493
G1 X157.068 Y59.454 E1.52155
G1 X157.618 Y60.213 E1.54025
G1 X158.102 Y61.017 E1.55898
G1 X158.541 Y61.915 E1.57893
G1 X158.67 Y62.213 E1.58541
G1 X159.005 Y63.089 E1.60412
G1 X159.265 Y63.99 E1.62284
G1 X159.443 Y64.883 E1.64101
G1 X159.481 Y65.126 E1.64592
G1 X159.543 Y65.581 E1.65508
G1 X159.623 Y66.76 E1.67866
G1 X159.634 Y67.621 E1.69585
G1 X159.632 Y168.533 E3.70966
G1 X159.622 Y169.26 E3.72417
G1 X159.569 Y170.197 E3.74289
G1 X159.437 Y171.125 E3.7616
G1 X159.226 Y172.039 E3.78032
G1 X158.937 Y172.931 E3.79903
G1 X158.543 Y173.861 E3.81919
G1 X158.463 Y174.028 E3.82288
G1 X158.023 Y174.856 E3.84159
G1 X157.513 Y175.643 E3.86031
G1 X156.938 Y176.384 E3.87903
G1 X156.302 Y177.074 E3.89775
G1 X155.609 Y177.706 E3.91647
G1 X154.866 Y178.277 E3.93517
G1 X154.076 Y178.783 E3.95389
G1 X153.246 Y179.22 E3.97261
G1 X152.47 Y179.551 E3.98945
G1 X152.313 Y179.611 E3.9928
G1 X151.423 Y179.908 E4.01153
G1 X150.512 Y180.129 E4.03023
G1 X149.585 Y180.271 E4.04895
G1 X148.696 Y180.332 E4.06673
G1 X148.377 Y180.341 E4.0731
G1 X148.067 Y180.345 E4.07929
G1 X93.102 Y180.343 E5.17617
G1 X92.398 Y180.332 E5.19022
G1 X91.462 Y180.277 E5.20893
G1 X90.534 Y180.143 E5.22765
G1 X89.62 Y179.93 E5.24637
G1 X88.728 Y179.64 E5.26509
G1 X87.864 Y179.276 E5.2838
G1 X87.034 Y178.839 E5.30252
G1 X86.245 Y178.333 E5.32123
G1 X85.551 Y177.803 E5.33865
G1 X85.335 Y177.624 E5.34425
G1 X84.639 Y176.995 E5.36297
G1 X83.789 Y176.056 E5.38825
G1 X82.205 Y174.09 E5.43863
G1 X80.602 Y172.211 E5.48792
G1 X79.74 Y171.264 E5.51347
G1 X79.559 Y171.047 E5.51911
G1 X78.759 Y170.159 E5.54297
G1 X78.535 Y169.902 E5.54977
G1 X78.392 Y169.733 E5.55419
G1 X77.817 Y168.992 E5.5729
G1 X77.123 Y167.879 E5.59908
G1 X76.872 Y167.417 E5.60957
G1 X76.46 Y166.575 E5.62828
G1 X76.121 Y165.7 E5.64701
G1 X75.905 Y164.983 E5.66195
G1 X75.776 Y164.496 E5.672
G1 X75.574 Y163.58 E5.69072
G1 X75.445 Y162.567 E5.7111
G1 X75.413 Y162.172 E5.71901
G1 X75.378 Y161.454 E5.73335
G1 X75.367 Y160.742 E5.74756
G1 X75.367 Y160.13 E5.75978
G1 X75.401 Y158.275 E5.7968
G1 X75.416 Y157.876 E5.80477
G1 X75.428 Y157.66 E5.80909
G1 X75.482 Y157.021 E5.82189
G1 X75.591 Y156.067 E5.84105
G1 X75.64 Y155.696 E5.84852
G1 X75.725 Y155.125 E5.86004
G1 X75.831 Y154.525 E5.87219
G1 X75.865 Y154.36 E5.87556
G1 X75.928 Y154.074 E5.8814
G1 X76.045 Y153.574 E5.89165
G1 X76.114 Y153.296 E5.89736
G1 X76.266 Y152.715 E5.90935
G1 X76.452 Y152.081 E5.92253
G1 X76.96 Y150.527 E5.95516
G1 X77.704 Y148.139 E6.00508
G1 X78.385 Y145.712 E6.05538
G1 X79 Y143.254 E6.10594
G1 X79.55 Y140.766 E6.15679
G1 X80.011 Y138.338 E6.20611
G1 X80.419 Y135.821 E6.257
G1 X80.744 Y133.367 E6.3064
G1 X81.009 Y130.82 E6.3575
G1 X81.196 Y128.356 E6.40681
G1 X81.316 Y125.811 E6.45766
G1 X81.366 Y122.813 E6.51749
G1 X81.368 Y67.418 E7.62296
G1 X81.378 Y66.746 E7.63637
G1 X81.434 Y65.793 E7.65542
G1 X81.444 Y65.695 E7.65739
G1 X81.501 Y65.234 E7.66666
G1 X81.53 Y65.034 E7.67069
G1 X81.704 Y64.112 E7.68942
G1 X81.956 Y63.209 E7.70813
G1 X82.159 Y62.637 E7.72024
G1 X82.252 Y62.397 E7.72538
G1 X82.628 Y61.538 E7.74409
G1 X83.183 Y60.538 E7.76691
G1 X83.32 Y60.319 E7.77207
G1 X83.851 Y59.546 E7.79078
G0 F6000 X84.181 Y59.773
G1 F1200 X84.968 Y58.845 E7.81506
G1 X85.126 Y58.679 E7.81964
G1 X85.789 Y58.04 E7.83801
G1 X86.527 Y57.446 E7.85692
G1 X86.693 Y57.324 E7.86103
G1 X87.457 Y56.811 E7.87939
G1 X88.264 Y56.367 E7.89777
G1 X88.716 Y56.156 E7.90773
G1 X88.999 Y56.032 E7.9139
G1 X89.857 Y55.7 E7.93225
G1 X90.742 Y55.443 E7.95065
G1 X91.605 Y55.27 E7.96821
G1 X91.929 Y55.219 E7.97476
G1 X92.757 Y55.122 E7.99139
G1 X93.463 Y55.088 E8.0055
G1 X94.317 Y55.077 E8.02254
G1 X146.859 Y55.079 E9.07107
G1 X147.567 Y55.09 E9.0852
G1 X148.693 Y55.168 E9.10773
G1 X148.97 Y55.202 E9.1133
G1 X149.878 Y55.354 E9.13167
G1 X150.77 Y55.584 E9.15005
G1 X151.537 Y55.85 E9.16625
G1 X151.862 Y55.977 E9.17322
G1 X152.704 Y56.349 E9.19159
G1 X153.511 Y56.793 E9.20997
G1 X154.318 Y57.335 E9.22937
G1 X154.554 Y57.51 E9.23523
G1 X155.269 Y58.09 E9.2536
G1 X155.931 Y58.73 E9.27198
G1 X156.548 Y59.442 E9.29078
G1 X156.754 Y59.702 E9.2974
G1 X157.294 Y60.448 E9.31578
G1 X157.767 Y61.238 E9.33415
G1 X158.174 Y62.074 E9.35271
G1 X158.303 Y62.372 E9.35919
G1 X158.631 Y63.232 E9.37756
G1 X158.884 Y64.117 E9.39593
G1 X159.048 Y64.945 E9.41277
G1 X159.086 Y65.188 E9.41768
G1 X159.146 Y65.63 E9.42658
G1 X159.223 Y66.766 E9.4493
G1 X159.234 Y67.621 E9.46637
G1 X159.232 Y168.528 E11.48008
G1 X159.222 Y169.255 E11.49458
G1 X159.169 Y170.174 E11.51295
G1 X159.037 Y171.085 E11.53132
G1 X158.826 Y171.981 E11.54969
G1 X158.539 Y172.856 E11.56807
G1 X158.183 Y173.689 E11.58615
G1 X158.103 Y173.856 E11.58984
G1 X157.669 Y174.668 E11.60822
G1 X157.167 Y175.439 E11.62658
G1 X156.6 Y176.164 E11.64495
G1 X155.972 Y176.838 E11.66333
G1 X155.287 Y177.454 E11.68171
G1 X154.552 Y178.008 E11.70008
G1 X153.772 Y178.496 E11.71844
G1 X152.952 Y178.915 E11.73682
G1 X152.327 Y179.178 E11.75035
G1 X152.17 Y179.238 E11.75371
G1 X151.297 Y179.529 E11.77207
G1 X150.401 Y179.743 E11.79045
G1 X149.491 Y179.878 E11.80881
G1 X148.685 Y179.932 E11.82493
G1 X148.366 Y179.941 E11.8313
G1 X148.067 Y179.945 E11.83727
G1 X93.108 Y179.943 E12.93403
G1 X92.404 Y179.932 E12.94809
G1 X91.485 Y179.877 E12.96646
G1 X90.574 Y179.743 E12.98483
G1 X89.679 Y179.531 E13.00319
G1 X88.805 Y179.242 E13.02156
G1 X87.959 Y178.878 E13.03994
G1 X87.148 Y178.442 E13.05831
G1 X86.378 Y177.937 E13.07669
G1 X85.806 Y177.495 E13.09111
G1 X85.59 Y177.316 E13.09671
G1 X84.908 Y176.698 E13.11508
G1 X84.101 Y175.805 E13.1391
G1 X82.53 Y173.856 E13.18906
G1 X80.889 Y171.933 E13.2395
G1 X80.036 Y170.995 E13.26481
G1 X79.858 Y170.782 E13.27035
G1 X79.056 Y169.891 E13.29427
G1 X78.84 Y169.644 E13.30082
G1 X78.697 Y169.475 E13.30523
G1 X78.133 Y168.747 E13.32361
G1 X77.475 Y167.688 E13.34849
G1 X77.224 Y167.226 E13.35899
G1 X76.82 Y166.399 E13.37735
G1 X76.489 Y165.54 E13.39572
G1 X76.291 Y164.88 E13.40948
G1 X76.162 Y164.393 E13.41953
G1 X75.966 Y163.494 E13.43789
G1 X75.844 Y162.535 E13.45718
G1 X75.812 Y162.14 E13.46509
G1 X75.778 Y161.448 E13.47892
G1 X75.767 Y160.736 E13.49313
G1 X75.767 Y160.131 E13.5052
G1 X75.801 Y158.283 E13.54209
G1 X75.815 Y157.898 E13.54977
G1 X75.827 Y157.682 E13.55409
G1 X75.88 Y157.067 E13.56641
G1 X75.989 Y156.113 E13.58557
G1 X76.036 Y155.755 E13.59278
G1 X76.121 Y155.184 E13.6043
G1 X76.223 Y154.606 E13.61601
G1 X76.257 Y154.441 E13.61937
G1 X76.318 Y154.165 E13.62501
G1 X76.435 Y153.665 E13.63526
G1 X76.501 Y153.397 E13.64077
G1 X76.653 Y152.816 E13.65275
G1 X76.833 Y152.205 E13.66547
G1 X77.325 Y150.701 E13.69704
G1 X78.087 Y148.252 E13.74823
G1 X78.772 Y145.813 E13.79878
G1 X79.393 Y143.333 E13.8498
G1 X79.938 Y140.868 E13.90018
G1 X80.407 Y138.398 E13.95036
G1 X80.81 Y135.905 E14.00075
G1 X81.144 Y133.39 E14.05138
G1 X81.404 Y130.891 E14.10152
G1 X81.598 Y128.334 E14.1527
G1 X81.714 Y125.869 E14.20194
G1 X81.766 Y122.76 E14.26399
G1 X81.768 Y67.424 E15.36828
G1 X81.778 Y66.752 E15.3817
G1 X81.832 Y65.834 E15.40005
G1 X81.842 Y65.736 E15.40201
G1 X81.897 Y65.291 E15.41096
G1 X81.926 Y65.091 E15.41499
G1 X82.097 Y64.186 E15.43337
G1 X82.347 Y63.3 E15.45175
G1 X82.532 Y62.782 E15.46272
G1 X82.625 Y62.542 E15.46786
G1 X82.995 Y61.699 E15.48623
G1 X83.523 Y60.75 E15.5079
G1 X83.66 Y60.531 E15.51306
G1 X84.181 Y59.773 E15.53141
G0 F6000 X84.511 Y60
G1 F1200 X85.258 Y59.121 E15.55443
G1 X85.416 Y58.955 E15.55901
G1 X86.067 Y58.329 E15.57703
G1 X86.764 Y57.768 E15.59488
G1 X86.93 Y57.646 E15.599
G1 X87.68 Y57.144 E15.61701
G1 X88.876 Y56.522 E15.64391
G1 X89.159 Y56.398 E15.65007
G1 X90.002 Y56.073 E15.6681
G1 X90.87 Y55.823 E15.68613
G1 X91.667 Y55.665 E15.70234
G1 X91.991 Y55.614 E15.70889
G1 X92.79 Y55.52 E15.72495
G1 X93.469 Y55.488 E15.73851
G1 X94.317 Y55.477 E15.75543
G1 X146.852 Y55.479 E16.80383
G1 X147.56 Y55.49 E16.81796
G1 X148.645 Y55.565 E16.83966
G1 X148.922 Y55.599 E16.84523
G1 X149.812 Y55.749 E16.86324
G1 X150.686 Y55.976 E16.88126
G1 X151.391 Y56.223 E16.89617
G1 X151.716 Y56.35 E16.90313
G1 X152.542 Y56.715 E16.92116
G1 X153.332 Y57.152 E16.93917
G1 X154.079 Y57.657 E16.95717
G1 X154.315 Y57.832 E16.96303
G1 X155.016 Y58.401 E16.98105
G1 X155.664 Y59.031 E16.99908
G1 X156.235 Y59.691 E17.0165
G1 X156.441 Y59.951 E17.02312
G1 X156.97 Y60.683 E17.04114
G1 X157.432 Y61.459 E17.05916
G1 X157.807 Y62.233 E17.07633
G1 X157.936 Y62.531 E17.08281
G1 X158.257 Y63.375 E17.10083
G1 X158.503 Y64.244 E17.11885
G1 X158.653 Y65.007 E17.13437
G1 X158.691 Y65.25 E17.13928
G1 X158.749 Y65.679 E17.14792
G1 X158.823 Y66.771 E17.16976
G1 X158.834 Y67.621 E17.18672
G1 X158.832 Y168.522 E19.20031
G1 X158.822 Y169.249 E19.21482
G1 X158.77 Y170.151 E19.23285
G1 X158.638 Y171.044 E19.25087
G1 X158.427 Y171.923 E19.2689
G1 X158.14 Y172.779 E19.28692
G1 X157.822 Y173.516 E19.30294
G1 X157.742 Y173.683 E19.30664
G1 X157.316 Y174.479 E19.32465
G1 X156.822 Y175.235 E19.34267
G1 X156.262 Y175.944 E19.3607
G1 X155.642 Y176.6 E19.37872
G1 X154.966 Y177.199 E19.39674
G1 X154.24 Y177.737 E19.41477
G1 X153.47 Y178.207 E19.43278
G1 X152.66 Y178.608 E19.45081
G1 X152.184 Y178.804 E19.46109
G1 X152.027 Y178.864 E19.46444
G1 X151.17 Y179.149 E19.48246
G1 X150.291 Y179.356 E19.50049
G1 X149.398 Y179.486 E19.51849
G1 X148.674 Y179.532 E19.53297
G1 X148.355 Y179.541 E19.53934
G1 X148.067 Y179.545 E19.54509
G1 X93.115 Y179.543 E20.64171
G1 X92.411 Y179.532 E20.65576
G1 X91.509 Y179.478 E20.6738
G1 X90.616 Y179.344 E20.69182
G1 X89.738 Y179.132 E20.70984
G1 X88.882 Y178.843 E20.72787
G1 X88.056 Y178.48 E20.74588
G1 X87.264 Y178.045 E20.76391
G1 X86.515 Y177.541 E20.78193
G1 X86.062 Y177.187 E20.7934
G1 X85.846 Y177.008 E20.799
G1 X85.176 Y176.401 E20.81704
G1 X84.412 Y175.554 E20.8398
G1 X82.836 Y173.598 E20.88993
G1 X81.19 Y171.669 E20.94053
G1 X80.332 Y170.726 E20.96598
G1 X80.169 Y170.529 E20.97108
G1 X79.353 Y169.624 E20.9954
G1 X79.145 Y169.386 E21.00171
G1 X79.002 Y169.217 E21.00612
G1 X78.45 Y168.502 E21.02415
G1 X77.826 Y167.497 E21.04776
G1 X77.575 Y167.035 E21.05825
G1 X77.18 Y166.223 E21.07627
G1 X76.858 Y165.38 E21.09428
G1 X76.678 Y164.778 E21.10682
G1 X76.549 Y164.291 E21.11687
G1 X76.357 Y163.408 E21.1349
G1 X76.242 Y162.503 E21.15311
G1 X76.21 Y162.108 E21.16102
G1 X76.178 Y161.442 E21.17432
G1 X76.167 Y160.73 E21.18853
G1 X76.167 Y160.131 E21.20049
G1 X76.201 Y158.291 E21.23721
G1 X76.215 Y157.92 E21.24462
G1 X76.227 Y157.704 E21.24894
G1 X76.277 Y157.112 E21.2608
G1 X76.386 Y156.158 E21.27996
G1 X76.431 Y155.814 E21.28688
G1 X76.516 Y155.243 E21.2984
G1 X76.615 Y154.686 E21.30969
G1 X76.707 Y154.256 E21.31847
G1 X76.824 Y153.756 E21.32871
G1 X76.888 Y153.498 E21.33402
G1 X77.04 Y152.917 E21.346
G1 X77.213 Y152.33 E21.35822
G1 X77.686 Y150.882 E21.38861
G1 X78.478 Y148.341 E21.44173
G1 X79.159 Y145.913 E21.49205
G1 X79.786 Y143.41 E21.54355
G1 X80.328 Y140.957 E21.59368
G1 X80.801 Y138.465 E21.6443
G1 X81.208 Y135.95 E21.69514
G1 X81.54 Y133.448 E21.74551
G1 X81.803 Y130.93 E21.79603
G1 X81.996 Y128.384 E21.84698
G1 X82.115 Y125.861 E21.89739
G1 X82.166 Y122.766 E21.95916
G1 X82.168 Y67.43 E23.06345
G1 X82.178 Y66.758 E23.07686
G1 X82.23 Y65.875 E23.09451
G1 X82.24 Y65.777 E23.09648
G1 X82.293 Y65.348 E23.10511
G1 X82.322 Y65.148 E23.10914
G1 X82.491 Y64.261 E23.12716
G1 X82.737 Y63.392 E23.14518
G1 X82.905 Y62.927 E23.15505
G1 X82.998 Y62.687 E23.16019
G1 X83.361 Y61.86 E23.17821
G1 X83.862 Y60.962 E23.19873
G1 X83.999 Y60.743 E23.20389
G1 X84.511 Y60 E23.22189
G1 F2700 E18.22189
;MESH:lid_grey.stl
G0 F6000 X100.963 Y80.965
G0 X100.195 Y82.818
G0 X143.69 Y82.626
;TYPE:WALL-INNER
G1 F2700 E23.22189
G1 F1200 X143.69 Y72.626 E23.42145
G1 X115.69 Y72.626 E23.98022
G1 X115.69 Y78.626 E24.09996
G1 X113.69 Y78.626 E24.13987
G1 X113.69 Y72.626 E24.25961
G1 X109.69 Y72.626 E24.33943
G1 X109.69 Y78.626 E24.45917
G1 X107.69 Y78.626 E24.49908
G1 X107.69 Y75.211 E24.56723
G1 X105.105 Y72.626 E24.64019
G1 X97.69 Y72.626 E24.78816
G1 X97.69 Y80.041 E24.93613
G1 X100.275 Y82.626 E25.00909
G1 X143.69 Y82.626 E25.87548
G0 F6000 X143.29 Y82.226
G1 F1200 X143.29 Y73.026 E26.05908
G1 X116.09 Y73.026 E26.60188
G1 X116.09 Y79.026 E26.72162
G1 X113.29 Y79.026 E26.7775
G1 X113.29 Y73.026 E26.89723
G1 X110.09 Y73.026 E26.96109
G1 X110.09 Y79.026 E27.08083
G1 X107.29 Y79.026 E27.13671
G1 X107.29 Y75.377 E27.20953
G1 X104.939 Y73.026 E27.27588
G1 X98.09 Y73.026 E27.41256
G1 X98.09 Y79.875 E27.54923
G1 X100.441 Y82.226 E27.61559
G1 X143.29 Y82.226 E28.47068
G1 F2700 E23.47068
G0 F6000 X134.362 Y81.954
G0 X134.49 Y81.826
;TYPE:WALL-OUTER
G1 F2700 E28.47068
G1 F1200 X142.89 Y81.826 E28.63831
G1 X142.89 Y73.426 E28.80595
G1 X134.49 Y73.426 E28.97358
G1 X134.49 Y76.209 E29.02911
G1 X135.908 Y77.626 E29.06912
G1 X134.49 Y79.043 E29.10912
G1 X134.49 Y81.826 E29.16466
G0 F6000 X134.29 Y81.826
G0 X134.29 Y78.677
;TYPE:WALL-INNER
G1 F1200 X134.29 Y76.575 E29.20661
G1 X135.342 Y77.626 E29.23629
G1 X134.29 Y78.677 E29.26596
G1 F2700 E24.26596
G0 F6000 X134.018 Y81.954
G0 X125.362 Y81.954
G0 X125.49 Y81.826
;TYPE:WALL-OUTER
G1 F2700 E29.26596
G1 F1200 X133.89 Y81.826 E29.43359
G1 X133.89 Y73.426 E29.60122
G1 X125.49 Y73.426 E29.76885
G1 X125.49 Y81.826 E29.93648
G1 F2700 E24.93648
G0 F6000 X125.29 Y81.826
G0 X125.018 Y79.298
G0 X119.362 Y78.954
G0 X119.49 Y78.826
G1 F2700 E29.93648
G1 F1200 X124.89 Y78.826 E30.04425
G1 X124.89 Y76.426 E30.09214
G1 X119.49 Y76.426 E30.19991
G1 X119.49 Y78.826 E30.2478
G0 F6000 X118.89 Y79.426
G1 F1200 X118.89 Y75.826 E30.31964
G1 X124.89 Y75.826 E30.43938
G1 X124.89 Y73.426 E30.48727
G1 X116.49 Y73.426 E30.6549
G1 X116.49 Y81.826 E30.82253
G1 X124.89 Y81.826 E30.99017
G1 X124.89 Y79.426 E31.03806
G1 X118.89 Y79.426 E31.1578
G1 F2700 E26.1578
G0 F6000 X119.06 Y79.256
G0 X125.018 Y79.298
G0 X125.018 Y81.954
G0 X116.362 Y81.954
G0 X116.09 Y81.826
G0 X115.89 Y81.826
G1 F2700 E31.1578
G1 F1200 X115.89 Y79.426 E31.20569
G1 X107.49 Y79.426 E31.37332
G1 X107.49 Y81.826 E31.42122
G1 X115.89 Y81.826 E31.58885
G1 F2700 E26.58885
G0 F6000 X116.09 Y81.826
G0 X116.018 Y79.298
