;FLAVOR:Marlin
;TIME:2508
;Filament used: 0.479826m
;Layer height: 0.06
;MINX:80.337
;MINY:100.038
;MINZ:0.12
;MAXX:154.673
;MAXY:134.975
;MAXZ:5.4
;Generated with Cura_SteamEngine 4.8.0
M82 ;absolute extrusion mode
; Ender 3 Custom Start G-code
M117 Getting the bed up to temp!
M140 S60 ; Set Heat Bed temperature
M190 S60 ; Wait for Heat Bed temperature
M117 Pre-heating the extruder!
M104 S160; start warming extruder to 160
G28 ; Home all axes
M117 Auto bed-level GO!
G29 ; Auto bed-level (BL-Touch)
G92 E0 ; Reset Extruder
M117 Getting the extruder up to temp!
M104 S210 ; Set Extruder temperature
M109 S210 ; Wait for Extruder temperature
G1 Z1.0 F3000 ; move z up little to prevent scratching of surface
G1 X0.1 Y20 Z0.3 F5000.0 ; move to start-line position
M117 LET THE PURGE BEGIN!
G1 X0.1 Y200.0 Z0.3 F1500.0 E15 ; draw 1st line
G1 X0.4 Y200.0 Z0.3 F5000.0 ; move to side a little
G1 X0.4 Y20 Z0.3 F1500.0 E30 ; draw 2nd line
G92 E0 ; reset extruder
G1 Z1.0 F3000 ; move z up little to prevent scratching of surface
M117 Autobots! Roll Out!
; End of custom start GCode
G92 E0
G92 E0
G1 F2700 E-5
;LAYER_COUNT:89
;LAYER:0
M107
G0 F6000 X86.534 Y104.14 Z0.12
;TYPE:SKIRT
G1 F2700 E0
G1 F1200 X86.68 Y104.019 E0.00378
G1 X87.07 Y103.71 E0.01371
G1 X87.454 Y103.42 E0.02332
G1 X87.918 Y103.088 E0.0347
G1 X88.085 Y102.975 E0.03873
G1 X88.542 Y102.682 E0.04956
G1 X88.944 Y102.438 E0.05894
G1 X89.523 Y102.11 E0.07222
G1 X89.671 Y102.032 E0.07556
G1 X90.079 Y101.827 E0.08467
G1 X90.521 Y101.617 E0.09444
G1 X91.029 Y101.392 E0.10553
G1 X91.193 Y101.324 E0.10907
G1 X91.751 Y101.11 E0.121
G1 X92.191 Y100.955 E0.13031
G1 X92.778 Y100.767 E0.14261
G1 X92.988 Y100.706 E0.14697
G1 X93.449 Y100.582 E0.1565
G1 X93.859 Y100.482 E0.16492
G1 X94.461 Y100.353 E0.17721
G1 X94.693 Y100.31 E0.18191
G1 X95.232 Y100.224 E0.19281
G1 X95.693 Y100.162 E0.20209
G1 X96.256 Y100.101 E0.21339
G1 X96.426 Y100.087 E0.21679
G1 X96.971 Y100.056 E0.22769
G1 X97.432 Y100.041 E0.23689
G1 X98.04 Y100.038 E0.24903
G1 X98.26 Y100.043 E0.25342
G1 X98.782 Y100.067 E0.26385
G1 X99.237 Y100.099 E0.27295
G1 X99.836 Y100.158 E0.28496
G1 X100.035 Y100.183 E0.28896
G1 X100.542 Y100.259 E0.29919
G1 X100.969 Y100.333 E0.30784
G1 X101.637 Y100.47 E0.32145
G1 X101.864 Y100.524 E0.32611
G1 X102.287 Y100.633 E0.33482
G1 X102.708 Y100.751 E0.34355
G1 X103.013 Y100.842 E0.3499
G1 X103.172 Y100.892 E0.35323
G1 X105.686 Y101.638 E0.40556
G1 X108.125 Y102.288 E0.45593
G1 X110.594 Y102.872 E0.50656
G1 X113.062 Y103.383 E0.55686
G1 X115.518 Y103.816 E0.60663
G1 X118.02 Y104.188 E0.6571
G1 X120.498 Y104.484 E0.70691
G1 X123.04 Y104.715 E0.75784
G1 X125.505 Y104.87 E0.80713
G1 X128.1 Y104.958 E0.85895
G1 X129.833 Y104.975 E0.89353
G1 X143.124 Y104.976 E1.15877
G1 X143.822 Y104.986 E1.1727
G1 X144.758 Y105.04 E1.19141
G1 X145.686 Y105.172 E1.21012
G1 X146.6 Y105.384 E1.22884
G1 X147.492 Y105.673 E1.24755
G1 X148.357 Y106.036 E1.26627
G1 X149.187 Y106.472 E1.28498
G1 X149.978 Y106.977 E1.30371
G1 X150.722 Y107.548 E1.32243
G1 X151.415 Y108.18 E1.34114
G1 X152.052 Y108.868 E1.35986
G1 X152.627 Y109.609 E1.37857
G1 X153.138 Y110.395 E1.39728
G1 X153.58 Y111.223 E1.41601
G1 X153.949 Y112.085 E1.43472
G1 X154.244 Y112.975 E1.45344
G1 X154.462 Y113.887 E1.47215
G1 X154.602 Y114.815 E1.49088
G1 X154.66 Y115.676 E1.5081
G1 X154.669 Y115.996 E1.51449
G1 X154.673 Y116.305 E1.52065
G1 X154.672 Y120.152 E1.59742
G1 X154.662 Y120.875 E1.61185
G1 X154.653 Y121.198 E1.6183
G1 X154.646 Y121.36 E1.62154
G1 X154.616 Y121.824 E1.63082
G1 X154.592 Y122.104 E1.63643
G1 X154.415 Y123.337 E1.66128
G1 X154.357 Y123.625 E1.66715
G1 X154.285 Y123.956 E1.67391
G1 X154.242 Y124.14 E1.67768
G1 X153.9 Y125.31 E1.702
G1 X153.821 Y125.533 E1.70672
G1 X153.696 Y125.868 E1.71386
G1 X153.615 Y126.075 E1.7183
G1 X153.106 Y127.188 E1.74272
G1 X152.985 Y127.418 E1.7479
G1 X152.834 Y127.696 E1.75422
G1 X152.745 Y127.854 E1.75784
G1 X152.061 Y128.919 E1.7831
G1 X151.862 Y129.193 E1.78985
G1 X151.6 Y129.541 E1.79855
G1 X150.736 Y130.537 E1.82486
G1 X150.556 Y130.721 E1.83
G1 X150.217 Y131.055 E1.83949
G1 X149.305 Y131.849 E1.86362
G1 X149.089 Y132.017 E1.86909
G1 X148.781 Y132.248 E1.87677
G1 X148.633 Y132.355 E1.88041
G1 X147.605 Y133.015 E1.90479
G1 X147.324 Y133.174 E1.91124
G1 X146.99 Y133.355 E1.91882
G1 X146.871 Y133.417 E1.92149
G1 X145.798 Y133.905 E1.94502
G1 X145.517 Y134.015 E1.95104
G1 X145.187 Y134.138 E1.95807
G1 X145.018 Y134.198 E1.96165
G1 X143.842 Y134.543 E1.9861
G1 X143.611 Y134.597 E1.99084
G1 X143.332 Y134.659 E1.99654
G1 X143.119 Y134.703 E2.00088
G1 X141.831 Y134.89 E2.02685
G1 X141.562 Y134.913 E2.03224
G1 X141.277 Y134.934 E2.03795
G1 X141.075 Y134.946 E2.04198
G1 X140.732 Y134.961 E2.04884
G1 X140.376 Y134.971 E2.05594
G1 X140.066 Y134.975 E2.06213
G1 X98.466 Y134.972 E2.8923
G1 X97.767 Y134.962 E2.90625
G1 X97.137 Y134.935 E2.91884
G1 X96.684 Y134.9 E2.9279
G1 X96.282 Y134.859 E2.93597
G1 X95.936 Y134.819 E2.94292
G1 X95.699 Y134.789 E2.94769
G1 X95.154 Y134.714 E2.95866
G1 X94.638 Y134.631 E2.96909
G1 X94.461 Y134.598 E2.97269
G1 X93.843 Y134.464 E2.98531
G1 X93.393 Y134.353 E2.99456
G1 X92.843 Y134.202 E3.00594
G1 X92.638 Y134.14 E3.01021
G1 X92.16 Y133.983 E3.02025
G1 X91.738 Y133.834 E3.02918
G1 X91.119 Y133.595 E3.04243
G1 X90.932 Y133.516 E3.04648
G1 X90.518 Y133.331 E3.05553
G1 X90.107 Y133.137 E3.0646
G1 X89.535 Y132.846 E3.0774
G1 X89.348 Y132.744 E3.08165
G1 X88.902 Y132.487 E3.09193
G1 X88.512 Y132.25 E3.10103
G1 X87.977 Y131.904 E3.11375
G1 X87.806 Y131.786 E3.11789
G1 X87.391 Y131.484 E3.12814
G1 X87.039 Y131.216 E3.13696
G1 X86.547 Y130.819 E3.14958
G1 X86.373 Y130.67 E3.15415
G1 X86.027 Y130.361 E3.16341
G1 X85.687 Y130.044 E3.17269
G1 X85.249 Y129.612 E3.18496
G1 X85.132 Y129.49 E3.18834
G1 X84.778 Y129.103 E3.1988
G1 X84.473 Y128.753 E3.20807
G1 X84.055 Y128.243 E3.22123
G1 X83.927 Y128.077 E3.22541
G1 X83.652 Y127.704 E3.23466
G1 X83.395 Y127.34 E3.24355
G1 X83.059 Y126.835 E3.25566
G1 X82.945 Y126.653 E3.25994
G1 X82.689 Y126.223 E3.26993
G1 X82.462 Y125.821 E3.27914
G1 X82.15 Y125.228 E3.29251
G1 X82.075 Y125.074 E3.29593
G1 X81.856 Y124.594 E3.30646
G1 X81.654 Y124.123 E3.31669
G1 X81.446 Y123.601 E3.3279
G1 X81.385 Y123.436 E3.33141
G1 X81.21 Y122.926 E3.34217
G1 X81.073 Y122.491 E3.35127
G1 X80.911 Y121.923 E3.36306
G1 X80.864 Y121.74 E3.36683
G1 X80.752 Y121.26 E3.37667
G1 X80.655 Y120.797 E3.38611
G1 X80.544 Y120.182 E3.39858
G1 X80.517 Y120.003 E3.40219
G1 X80.45 Y119.468 E3.41295
G1 X80.402 Y118.993 E3.42248
G1 X80.357 Y118.386 E3.43462
G1 X80.348 Y118.188 E3.43858
G1 X80.337 Y117.666 E3.449
G1 X80.338 Y117.193 E3.45844
G1 X80.355 Y116.602 E3.47024
G1 X80.364 Y116.441 E3.47346
G1 X80.406 Y115.914 E3.48401
G1 X80.457 Y115.425 E3.49382
G1 X80.539 Y114.811 E3.50618
G1 X80.571 Y114.613 E3.51018
G1 X80.659 Y114.136 E3.51986
G1 X80.751 Y113.692 E3.52891
G1 X80.903 Y113.053 E3.54202
G1 X80.956 Y112.857 E3.54607
G1 X81.096 Y112.384 E3.55591
G1 X81.238 Y111.939 E3.56523
G1 X81.434 Y111.377 E3.57711
G1 X81.502 Y111.198 E3.58093
G1 X81.717 Y110.673 E3.59226
G1 X81.908 Y110.239 E3.60172
G1 X82.164 Y109.697 E3.61368
G1 X82.238 Y109.551 E3.61695
G1 X82.469 Y109.12 E3.6267
G1 X82.72 Y108.675 E3.6369
G1 X83.027 Y108.164 E3.6488
G1 X83.108 Y108.037 E3.6518
G1 X83.4 Y107.602 E3.66226
G1 X83.675 Y107.213 E3.67177
G1 X84.041 Y106.724 E3.68395
G1 X84.168 Y106.564 E3.68803
G1 X84.497 Y106.17 E3.69827
G1 X84.799 Y105.824 E3.70744
G1 X85.218 Y105.369 E3.71978
G1 X85.346 Y105.238 E3.72344
G1 X85.701 Y104.891 E3.73334
G1 X86.04 Y104.574 E3.74261
G1 X86.534 Y104.14 E3.75573
G0 F6000 X86.789 Y104.448
G1 F1200 X86.935 Y104.327 E3.75951
G1 X87.311 Y104.029 E3.76909
G1 X87.695 Y103.739 E3.77869
G1 X88.143 Y103.419 E3.78968
G1 X88.31 Y103.306 E3.7937
G1 X88.75 Y103.024 E3.80413
G1 X89.152 Y102.78 E3.81352
G1 X89.71 Y102.464 E3.82631
G1 X89.858 Y102.386 E3.82965
G1 X90.251 Y102.189 E3.83842
G1 X90.693 Y101.979 E3.84819
G1 X91.182 Y101.761 E3.85887
G1 X91.346 Y101.693 E3.86242
G1 X91.884 Y101.487 E3.87391
G1 X92.324 Y101.332 E3.88322
G1 X92.889 Y101.151 E3.89506
G1 X93.099 Y101.09 E3.89943
G1 X93.544 Y100.971 E3.90862
G1 X93.954 Y100.871 E3.91704
G1 X94.534 Y100.747 E3.92888
G1 X94.766 Y100.704 E3.93359
G1 X95.285 Y100.621 E3.94407
G1 X95.746 Y100.559 E3.95336
G1 X96.289 Y100.5 E3.96426
G1 X96.459 Y100.486 E3.96766
G1 X96.984 Y100.456 E3.97815
G1 X97.445 Y100.441 E3.98736
G1 X98.031 Y100.438 E3.99905
G1 X98.251 Y100.443 E4.00345
G1 X98.754 Y100.466 E4.01349
G1 X99.209 Y100.498 E4.0226
G1 X99.786 Y100.555 E4.03417
G1 X99.985 Y100.58 E4.03817
G1 X100.474 Y100.653 E4.04804
G1 X100.901 Y100.727 E4.05668
G1 X101.544 Y100.859 E4.06978
G1 X101.771 Y100.913 E4.07444
G1 X102.179 Y101.018 E4.08285
G1 X102.6 Y101.136 E4.09157
G1 X102.894 Y101.223 E4.09769
G1 X103.155 Y101.305 E4.10315
G1 X105.574 Y102.023 E4.15351
G1 X108.036 Y102.678 E4.20435
G1 X110.492 Y103.259 E4.25471
G1 X112.977 Y103.774 E4.30536
G1 X115.462 Y104.213 E4.35572
G1 X117.951 Y104.582 E4.40593
G1 X120.489 Y104.885 E4.45694
G1 X122.976 Y105.111 E4.50677
G1 X125.5 Y105.27 E4.55724
G1 X128.083 Y105.358 E4.60882
G1 X129.829 Y105.375 E4.64366
G1 X143.118 Y105.376 E4.90886
G1 X143.816 Y105.386 E4.92279
G1 X144.735 Y105.439 E4.94116
G1 X145.646 Y105.572 E4.95953
G1 X146.542 Y105.783 E4.9779
G1 X147.416 Y106.071 E4.99627
G1 X148.263 Y106.434 E5.01466
G1 X149.074 Y106.869 E5.03302
G1 X149.844 Y107.373 E5.05139
G1 X150.568 Y107.942 E5.06976
G1 X151.24 Y108.572 E5.08815
G1 X151.855 Y109.257 E5.10652
G1 X152.408 Y109.993 E5.12489
G1 X152.895 Y110.774 E5.14326
G1 X153.312 Y111.595 E5.16163
G1 X153.657 Y112.449 E5.18001
G1 X153.926 Y113.329 E5.19838
G1 X154.118 Y114.23 E5.21676
G1 X154.231 Y115.143 E5.23512
G1 X154.26 Y115.687 E5.24599
G1 X154.269 Y116.007 E5.25238
G1 X154.273 Y116.305 E5.25833
G1 X154.272 Y120.147 E5.335
G1 X154.262 Y120.87 E5.34943
G1 X154.253 Y121.181 E5.35564
G1 X154.246 Y121.343 E5.35887
G1 X154.217 Y121.79 E5.36781
G1 X154.193 Y122.07 E5.37342
G1 X154.023 Y123.258 E5.39737
G1 X153.965 Y123.546 E5.40323
G1 X153.896 Y123.865 E5.40974
G1 X153.853 Y124.049 E5.41352
G1 X153.523 Y125.177 E5.43697
G1 X153.444 Y125.4 E5.44169
G1 X153.323 Y125.723 E5.44857
G1 X153.242 Y125.93 E5.45301
G1 X152.752 Y127.002 E5.47653
G1 X152.631 Y127.232 E5.48172
G1 X152.486 Y127.499 E5.48778
G1 X152.397 Y127.657 E5.4914
G1 X151.738 Y128.684 E5.51575
G1 X151.539 Y128.958 E5.52251
G1 X151.283 Y129.297 E5.53099
G1 X150.45 Y130.258 E5.55637
G1 X150.27 Y130.442 E5.5615
G1 X149.939 Y130.768 E5.57077
G1 X149.06 Y131.533 E5.59403
G1 X148.844 Y131.701 E5.59949
G1 X148.546 Y131.924 E5.60692
G1 X148.398 Y132.031 E5.61056
G1 X147.408 Y132.667 E5.63404
G1 X147.127 Y132.826 E5.64049
G1 X146.805 Y133.001 E5.6478
G1 X146.686 Y133.063 E5.65048
G1 X145.652 Y133.533 E5.67314
G1 X145.371 Y133.643 E5.67917
G1 X145.053 Y133.761 E5.68594
G1 X144.884 Y133.821 E5.68951
G1 X143.751 Y134.154 E5.71308
G1 X143.52 Y134.208 E5.71782
G1 X143.251 Y134.267 E5.72331
G1 X143.038 Y134.311 E5.72765
G1 X141.797 Y134.491 E5.75268
G1 X141.528 Y134.514 E5.75806
G1 X141.254 Y134.534 E5.76355
G1 X141.052 Y134.546 E5.76758
G1 X140.721 Y134.561 E5.7742
G1 X140.365 Y134.571 E5.7813
G1 X140.066 Y134.575 E5.78727
G1 X98.471 Y134.572 E6.61734
G1 X97.772 Y134.562 E6.6313
G1 X97.165 Y134.536 E6.64342
G1 X96.722 Y134.501 E6.65229
G1 X96.328 Y134.462 E6.66019
G1 X95.982 Y134.422 E6.66714
G1 X95.754 Y134.393 E6.67173
G1 X95.209 Y134.318 E6.6827
G1 X94.711 Y134.237 E6.69277
G1 X94.534 Y134.204 E6.69637
G1 X93.938 Y134.076 E6.70853
G1 X93.488 Y133.965 E6.71778
G1 X92.958 Y133.819 E6.72875
G1 X92.753 Y133.757 E6.73303
G1 X92.293 Y133.606 E6.74269
G1 X91.871 Y133.457 E6.75162
G1 X91.275 Y133.226 E6.76437
G1 X91.088 Y133.147 E6.76843
G1 X90.688 Y132.969 E6.77716
G1 X90.277 Y132.775 E6.78623
G1 X89.726 Y132.495 E6.79857
G1 X89.539 Y132.393 E6.80282
G1 X89.11 Y132.146 E6.8127
G1 X88.72 Y131.909 E6.8218
G1 X88.205 Y131.574 E6.83406
G1 X88.034 Y131.456 E6.83821
G1 X87.633 Y131.166 E6.84809
G1 X87.281 Y130.898 E6.85691
G1 X86.807 Y130.515 E6.86908
G1 X86.633 Y130.366 E6.87365
G1 X86.299 Y130.068 E6.88258
G1 X85.959 Y129.751 E6.89186
G1 X85.538 Y129.335 E6.90367
G1 X85.421 Y129.213 E6.90704
G1 X85.08 Y128.84 E6.91713
G1 X84.775 Y128.49 E6.92639
G1 X84.372 Y127.999 E6.93907
G1 X84.244 Y127.833 E6.94325
G1 X83.979 Y127.474 E6.95215
G1 X83.722 Y127.11 E6.96105
G1 X83.398 Y126.623 E6.97272
G1 X83.284 Y126.441 E6.97701
G1 X83.037 Y126.026 E6.98664
G1 X82.81 Y125.624 E6.99586
G1 X82.51 Y125.053 E7.00873
G1 X82.435 Y124.899 E7.01215
G1 X82.223 Y124.436 E7.02231
G1 X82.021 Y123.965 E7.03254
G1 X81.821 Y123.463 E7.04332
G1 X81.76 Y123.298 E7.04683
G1 X81.592 Y122.806 E7.05721
G1 X81.455 Y122.371 E7.06631
G1 X81.298 Y121.824 E7.07766
G1 X81.251 Y121.641 E7.08143
G1 X81.143 Y121.178 E7.09092
G1 X81.046 Y120.715 E7.10036
G1 X80.94 Y120.122 E7.11238
G1 X80.913 Y119.943 E7.116
G1 X80.848 Y119.428 E7.12635
G1 X80.8 Y118.953 E7.13588
G1 X80.757 Y118.368 E7.14759
G1 X80.748 Y118.17 E7.15154
G1 X80.737 Y117.667 E7.16158
G1 X80.738 Y117.194 E7.17102
G1 X80.755 Y116.624 E7.1824
G1 X80.764 Y116.463 E7.18562
G1 X80.804 Y115.955 E7.19579
G1 X80.855 Y115.466 E7.2056
G1 X80.934 Y114.875 E7.2175
G1 X80.966 Y114.677 E7.2215
G1 X81.05 Y114.217 E7.23083
G1 X81.142 Y113.773 E7.23988
G1 X81.29 Y113.157 E7.25253
G1 X81.343 Y112.961 E7.25658
G1 X81.477 Y112.506 E7.26604
G1 X81.619 Y112.061 E7.27537
G1 X81.808 Y111.519 E7.28682
G1 X81.876 Y111.34 E7.29064
G1 X82.083 Y110.834 E7.30155
G1 X82.274 Y110.4 E7.31101
G1 X82.521 Y109.878 E7.32254
G1 X82.595 Y109.732 E7.3258
G1 X82.817 Y109.316 E7.33521
G1 X83.068 Y108.871 E7.34541
G1 X83.364 Y108.379 E7.35687
G1 X83.445 Y108.252 E7.35987
G1 X83.726 Y107.833 E7.36994
G1 X84.001 Y107.444 E7.37945
G1 X84.355 Y106.973 E7.39121
G1 X84.482 Y106.813 E7.39528
G1 X84.798 Y106.433 E7.40515
G1 X85.1 Y106.087 E7.41431
G1 X85.504 Y105.649 E7.4262
G1 X85.632 Y105.518 E7.42986
G1 X85.974 Y105.184 E7.4394
G1 X86.313 Y104.867 E7.44866
G1 X86.789 Y104.448 E7.46131
G0 F6000 X87.044 Y104.756
G1 F1200 X87.19 Y104.635 E7.4651
G1 X87.552 Y104.348 E7.47432
G1 X87.936 Y104.058 E7.48392
G1 X88.367 Y103.75 E7.49449
G1 X88.534 Y103.637 E7.49852
G1 X88.958 Y103.365 E7.50857
G1 X89.36 Y103.121 E7.51795
G1 X89.896 Y102.817 E7.53025
G1 X90.044 Y102.739 E7.53359
G1 X90.423 Y102.55 E7.54204
G1 X90.865 Y102.34 E7.55181
G1 X91.335 Y102.131 E7.56207
G1 X91.499 Y102.063 E7.56561
G1 X92.017 Y101.864 E7.57669
G1 X92.457 Y101.709 E7.586
G1 X93.001 Y101.535 E7.5974
G1 X93.211 Y101.474 E7.60176
G1 X93.639 Y101.359 E7.6106
G1 X94.049 Y101.259 E7.61903
G1 X94.607 Y101.14 E7.63041
G1 X94.839 Y101.097 E7.63512
G1 X95.338 Y101.017 E7.64521
G1 X95.799 Y100.955 E7.65449
G1 X96.322 Y100.898 E7.66499
G1 X96.492 Y100.884 E7.66839
G1 X96.997 Y100.855 E7.67849
G1 X97.458 Y100.84 E7.68769
G1 X98.022 Y100.838 E7.69895
G1 X98.242 Y100.843 E7.70334
G1 X98.726 Y100.865 E7.71301
G1 X99.181 Y100.897 E7.72211
G1 X99.736 Y100.952 E7.73324
G1 X99.935 Y100.977 E7.73724
G1 X100.406 Y101.047 E7.74674
G1 X100.833 Y101.121 E7.75539
G1 X101.452 Y101.248 E7.768
G1 X101.679 Y101.302 E7.77266
G1 X102.071 Y101.403 E7.78074
G1 X102.492 Y101.521 E7.78946
G1 X102.775 Y101.605 E7.79535
G1 X103.004 Y101.676 E7.80014
G1 X105.454 Y102.404 E7.85114
G1 X107.955 Y103.07 E7.90279
G1 X110.398 Y103.648 E7.95289
G1 X112.924 Y104.171 E8.00437
G1 X115.37 Y104.603 E8.05394
G1 X117.916 Y104.98 E8.1053
G1 X120.438 Y105.282 E8.15599
G1 X122.951 Y105.51 E8.20634
G1 X125.497 Y105.67 E8.25725
G1 X128.065 Y105.757 E8.30853
G1 X129.825 Y105.775 E8.34365
G1 X143.112 Y105.776 E8.60881
G1 X143.81 Y105.786 E8.62274
G1 X144.712 Y105.839 E8.64077
G1 X145.605 Y105.971 E8.65879
G1 X146.483 Y106.182 E8.67681
G1 X147.339 Y106.47 E8.69483
G1 X148.166 Y106.832 E8.71284
G1 X148.958 Y107.267 E8.73088
G1 X149.709 Y107.769 E8.7489
G1 X150.412 Y108.336 E8.76693
G1 X151.062 Y108.963 E8.78495
G1 X151.654 Y109.645 E8.80297
G1 X152.184 Y110.376 E8.82099
G1 X152.646 Y111.152 E8.83901
G1 X153.039 Y111.965 E8.85703
G1 X153.357 Y112.81 E8.87505
G1 X153.6 Y113.68 E8.89308
G1 X153.765 Y114.568 E8.9111
