;FLAVOR:Marlin
;TIME:1272
;Filament used: 0.749056m
;Layer height: 0.16
;MINX:95.47
;MINY:90.314
;MINZ:0.2
;MAXX:139.534
;MAXY:143.552
;MAXZ:5.84
;Generated with Cura_SteamEngine 4.5.0
M140 S50
M105
M190 S50
M104 S200
M105
M109 S200
M82 ;absolute extrusion mode
; Ender 3 Custom Start G-code
G92 E0 ; Reset Extruder
G28 ; Home all axes
G1 Z2.0 F3000 ; Move Z Axis up little to prevent scratching of Heat Bed
G1 X0.1 Y20 Z0.3 F5000.0 ; Move to start position
G1 X0.1 Y200.0 Z0.3 F1500.0 E15 ; Draw the first line
G1 X0.4 Y200.0 Z0.3 F5000.0 ; Move to side a little
G1 X0.4 Y20 Z0.3 F1500.0 E30 ; Draw the second line
G92 E0 ; Reset Extruder
G1 Z2.0 F3000 ; Move Z Axis up little to prevent scratching of Heat Bed
G1 X5 Y20 Z0.3 F5000.0 ; Move over to prevent blob squish
G92 E0
G92 E0
G1 F2700 E-5
;LAYER_COUNT:35
;LAYER:0
M107
G0 F6000 X121.077 Y93.385 Z0.2
;TYPE:SKIRT
G1 F2700 E0
G1 F1200 X121.587 Y92.782 E0.02627
G1 X122.156 Y92.233 E0.05257
G1 X122.776 Y91.745 E0.07881
G1 X123.443 Y91.323 E0.10506
G1 X124.15 Y90.97 E0.13134
G1 X124.888 Y90.69 E0.1576
G1 X125.651 Y90.486 E0.18386
G1 X126.431 Y90.36 E0.21014
G1 X127.28 Y90.314 E0.23842
G1 X127.994 Y90.314 E0.26217
G1 X128.783 Y90.354 E0.28845
G1 X129.563 Y90.473 E0.31469
G1 X130.328 Y90.671 E0.34097
G1 X131.068 Y90.945 E0.36722
G1 X131.777 Y91.293 E0.39349
G1 X132.448 Y91.711 E0.41978
G1 X133.072 Y92.194 E0.44603
G1 X133.645 Y92.737 E0.47228
G1 X134.16 Y93.336 E0.49856
G1 X134.611 Y93.984 E0.52481
G1 X134.995 Y94.675 E0.55111
G1 X135.307 Y95.4 E0.57736
G1 X135.544 Y96.153 E0.60362
G1 X135.703 Y96.927 E0.6299
G1 X135.79 Y97.87 E0.66139
G1 X135.849 Y99.759 E0.72425
G1 X135.834 Y100.549 E0.75053
G1 X135.739 Y101.333 E0.7768
G1 X135.565 Y102.103 E0.80306
G1 X135.314 Y102.852 E0.82933
G1 X134.989 Y103.572 E0.8556
G1 X134.592 Y104.255 E0.88188
G1 X134.256 Y104.732 E0.90128
G1 X132.481 Y107.06 E0.99865
G1 X133.303 Y107.181 E1.02629
G1 X134.068 Y107.379 E1.05257
G1 X134.808 Y107.653 E1.07882
G1 X135.517 Y108.001 E1.10508
G1 X136.188 Y108.419 E1.13138
G1 X136.812 Y108.902 E1.15762
G1 X137.385 Y109.445 E1.18388
G1 X137.9 Y110.044 E1.21015
G1 X138.351 Y110.692 E1.23641
G1 X138.735 Y111.383 E1.26271
G1 X139.047 Y112.108 E1.28896
G1 X139.284 Y112.861 E1.31521
G1 X139.443 Y113.635 E1.34149
G1 X139.524 Y114.42 E1.36774
G1 X139.534 Y114.829 E1.38135
G1 X139.516 Y135.762 E2.07758
G1 X139.475 Y136.55 E2.10383
G1 X139.355 Y137.331 E2.13011
G1 X139.157 Y138.095 E2.15636
G1 X138.882 Y138.836 E2.18265
G1 X138.534 Y139.544 E2.20889
G1 X138.116 Y140.214 E2.23515
G1 X137.632 Y140.838 E2.26142
G1 X137.088 Y141.411 E2.2877
G1 X136.488 Y141.925 E2.31398
G1 X135.84 Y142.376 E2.34023
G1 X135.149 Y142.759 E2.36651
G1 X134.424 Y143.07 E2.39275
G1 X133.67 Y143.306 E2.41903
G1 X132.897 Y143.465 E2.44528
G1 X132.111 Y143.545 E2.47155
G1 X131.503 Y143.552 E2.49178
G1 X107.499 Y142.897 E3.29045
G1 X106.712 Y142.836 E3.3167
G1 X105.935 Y142.695 E3.34297
G1 X105.176 Y142.476 E3.36924
G1 X104.443 Y142.182 E3.39551
G1 X103.744 Y141.815 E3.42177
G1 X103.085 Y141.38 E3.44803
G1 X102.474 Y140.88 E3.47429
G1 X101.67 Y140.033 E3.51313
G1 X101.501 Y139.826 E3.52202
G1 X97.204 Y134.516 E3.74922
G1 X96.739 Y133.877 E3.7755
G1 X96.34 Y133.195 E3.80178
G1 X96.013 Y132.477 E3.82802
G1 X95.761 Y131.729 E3.85427
G1 X95.585 Y130.959 E3.88055
G1 X95.488 Y130.175 E3.90682
G1 X95.47 Y129.386 E3.93307
G1 X95.533 Y128.598 E3.95936
G1 X95.675 Y127.822 E3.9856
G1 X95.894 Y127.063 E4.01187
G1 X96.189 Y126.331 E4.03812
G1 X96.557 Y125.632 E4.0644
G1 X97.063 Y124.881 E4.09452
G1 X98.735 Y122.687 E4.18626
G1 X121.077 Y93.385 E5.41183
G0 F6000 X121.395 Y93.627
G1 F1200 X121.893 Y93.041 E5.43741
G1 X122.449 Y92.509 E5.463
G1 X123.057 Y92.038 E5.48859
G1 X123.71 Y91.632 E5.51416
G1 X124.402 Y91.297 E5.53973
G1 X125.125 Y91.035 E5.56531
G1 X125.872 Y90.849 E5.59091
G1 X126.634 Y90.742 E5.6165
G1 X127.28 Y90.714 E5.63801
G1 X127.994 Y90.714 E5.66176
G1 X128.762 Y90.754 E5.68734
G1 X129.522 Y90.873 E5.71292
G1 X130.265 Y91.071 E5.7385
G1 X130.984 Y91.345 E5.76409
G1 X131.67 Y91.692 E5.78966
G1 X132.317 Y92.108 E5.81524
G1 X132.917 Y92.589 E5.84082
G1 X133.464 Y93.13 E5.86641
G1 X133.952 Y93.725 E5.892
G1 X134.375 Y94.367 E5.91757
G1 X134.73 Y95.05 E5.94318
G1 X135.011 Y95.765 E5.96873
G1 X135.217 Y96.507 E5.99434
G1 X135.345 Y97.265 E6.01991
G1 X135.39 Y97.883 E6.04052
G1 X135.449 Y99.772 E6.10338
G1 X135.433 Y100.541 E6.12896
G1 X135.338 Y101.304 E6.15453
G1 X135.163 Y102.053 E6.18011
G1 X134.912 Y102.78 E6.2057
G1 X134.587 Y103.477 E6.23127
G1 X134.191 Y104.137 E6.25687
G1 X133.938 Y104.49 E6.27132
G1 X131.702 Y107.422 E6.39396
G1 X132.502 Y107.462 E6.4206
G1 X133.262 Y107.581 E6.44619
G1 X134.005 Y107.779 E6.47176
G1 X134.724 Y108.053 E6.49735
G1 X135.41 Y108.4 E6.52292
G1 X136.057 Y108.816 E6.54851
G1 X136.657 Y109.297 E6.57408
G1 X137.204 Y109.838 E6.59967
G1 X137.692 Y110.433 E6.62527
G1 X138.115 Y111.075 E6.65084
G1 X138.47 Y111.758 E6.67644
G1 X138.751 Y112.473 E6.70199
G1 X138.957 Y113.215 E6.7276
G1 X139.085 Y113.973 E6.75317
G1 X139.134 Y114.828 E6.78166
G1 X139.116 Y135.761 E7.47789
G1 X139.075 Y136.529 E7.50347
G1 X138.955 Y137.289 E7.52906
G1 X138.757 Y138.032 E7.55464
G1 X138.482 Y138.751 E7.58024
G1 X138.135 Y139.437 E7.60581
G1 X137.718 Y140.083 E7.63138
G1 X137.236 Y140.683 E7.65698
G1 X136.695 Y141.229 E7.68254
G1 X136.1 Y141.717 E7.70814
G1 X135.457 Y142.14 E7.73374
G1 X134.774 Y142.493 E7.75931
G1 X134.059 Y142.774 E7.78486
G1 X133.317 Y142.98 E7.81047
G1 X132.559 Y143.107 E7.83604
G1 X131.514 Y143.152 E7.87083
G1 X107.51 Y142.497 E8.6695
G1 X106.743 Y142.436 E8.69509
G1 X105.987 Y142.296 E8.72066
G1 X105.249 Y142.078 E8.74626
G1 X104.538 Y141.785 E8.77183
G1 X103.862 Y141.419 E8.7974
G1 X103.227 Y140.986 E8.82296
G1 X102.64 Y140.488 E8.84857
G1 X101.98 Y139.78 E8.88076
G1 X101.811 Y139.573 E8.88965
G1 X97.515 Y134.264 E9.1168
G1 X97.062 Y133.642 E9.14239
G1 X96.677 Y132.976 E9.16798
G1 X96.363 Y132.274 E9.19355
G1 X96.124 Y131.543 E9.21913
G1 X95.962 Y130.791 E9.24472
G1 X95.879 Y130.026 E9.27031
G1 X95.875 Y129.257 E9.29589
G1 X95.952 Y128.492 E9.32146
G1 X96.107 Y127.739 E9.34703
G1 X96.34 Y127.005 E9.37265
G1 X96.648 Y126.301 E9.3982
G1 X97.027 Y125.631 E9.42381
G1 X97.381 Y125.124 E9.44437
G1 X99.053 Y122.93 E9.53612
G1 X121.395 Y93.627 E10.76171
G0 F6000 X121.713 Y93.87
G1 F1200 X122.198 Y93.3 E10.78661
G1 X122.741 Y92.785 E10.8115
G1 X123.336 Y92.331 E10.83639
G1 X123.975 Y91.943 E10.86126
G1 X124.653 Y91.626 E10.88615
G1 X125.36 Y91.382 E10.91102
G1 X126.089 Y91.216 E10.93589
G1 X126.832 Y91.128 E10.96078
G1 X127.28 Y91.114 E10.97568
G1 X127.994 Y91.114 E10.99943
G1 X128.741 Y91.154 E11.02431
G1 X129.479 Y91.273 E11.04918
G1 X130.201 Y91.471 E11.07408
G1 X130.897 Y91.744 E11.09894
G1 X131.56 Y92.091 E11.12383
G1 X132.183 Y92.506 E11.14873
G1 X132.757 Y92.985 E11.1736
G1 X133.278 Y93.522 E11.19848
G1 X133.737 Y94.112 E11.22334
G1 X134.132 Y94.748 E11.24824
G1 X134.456 Y95.422 E11.27312
G1 X134.706 Y96.127 E11.298
G1 X134.88 Y96.855 E11.32289
G1 X134.991 Y97.895 E11.35768
G1 X135.05 Y99.784 E11.42054
G1 X135.033 Y100.532 E11.44542
G1 X134.937 Y101.274 E11.47031
G1 X134.762 Y102.002 E11.49521
G1 X134.51 Y102.706 E11.52008
G1 X134.185 Y103.38 E11.54497
G1 X133.619 Y104.247 E11.57941
G1 X130.893 Y107.822 E11.72893
G1 X131.734 Y107.822 E11.75691
G1 X132.481 Y107.862 E11.78179
G1 X133.219 Y107.981 E11.80665
G1 X133.941 Y108.179 E11.83155
G1 X134.637 Y108.452 E11.85642
G1 X135.3 Y108.799 E11.88131
G1 X135.923 Y109.214 E11.9062
G1 X136.497 Y109.693 E11.93107
G1 X137.018 Y110.23 E11.95595
G1 X137.477 Y110.82 E11.98082
G1 X137.872 Y111.456 E12.00572
G1 X138.196 Y112.13 E12.03059
G1 X138.446 Y112.835 E12.05547
G1 X138.62 Y113.563 E12.08037
G1 X138.715 Y114.305 E12.10525
G1 X138.734 Y114.828 E12.12265
G1 X138.716 Y135.761 E12.81889
G1 X138.675 Y136.508 E12.84377
G1 X138.555 Y137.246 E12.86864
G1 X138.357 Y137.968 E12.89354
G1 X138.083 Y138.664 E12.91842
G1 X137.736 Y139.327 E12.94331
G1 X137.321 Y139.949 E12.96818
G1 X136.841 Y140.523 E12.99306
G1 X136.303 Y141.042 E13.01793
G1 X135.713 Y141.502 E13.04281
G1 X135.077 Y141.896 E13.06769
G1 X134.402 Y142.219 E13.09258
G1 X133.697 Y142.469 E13.11746
G1 X132.969 Y142.642 E13.14235
G1 X132.227 Y142.736 E13.16722
G1 X131.525 Y142.752 E13.19058
G1 X107.521 Y142.097 E13.98925
G1 X106.775 Y142.037 E14.01414
G1 X106.041 Y141.898 E14.03899
G1 X105.325 Y141.68 E14.06388
G1 X104.636 Y141.388 E14.08877
G1 X103.983 Y141.024 E14.11364
G1 X103.372 Y140.592 E14.13853
G1 X102.81 Y140.098 E14.16341
G1 X102.29 Y139.527 E14.1891
G1 X102.121 Y139.32 E14.19799
G1 X97.826 Y134.012 E14.42509
G1 X97.387 Y133.407 E14.44995
G1 X97.015 Y132.757 E14.47486
G1 X96.715 Y132.072 E14.49973
G1 X96.489 Y131.359 E14.52461
G1 X96.341 Y130.626 E14.54948
G1 X96.272 Y129.881 E14.57437
G1 X96.283 Y129.133 E14.59925
G1 X96.374 Y128.39 E14.62415
G1 X96.543 Y127.662 E14.649
G1 X96.79 Y126.955 E14.67391
G1 X97.11 Y126.279 E14.69879
G1 X97.699 Y125.366 E14.73492
G1 X99.371 Y123.172 E14.82667
G1 X121.713 Y93.87 E16.05224
G0 F6000 X122.032 Y94.112
G1 F1200 X122.503 Y93.56 E16.07637
G1 X123.032 Y93.062 E16.10054
G1 X123.613 Y92.626 E16.1247
G1 X124.239 Y92.257 E16.14887
G1 X124.901 Y91.958 E16.17303
G1 X125.592 Y91.734 E16.19719
G1 X126.303 Y91.587 E16.22134
G1 X127.28 Y91.514 E16.25392
G1 X127.994 Y91.514 E16.27767
G1 X128.719 Y91.554 E16.30182
G1 X129.436 Y91.673 E16.32599
G1 X130.135 Y91.871 E16.35016
G1 X130.808 Y92.144 E16.37431
G1 X131.447 Y92.489 E16.39847
G1 X132.044 Y92.903 E16.42263
G1 X132.592 Y93.379 E16.44677
G1 X133.085 Y93.913 E16.47094
G1 X133.515 Y94.498 E16.49509
G1 X133.879 Y95.127 E16.51926
G1 X134.172 Y95.792 E16.54343
G1 X134.39 Y96.485 E16.5676
G1 X134.53 Y97.197 E16.59173
G1 X134.591 Y97.908 E16.61547
G1 X134.65 Y99.797 E16.67832
G1 X134.632 Y100.523 E16.70248
G1 X134.535 Y101.243 E16.72664
G1 X134.36 Y101.948 E16.7508
G1 X134.108 Y102.629 E16.77495
G1 X133.783 Y103.279 E16.79912
G1 X133.301 Y104.005 E16.82811
G1 X130.072 Y108.24 E17.00524
G1 X130.332 Y108.222 E17.01391
G1 X131.734 Y108.222 E17.06054
G1 X132.459 Y108.262 E17.08469
G1 X133.176 Y108.381 E17.10886
G1 X133.875 Y108.579 E17.13302
G1 X134.548 Y108.852 E17.15718
G1 X135.187 Y109.197 E17.18133
G1 X135.784 Y109.611 E17.2055
G1 X136.332 Y110.087 E17.22964
G1 X136.825 Y110.621 E17.25381
G1 X137.255 Y111.206 E17.27796
G1 X137.619 Y111.835 E17.30213
G1 X137.912 Y112.5 E17.3263
G1 X138.13 Y113.193 E17.35046
G1 X138.27 Y113.905 E17.3746
G1 X138.334 Y114.828 E17.40537
G1 X138.316 Y135.761 E18.10161
G1 X138.275 Y136.486 E18.12576
G1 X138.155 Y137.202 E18.1499
G1 X137.957 Y137.901 E18.17407
G1 X137.684 Y138.574 E18.19822
G1 X137.338 Y139.213 E18.22239
G1 X136.924 Y139.809 E18.24653
G1 X136.447 Y140.357 E18.27069
G1 X135.912 Y140.849 E18.29487
G1 X135.327 Y141.279 E18.31902
G1 X134.698 Y141.643 E18.34319
G1 X134.033 Y141.935 E18.36734
G1 X133.34 Y142.152 E18.3915
G1 X132.627 Y142.292 E18.41566
G1 X131.903 Y142.352 E18.43983
G1 X131.536 Y142.353 E18.45203
G1 X107.532 Y141.698 E19.25071
G1 X106.808 Y141.638 E19.27487
G1 X106.095 Y141.499 E19.29903
G1 X105.402 Y141.282 E19.32318
G1 X104.736 Y140.991 E19.34736
G1 X104.107 Y140.628 E19.37151
G1 X103.521 Y140.199 E19.39567
G1 X102.986 Y139.707 E19.41984
G1 X102.599 Y139.274 E19.43916
G1 X102.43 Y139.067 E19.44804
G1 X98.136 Y133.761 E19.67507
G1 X97.711 Y133.172 E19.69923
G1 X97.353 Y132.54 E19.72339
G1 X97.067 Y131.872 E19.74756
G1 X96.856 Y131.177 E19.77171
G1 X96.723 Y130.463 E19.79587
G1 X96.668 Y129.739 E19.82002
G1 X96.694 Y129.013 E19.84418
G1 X96.799 Y128.294 E19.86835
G1 X96.983 Y127.592 E19.89249
G1 X97.243 Y126.913 E19.91667
G1 X97.575 Y126.268 E19.9408
G1 X98.018 Y125.609 E19.96721
G1 X99.69 Y123.415 E20.05896
G1 X122.032 Y94.112 E21.28455
G0 F6000 X122.35 Y94.355
G1 F1200 X122.808 Y93.82 E21.30797
G1 X123.323 Y93.341 E21.33137
G1 X123.89 Y92.923 E21.3548
G1 X124.5 Y92.572 E21.3782
G1 X125.146 Y92.293 E21.40161
G1 X125.82 Y92.088 E21.42504
G1 X126.512 Y91.962 E21.44843
G1 X127.28 Y91.914 E21.47403
G1 X127.994 Y91.914 E21.49778
G1 X128.697 Y91.954 E21.5212
G1 X129.391 Y92.073 E21.54461
G1 X130.066 Y92.271 E21.56801
G1 X130.715 Y92.543 E21.59142
G1 X131.329 Y92.888 E21.61484
G1 X131.9 Y93.299 E21.63824
G1 X132.421 Y93.773 E21.66167
G1 X132.885 Y94.303 E21.6851
G1 X133.285 Y94.882 E21.7085
G1 X133.617 Y95.503 E21.73192
G1 X133.877 Y96.157 E21.75533
G1 X134.061 Y96.837 E21.77876
G1 X134.167 Y97.533 E21.80218
G1 X134.191 Y97.92 E21.81507
G1 X134.25 Y99.809 E21.87793
G1 X134.232 Y100.513 E21.90136
G1 X134.134 Y101.21 E21.92477
G1 X133.958 Y101.892 E21.94819
G1 X133.706 Y102.549 E21.9716
G1 X133.381 Y103.174 E21.99503
G1 X132.983 Y103.762 E22.01864
G1 X129.192 Y108.734 E22.2266
G1 X129.751 Y108.649 E22.2454
G1 X130.332 Y108.622 E22.26475
G1 X131.734 Y108.622 E22.31138
G1 X132.437 Y108.662 E22.3348
G1 X133.131 Y108.781 E22.35822
G1 X133.806 Y108.979 E22.38162
G1 X134.455 Y109.251 E22.40502
G1 X135.069 Y109.596 E22.42845
G1 X135.64 Y110.007 E22.45185
G1 X136.161 Y110.481 E22.47527
G1 X136.625 Y111.011 E22.4987
G1 X137.025 Y111.59 E22.52211
G1 X137.357 Y112.211 E22.54553
G1 X137.617 Y112.865 E22.56894
G1 X137.801 Y113.545 E22.59237
G1 X137.907 Y114.241 E22.61578
G1 X137.934 Y114.827 E22.63529
G1 X137.916 Y135.76 E23.33153
G1 X137.875 Y136.463 E23.35495
G1 X137.755 Y137.157 E23.37838
G1 X137.558 Y137.832 E23.40176
G1 X137.284 Y138.481 E23.42519
G1 X136.939 Y139.095 E23.44862
G1 X136.527 Y139.666 E23.47204
G1 X136.053 Y140.186 E23.49544
G1 X135.523 Y140.649 E23.51885
G1 X134.943 Y141.049 E23.54228
G1 X134.322 Y141.381 E23.5657
G1 X133.668 Y141.64 E23.5891
G1 X132.988 Y141.823 E23.61252
G1 X132.292 Y141.928 E23.63593
G1 X131.547 Y141.953 E23.66072
G1 X107.543 Y141.298 E24.4594
G1 X106.841 Y141.239 E24.48283
G1 X106.151 Y141.1 E24.50624
G1 X105.481 Y140.885 E24.52964
G1 X104.84 Y140.594 E24.55305
G1 X104.235 Y140.233 E24.57649
G1 X103.676 Y139.806 E24.59988
G1 X103.168 Y139.318 E24.62331
G1 X102.909 Y139.021 E24.63642
G1 X102.74 Y138.814 E24.64531
G1 X98.447 Y133.509 E24.87229
G1 X98.036 Y132.938 E24.89569
G1 X97.693 Y132.323 E24.91911
G1 X97.421 Y131.674 E24.94251
G1 X97.225 Y130.998 E24.96592
G1 X97.106 Y130.304 E24.98934
G1 X97.067 Y129.601 E25.01276
G1 X97.108 Y128.898 E25.03618
G1 X97.228 Y128.205 E25.05958
G1 X97.426 Y127.529 E25.083
G1 X97.7 Y126.88 E25.10643
G1 X98.045 Y126.267 E25.12983
G1 X98.336 Y125.851 E25.14672
G1 X100.008 Y123.657 E25.23846
G1 X122.35 Y94.355 E26.46403
G0 F6000 X122.668 Y94.597
G1 F1200 X123.112 Y94.081 E26.48667
G1 X123.613 Y93.62 E26.50932
G1 X124.165 Y93.222 E26.53195
G1 X124.76 Y92.89 E26.55461
G1 X125.389 Y92.631 E26.57724
G1 X126.045 Y92.447 E26.5999
G1 X126.717 Y92.341 E26.62253
G1 X127.28 Y92.314 E26.64127
G1 X127.994 Y92.314 E26.66502
G1 X128.674 Y92.354 E26.68768
G1 X129.344 Y92.473 E26.71031
G1 X129.996 Y92.67 E26.73296
G1 X130.62 Y92.942 E26.7556
G1 X131.208 Y93.286 E26.77826
G1 X131.752 Y93.696 E26.80092
G1 X132.243 Y94.167 E26.82355
G1 X132.677 Y94.692 E26.8462
G1 X133.046 Y95.264 E26.86884
G1 X133.345 Y95.876 E26.8915
G1 X133.57 Y96.518 E26.91412
G1 X133.719 Y97.183 E26.93679
G1 X133.791 Y97.933 E26.96185
G1 X133.85 Y99.822 E27.02471
G1 X133.831 Y100.503 E27.04737
G1 X133.733 Y101.176 E27.06999
G1 X133.556 Y101.834 E27.09265
G1 X133.304 Y102.466 E27.11528
G1 X132.979 Y103.065 E27.13795
G1 X132.665 Y103.52 E27.15634
G1 X128.14 Y109.455 E27.40456
G1 X128.736 Y109.246 E27.42557
G1 X129.401 Y109.097 E27.44824
G1 X130.332 Y109.022 E27.4793
G1 X131.734 Y109.022 E27.52593
G1 X132.414 Y109.062 E27.54859
G1 X133.084 Y109.181 E27.57122
G1 X133.736 Y109.378 E27.59388
G1 X134.36 Y109.65 E27.61652
G1 X134.948 Y109.994 E27.63917
G1 X135.492 Y110.404 E27.66183
G1 X135.983 Y110.875 E27.68446
G1 X136.417 Y111.4 E27.70712
G1 X136.786 Y111.972 E27.72976
G1 X137.085 Y112.584 E27.75241
G1 X137.31 Y113.226 E27.77504
G1 X137.459 Y113.891 E27.7977
G1 X137.534 Y114.827 E27.82893
G1 X137.516 Y135.76 E28.52517
G1 X137.475 Y136.44 E28.54783
G1 X137.356 Y137.11 E28.57046
G1 X137.158 Y137.761 E28.59309
G1 X136.885 Y138.385 E28.61575
G1 X136.541 Y138.973 E28.6384
