;FLAVOR:Marlin
;TIME:1492
;Filament used: 0.272907m
;Layer height: 0.12
;MINX:96.94
;MINY:96.939
;MINZ:0.12
;MAXX:138.5
;MAXY:138.5
;MAXZ:19.32
;Generated with Cura_SteamEngine 4.8.0
M82 ;absolute extrusion mode
; Ender 3 Custom Start G-code
M117 Getting the bed up to temp!
M140 S60 ; Set Heat Bed temperature
M190 S60 ; Wait for Heat Bed temperature
M117 Pre-heating the extruder!
M104 S160; start warming extruder to 160
G28 ; Home all axes
M117 Auto bed-level GO!
G29 ; Auto bed-level (BL-Touch)
G92 E0 ; Reset Extruder
M117 Getting the extruder up to temp!
M104 S190 ; Set Extruder temperature
M109 S190 ; Wait for Extruder temperature
G1 Z1.0 F3000 ; move z up little to prevent scratching of surface
G1 X0.1 Y20 Z0.3 F5000.0 ; move to start-line position
M117 LET THE PURGE BEGIN!
G1 X0.1 Y200.0 Z0.3 F1500.0 E15 ; draw 1st line
G1 X0.4 Y200.0 Z0.3 F5000.0 ; move to side a little
G1 X0.4 Y20 Z0.3 F1500.0 E30 ; draw 2nd line
G92 E0 ; reset extruder
G1 Z1.0 F3000 ; move z up little to prevent scratching of surface
M117 Autobots! Roll Out!
; End of custom start GCode
G92 E0
G92 E0
G1 F3000 E-8
;LAYER_COUNT:166
;LAYER:0
M107
G0 F6000 X100.136 Y100.206 Z0.12
;TYPE:SKIRT
G1 F3000 E0
G1 F1200 X100.824 Y99.569 E0.01871
G1 X101.564 Y98.992 E0.03744
G1 X102.35 Y98.481 E0.05615
G1 X103.177 Y98.038 E0.07487
G1 X104.038 Y97.668 E0.09357
G1 X104.928 Y97.372 E0.11229
G1 X105.84 Y97.153 E0.131
G1 X106.768 Y97.013 E0.14973
G1 X107.623 Y96.954 E0.16684
G1 X107.927 Y96.945 E0.17291
G1 X108.252 Y96.94 E0.17939
G1 X126.79 Y96.939 E0.54934
G1 X127.647 Y96.95 E0.56644
G1 X128.584 Y97.004 E0.58517
G1 X129.512 Y97.136 E0.60388
G1 X130.426 Y97.348 E0.6226
G1 X131.318 Y97.637 E0.64131
G1 X132.183 Y98 E0.66003
G1 X133.013 Y98.436 E0.67874
G1 X133.803 Y98.941 E0.69745
G1 X134.548 Y99.512 E0.71619
G1 X135.241 Y100.144 E0.7349
G1 X135.878 Y100.832 E0.75361
G1 X136.453 Y101.573 E0.77233
G1 X136.964 Y102.359 E0.79104
G1 X137.406 Y103.187 E0.80977
G1 X137.775 Y104.048 E0.82846
G1 X138.07 Y104.939 E0.8472
G1 X138.288 Y105.851 E0.86591
G1 X138.428 Y106.778 E0.88462
G1 X138.485 Y107.625 E0.90156
G1 X138.495 Y107.964 E0.90833
G1 X138.5 Y108.288 E0.91479
G1 X138.499 Y126.9 E1.28622
G1 X138.49 Y127.627 E1.30072
G1 X138.439 Y128.564 E1.31945
G1 X138.307 Y129.492 E1.33816
G1 X138.098 Y130.406 E1.35687
G1 X137.811 Y131.299 E1.37559
G1 X137.449 Y132.165 E1.39432
G1 X137.015 Y132.996 E1.41303
G1 X136.511 Y133.787 E1.43174
G1 X135.942 Y134.532 E1.45045
G1 X135.311 Y135.227 E1.46918
G1 X134.624 Y135.865 E1.48789
G1 X133.885 Y136.442 E1.5066
G1 X133.099 Y136.954 E1.52532
G1 X132.273 Y137.397 E1.54403
G1 X131.411 Y137.769 E1.56276
G1 X130.522 Y138.065 E1.58146
G1 X129.61 Y138.285 E1.60018
G1 X128.683 Y138.426 E1.6189
G1 X127.799 Y138.487 E1.63658
G1 X127.478 Y138.496 E1.64299
G1 X127.17 Y138.5 E1.64914
G1 X108.505 Y138.499 E2.02162
G1 X107.807 Y138.49 E2.03555
G1 X106.871 Y138.438 E2.05425
G1 X105.942 Y138.306 E2.07298
G1 X105.028 Y138.096 E2.09169
G1 X104.135 Y137.809 E2.11041
G1 X103.27 Y137.446 E2.12913
G1 X102.439 Y137.012 E2.14784
G1 X101.648 Y136.508 E2.16656
G1 X100.903 Y135.938 E2.18528
G1 X100.209 Y135.307 E2.204
G1 X99.572 Y134.62 E2.22269
G1 X98.995 Y133.88 E2.24142
G1 X98.483 Y133.094 E2.26014
G1 X98.04 Y132.267 E2.27886
G1 X97.669 Y131.406 E2.29757
G1 X97.373 Y130.516 E2.31629
G1 X97.154 Y129.604 E2.33501
G1 X97.013 Y128.677 E2.35372
G1 X96.953 Y127.788 E2.3715
G1 X96.944 Y127.455 E2.37815
G1 X96.94 Y127.158 E2.38407
G1 X96.941 Y108.479 E2.75683
G1 X96.95 Y107.803 E2.77033
G1 X97.002 Y106.866 E2.78905
G1 X97.134 Y105.938 E2.80776
G1 X97.345 Y105.024 E2.82648
G1 X97.633 Y104.131 E2.8452
G1 X97.996 Y103.266 E2.86392
G1 X98.431 Y102.435 E2.88264
G1 X98.935 Y101.645 E2.90134
G1 X99.505 Y100.9 E2.92006
G1 X100.136 Y100.206 E2.93878
G0 F6000 X100.528 Y100.38
G1 F1200 X101.213 Y99.765 E2.95715
G1 X101.948 Y99.211 E2.97552
G1 X102.729 Y98.723 E2.9939
G1 X103.549 Y98.305 E3.01226
G1 X104.403 Y97.96 E3.03065
G1 X105.283 Y97.69 E3.04901
G1 X106.183 Y97.497 E3.06738
G1 X107.097 Y97.383 E3.08576
G1 X107.635 Y97.354 E3.09652
G1 X107.939 Y97.345 E3.10259
G1 X108.252 Y97.34 E3.10883
G1 X126.79 Y97.339 E3.47878
G1 X127.642 Y97.35 E3.49578
G1 X128.561 Y97.403 E3.51415
G1 X129.472 Y97.536 E3.53253
G1 X130.368 Y97.747 E3.5509
G1 X131.242 Y98.035 E3.56926
G1 X132.088 Y98.398 E3.58763
G1 X132.9 Y98.833 E3.60601
G1 X133.67 Y99.337 E3.62438
G1 X134.394 Y99.906 E3.64276
G1 X135.066 Y100.535 E3.66112
G1 X135.681 Y101.221 E3.67951
G1 X136.234 Y101.957 E3.69788
G1 X136.721 Y102.738 E3.71625
G1 X137.138 Y103.559 E3.73462
G1 X137.483 Y104.413 E3.75301
G1 X137.752 Y105.293 E3.77137
G1 X137.944 Y106.193 E3.78973
G1 X138.057 Y107.107 E3.80811
G1 X138.085 Y107.636 E3.81868
G1 X138.095 Y107.975 E3.82545
G1 X138.1 Y108.288 E3.8317
G1 X138.099 Y126.895 E4.20302
G1 X138.09 Y127.622 E4.21753
G1 X138.039 Y128.541 E4.2359
G1 X137.908 Y129.453 E4.25429
G1 X137.698 Y130.349 E4.27265
G1 X137.412 Y131.224 E4.29102
G1 X137.051 Y132.071 E4.3094
G1 X136.617 Y132.883 E4.32777
G1 X136.115 Y133.655 E4.34615
G1 X135.547 Y134.38 E4.36453
G1 X134.919 Y135.053 E4.3829
G1 X134.235 Y135.669 E4.40126
G1 X133.5 Y136.223 E4.41963
G1 X132.72 Y136.712 E4.438
G1 X131.9 Y137.131 E4.45638
G1 X131.047 Y137.477 E4.47475
G1 X130.167 Y137.748 E4.49313
G1 X129.267 Y137.941 E4.51149
G1 X128.353 Y138.056 E4.52988
G1 X127.788 Y138.087 E4.54117
G1 X127.467 Y138.096 E4.54758
G1 X127.17 Y138.1 E4.55351
G1 X108.51 Y138.099 E4.92589
G1 X107.812 Y138.09 E4.93982
G1 X106.893 Y138.038 E4.95819
G1 X105.982 Y137.907 E4.97655
G1 X105.086 Y137.697 E4.99492
G1 X104.211 Y137.41 E5.01329
G1 X103.364 Y137.048 E5.03168
G1 X102.552 Y136.614 E5.05005
G1 X101.781 Y136.112 E5.06841
G1 X101.056 Y135.544 E5.08679
G1 X100.383 Y134.915 E5.10517
G1 X99.768 Y134.231 E5.12353
G1 X99.214 Y133.496 E5.1419
G1 X98.726 Y132.715 E5.16027
G1 X98.307 Y131.895 E5.17865
G1 X97.961 Y131.042 E5.19702
G1 X97.691 Y130.162 E5.21539
G1 X97.498 Y129.261 E5.23378
G1 X97.384 Y128.348 E5.25214
G1 X97.353 Y127.777 E5.26355
G1 X97.344 Y127.444 E5.2702
G1 X97.34 Y127.158 E5.27591
G1 X97.341 Y108.484 E5.64857
G1 X97.35 Y107.808 E5.66206
G1 X97.402 Y106.889 E5.68043
G1 X97.534 Y105.978 E5.6988
G1 X97.744 Y105.081 E5.71718
G1 X98.032 Y104.207 E5.73555
G1 X98.394 Y103.36 E5.75393
G1 X98.828 Y102.548 E5.7723
G1 X99.331 Y101.777 E5.79067
G1 X99.899 Y101.053 E5.80904
G1 X100.528 Y100.38 E5.82742
G0 F6000 X100.919 Y100.558
G1 F1200 X101.601 Y99.965 E5.84546
G1 X102.332 Y99.435 E5.86347
G1 X103.107 Y98.972 E5.88149
G1 X103.92 Y98.579 E5.89951
G1 X104.764 Y98.259 E5.91752
G1 X105.634 Y98.015 E5.93556
G1 X106.522 Y97.849 E5.95358
G1 X107.647 Y97.753 E5.97612
G1 X107.951 Y97.744 E5.98218
G1 X108.252 Y97.74 E5.98819
G1 X126.79 Y97.739 E6.35814
G1 X127.636 Y97.75 E6.37502
G1 X128.537 Y97.803 E6.39303
G1 X129.431 Y97.935 E6.41107
G1 X130.309 Y98.146 E6.42909
G1 X131.165 Y98.434 E6.44711
G1 X131.992 Y98.796 E6.46513
G1 X132.784 Y99.23 E6.48315
G1 X133.535 Y99.733 E6.50119
G1 X134.238 Y100.3 E6.51921
G1 X134.888 Y100.927 E6.53723
G1 X135.48 Y101.609 E6.55526
G1 X136.009 Y102.34 E6.57326
G1 X136.472 Y103.116 E6.5913
G1 X136.864 Y103.929 E6.60931
G1 X137.183 Y104.774 E6.62733
G1 X137.426 Y105.644 E6.64536
G1 X137.591 Y106.532 E6.66338
G1 X137.686 Y107.648 E6.68573
G1 X137.696 Y107.987 E6.6925
G1 X137.7 Y108.288 E6.69851
G1 X137.699 Y126.89 E7.06973
G1 X137.69 Y127.617 E7.08424
G1 X137.639 Y128.519 E7.10227
G1 X137.508 Y129.413 E7.1203
G1 X137.299 Y130.291 E7.13831
G1 X137.013 Y131.148 E7.15634
G1 X136.652 Y131.976 E7.17437
G1 X136.22 Y132.768 E7.19237
G1 X135.719 Y133.52 E7.2104
G1 X135.153 Y134.224 E7.22843
G1 X134.528 Y134.875 E7.24644
G1 X133.847 Y135.469 E7.26447
G1 X133.116 Y136 E7.2825
G1 X132.342 Y136.464 E7.30051
G1 X131.529 Y136.858 E7.31854
G1 X130.685 Y137.178 E7.33656
G1 X129.815 Y137.423 E7.35459
G1 X128.928 Y137.589 E7.3726
G1 X127.777 Y137.687 E7.39565
G1 X127.456 Y137.696 E7.40206
G1 X127.17 Y137.7 E7.40777
G1 X108.515 Y137.699 E7.78005
G1 X107.817 Y137.69 E7.79398
G1 X106.916 Y137.639 E7.81199
G1 X106.022 Y137.507 E7.83002
G1 X105.144 Y137.298 E7.84804
G1 X104.287 Y137.011 E7.86607
G1 X103.46 Y136.65 E7.88408
G1 X102.667 Y136.217 E7.90211
G1 X101.916 Y135.716 E7.92013
G1 X101.212 Y135.15 E7.93815
G1 X100.561 Y134.524 E7.95618
G1 X99.968 Y133.843 E7.9742
G1 X99.438 Y133.112 E7.99221
G1 X98.974 Y132.337 E8.01024
G1 X98.58 Y131.524 E8.02827
G1 X98.26 Y130.68 E8.04628
G1 X98.016 Y129.81 E8.06431
G1 X97.85 Y128.922 E8.08234
G1 X97.753 Y127.767 E8.10547
G1 X97.744 Y127.434 E8.11212
G1 X97.74 Y127.158 E8.11763
G1 X97.741 Y108.489 E8.49019
G1 X97.75 Y107.813 E8.50368
G1 X97.802 Y106.912 E8.52169
G1 X97.933 Y106.018 E8.53972
G1 X98.143 Y105.14 E8.55774
G1 X98.43 Y104.283 E8.57577
G1 X98.792 Y103.456 E8.59379
G1 X99.225 Y102.664 E8.6118
G1 X99.727 Y101.913 E8.62983
G1 X100.293 Y101.209 E8.64786
G1 X100.919 Y100.558 E8.66588
G1 F3000 E0.66588
;MESH:four_square_cons.stl
G0 F6000 X107.528 Y107.529
G0 X108.354 Y108.354
G0 X108.94 Y126.5
;TYPE:WALL-INNER
G1 F3000 E8.66588
G1 F1200 X108.94 Y108.94 E9.01631
G1 X126.301 Y108.939 E9.36277
G1 X126.5 Y108.939 E9.36674
G1 X126.5 Y109.138 E9.36931
G1 X126.5 Y126.5 E9.71578
G1 X108.94 Y126.5 E10.06621
G0 F6000 X108.54 Y126.9
G1 F1200 X108.54 Y108.54 E10.43261
G1 X126.701 Y108.539 E10.79503
G1 X126.9 Y108.539 E10.799
G1 X126.9 Y108.738 E10.80157
G1 X126.9 Y126.9 E11.16401
G1 X108.54 Y126.9 E11.5304
G0 F6000 X108.14 Y127.3
;TYPE:WALL-OUTER
G1 F1200 X108.14 Y108.14 E11.91276
G1 X127.3 Y108.139 E12.29512
G1 X127.3 Y127.3 E12.6775
G1 X108.14 Y127.3 E13.05986
G0 F6000 X108.41 Y127.03
G0 X109.05 Y126.11
G0 X109.33 Y126.11
;TYPE:SKIN
G1 F1200 X109.33 Y109.33 E13.39472
G1 X126.11 Y109.329 E13.72958
G1 X126.11 Y126.11 E14.06447
G1 X109.33 Y126.11 E14.39933
G0 F6000 X110.109 Y125.949
G1 F1200 X109.489 Y125.329 E14.41683
G0 F6000 X109.489 Y124.763
G1 F1200 X110.675 Y125.949 E14.4503
G0 F6000 X111.241 Y125.949
G1 F1200 X109.489 Y124.197 E14.49975
G0 F6000 X109.489 Y123.631
G1 F1200 X111.807 Y125.949 E14.56516
G0 F6000 X112.372 Y125.949
G1 F1200 X109.489 Y123.066 E14.64653
G0 F6000 X109.489 Y122.5
G1 F1200 X112.938 Y125.949 E14.74387
G0 F6000 X113.504 Y125.949
G1 F1200 X109.489 Y121.934 E14.85718
G0 F6000 X109.489 Y121.369
G1 F1200 X114.069 Y125.949 E14.98644
G0 F6000 X114.635 Y125.949
G1 F1200 X109.489 Y120.803 E15.13167
G0 F6000 X109.489 Y120.237
G1 F1200 X115.201 Y125.949 E15.29287
G0 F6000 X115.766 Y125.949
G1 F1200 X109.489 Y119.672 E15.47002
G0 F6000 X109.489 Y119.106
G1 F1200 X116.332 Y125.949 E15.66315
G0 F6000 X116.898 Y125.949
G1 F1200 X109.489 Y118.54 E15.87225
G0 F6000 X109.489 Y117.975
G1 F1200 X117.463 Y125.949 E16.09729
G0 F6000 X118.029 Y125.949
G1 F1200 X109.489 Y117.409 E16.33831
G0 F6000 X109.489 Y116.843
G1 F1200 X118.595 Y125.949 E16.5953
G0 F6000 X119.16 Y125.949
G1 F1200 X109.489 Y116.278 E16.86823
G0 F6000 X109.489 Y115.712
G1 F1200 X119.726 Y125.949 E17.15714
G0 F6000 X120.292 Y125.949
G1 F1200 X109.489 Y115.146 E17.46203
G0 F6000 X109.489 Y114.58
G1 F1200 X120.857 Y125.949 E17.78287
G0 F6000 X121.423 Y125.949
G1 F1200 X109.489 Y114.015 E18.11967
G0 F6000 X109.489 Y113.449
G1 F1200 X121.989 Y125.949 E18.47245
G0 F6000 X122.555 Y125.949
G1 F1200 X109.489 Y112.883 E18.8412
G0 F6000 X109.489 Y112.318
G1 F1200 X123.12 Y125.949 E19.2259
G0 F6000 X123.686 Y125.949
G1 F1200 X109.489 Y111.752 E19.62657
G0 F6000 X109.489 Y111.186
G1 F1200 X124.252 Y125.949 E20.04321
G0 F6000 X124.817 Y125.949
G1 F1200 X109.489 Y110.621 E20.4758
G0 F6000 X109.489 Y110.055
G1 F1200 X125.383 Y125.949 E20.92436
G0 F6000 X125.949 Y125.949
G1 F1200 X109.489 Y109.489 E21.3889
G0 F6000 X110.055 Y109.489
G1 F1200 X125.949 Y125.384 E21.83748
G0 F6000 X125.949 Y124.818
G1 F1200 X110.621 Y109.489 E22.27008
G0 F6000 X111.186 Y109.489
G1 F1200 X125.949 Y124.252 E22.68673
G0 F6000 X125.949 Y123.687
G1 F1200 X111.752 Y109.489 E23.08741
G0 F6000 X112.318 Y109.489
G1 F1200 X125.949 Y123.121 E23.47212
G0 F6000 X125.949 Y122.555
G1 F1200 X112.883 Y109.489 E23.84087
G0 F6000 X113.449 Y109.489
G1 F1200 X125.949 Y121.99 E24.19366
G0 F6000 X125.949 Y121.424
G1 F1200 X114.015 Y109.489 E24.53048
G0 F6000 X114.58 Y109.489
G1 F1200 X125.949 Y120.858 E24.85134
G0 F6000 X125.949 Y120.293
G1 F1200 X115.146 Y109.489 E25.15624
G0 F6000 X115.712 Y109.489
G1 F1200 X125.949 Y119.727 E25.44516
G0 F6000 X125.949 Y119.161
G1 F1200 X116.278 Y109.489 E25.71811
G0 F6000 X116.843 Y109.489
G1 F1200 X125.949 Y118.595 E25.9751
G0 F6000 X125.949 Y118.03
G1 F1200 X117.409 Y109.489 E26.21613
G0 F6000 X117.975 Y109.489
G1 F1200 X125.949 Y117.464 E26.44119
G0 F6000 X125.949 Y116.898
G1 F1200 X118.54 Y109.489 E26.65029
G0 F6000 X119.106 Y109.489
G1 F1200 X125.949 Y116.333 E26.84343
G0 F6000 X125.949 Y115.767
G1 F1200 X119.672 Y109.489 E27.02059
G0 F6000 X120.237 Y109.489
G1 F1200 X125.949 Y115.201 E27.1818
G0 F6000 X125.949 Y114.636
G1 F1200 X120.803 Y109.489 E27.32704
G0 F6000 X121.369 Y109.489
G1 F1200 X125.949 Y114.07 E27.45631
G0 F6000 X125.949 Y113.504
G1 F1200 X121.934 Y109.489 E27.56963
G0 F6000 X122.5 Y109.489
G1 F1200 X125.949 Y112.939 E27.66698
G0 F6000 X125.949 Y112.373
G1 F1200 X123.066 Y109.489 E27.74836
G0 F6000 X123.631 Y109.489
G1 F1200 X125.949 Y111.807 E27.81378
G0 F6000 X125.949 Y111.242
G1 F1200 X124.197 Y109.489 E27.86323
G0 F6000 X124.763 Y109.489
G1 F1200 X125.949 Y110.676 E27.89672
G0 F6000 X125.949 Y110.11
G1 F1200 X125.329 Y109.489 E27.91423
M104 S190
G0 F6000 X125.329 Y108.749
G1 F3000 E19.91423
;MESH:NONMESH
G0 F300 X125.329 Y108.749 Z0.24
G0 F6000 X109.122 Y109.122
G0 X108.82 Y126.5
;TIME_ELAPSED:81.190904
;LAYER:1
M106 S85
;TYPE:WALL-INNER
;MESH:four_square_cons.stl
G1 F3000 E27.91423
G1 F1350 X108.82 Y108.82 E28.26706
G1 X126.301 Y108.819 E28.61591
G1 X126.5 Y108.819 E28.61988
G1 X126.5 Y109.018 E28.62245
G1 X126.5 Y126.5 E28.97132
G1 X108.82 Y126.5 E29.32414
G0 F7500 X108.42 Y126.9
G1 F1350 X108.42 Y108.42 E29.69293
G1 X126.701 Y108.419 E30.05775
G1 X126.9 Y108.419 E30.06172
G1 X126.9 Y108.618 E30.06429
G1 X126.9 Y126.9 E30.42913
G1 X108.42 Y126.9 E30.79792
G0 F7500 X108.02 Y127.3
;TYPE:WALL-OUTER
G1 F1350 X108.02 Y108.02 E31.18267
G1 X127.3 Y108.019 E31.56742
G1 X127.3 Y127.3 E31.9522
G1 X108.02 Y127.3 E32.33695
G0 F7500 X108.29 Y127.03
G0 X108.93 Y126.11
G0 X109.21 Y126.11
;TYPE:SKIN
G1 F1350 X109.21 Y109.21 E32.67421
G1 X126.11 Y109.209 E33.01146
G1 X126.11 Y126.11 E33.34874
G1 X109.21 Y126.11 E33.686
G0 F7500 X108.93 Y126.11
G0 X108.93 Y109.549
G0 X109.37 Y109.549
G1 F1350 X109.551 Y109.368 E33.69111
G0 F7500 X110.117 Y109.368
G1 F1350 X109.37 Y110.115 E33.71219
G0 F7500 X109.37 Y110.681
G1 F1350 X110.682 Y109.368 E33.74923
G0 F7500 X111.248 Y109.368
G1 F1350 X109.37 Y111.246 E33.80223
G0 F7500 X109.37 Y111.812
G1 F1350 X111.814 Y109.368 E33.87121
G0 F7500 X112.379 Y109.368
G1 F1350 X109.37 Y112.378 E33.95614
G0 F7500 X109.37 Y112.944
G1 F1350 X112.945 Y109.368 E34.05705
G0 F7500 X113.511 Y109.368
G1 F1350 X109.37 Y113.509 E34.17392
G0 F7500 X109.37 Y114.075
G1 F1350 X114.076 Y109.368 E34.30675
G0 F7500 X114.642 Y109.368
G1 F1350 X109.37 Y114.641 E34.45555
G0 F7500 X109.37 Y115.206
G1 F1350 X115.208 Y109.368 E34.62031
G0 F7500 X115.773 Y109.368
G1 F1350 X109.37 Y115.772 E34.80103
G0 F7500 X109.37 Y116.338
G1 F1350 X116.339 Y109.368 E34.99772
G0 F7500 X116.905 Y109.368
G1 F1350 X109.37 Y116.903 E35.21038
G0 F7500 X109.37 Y117.469
G1 F1350 X117.47 Y109.368 E35.43899
G0 F7500 X118.036 Y109.368
G1 F1350 X109.37 Y118.035 E35.68358
G0 F7500 X109.37 Y118.6
G1 F1350 X118.602 Y109.368 E35.94413
G0 F7500 X119.167 Y109.368
G1 F1350 X109.37 Y119.166 E36.22063
G0 F7500 X109.37 Y119.732
G1 F1350 X119.733 Y109.368 E36.51311
G0 F7500 X120.299 Y109.368
G1 F1350 X109.37 Y120.297 E36.82155
G0 F7500 X109.37 Y120.863
G1 F1350 X120.865 Y109.368 E37.14597
G0 F7500 X121.43 Y109.368
G1 F1350 X109.37 Y121.429 E37.48634
G0 F7500 X109.37 Y121.995
G1 F1350 X121.996 Y109.368 E37.84269
G0 F7500 X122.562 Y109.368
G1 F1350 X109.37 Y122.56 E38.21499
G0 F7500 X109.37 Y123.126
G1 F1350 X123.127 Y109.368 E38.60326
G0 F7500 X123.693 Y109.368
G1 F1350 X109.37 Y123.692 E39.0075
