;FLAVOR:Marlin
;TIME:2738
;Filament used: 0.33063m
;Layer height: 0.06
;MINX:102.402
;MINY:102.402
;MINZ:0.12
;MAXX:132.598
;MAXY:132.598
;MAXZ:14.58
;Generated with Cura_SteamEngine 4.8.0
M82 ;absolute extrusion mode
; Ender 3 Custom Start G-code
M117 Getting the bed up to temp!
M140 S60 ; Set Heat Bed temperature
M190 S60 ; Wait for Heat Bed temperature
M117 Pre-heating the extruder!
M104 S160; start warming extruder to 160
G28 ; Home all axes
M117 Auto bed-level GO!
G29 ; Auto bed-level (BL-Touch)
G92 E0 ; Reset Extruder
M117 Getting the extruder up to temp!
M104 S210 ; Set Extruder temperature
M109 S210 ; Wait for Extruder temperature
G1 Z1.0 F3000 ; move z up little to prevent scratching of surface
G1 X0.1 Y20 Z0.3 F5000.0 ; move to start-line position
M117 LET THE PURGE BEGIN!
G1 X0.1 Y200.0 Z0.3 F1500.0 E15 ; draw 1st line
G1 X0.4 Y200.0 Z0.3 F5000.0 ; move to side a little
G1 X0.4 Y20 Z0.3 F1500.0 E30 ; draw 2nd line
G92 E0 ; reset extruder
G1 Z1.0 F3000 ; move z up little to prevent scratching of surface
M117 Autobots! Roll Out!
; End of custom start GCode
G92 E0
G92 E0
G1 F2700 E-5
;LAYER_COUNT:242
;LAYER:0
M107
G0 F6000 X106.877 Y106.79 Z0.12
;TYPE:SKIRT
G1 F2700 E0
G1 F1200 X107.119 Y106.549 E0.00682
G1 X107.816 Y105.921 E0.02554
G1 X108.34 Y105.514 E0.03878
G1 X108.846 Y105.145 E0.05128
G1 X109.184 Y104.908 E0.05951
G1 X109.285 Y104.84 E0.06194
G1 X110.084 Y104.35 E0.08065
G1 X110.6 Y104.081 E0.09226
G1 X111.034 Y103.869 E0.1019
G1 X111.35 Y103.721 E0.10886
G1 X111.559 Y103.627 E0.11344
G1 X112.43 Y103.279 E0.13216
G1 X113.064 Y103.078 E0.14543
G1 X113.532 Y102.945 E0.15514
G1 X113.817 Y102.868 E0.16103
G1 X114.048 Y102.809 E0.16579
G1 X114.966 Y102.616 E0.18451
G1 X115.649 Y102.524 E0.19826
G1 X116.108 Y102.477 E0.20747
G1 X116.374 Y102.453 E0.2128
G1 X116.605 Y102.435 E0.21742
G1 X117.543 Y102.402 E0.23615
G1 X118.245 Y102.43 E0.25017
G1 X118.79 Y102.469 E0.26108
G1 X119.1 Y102.496 E0.26729
G1 X119.29 Y102.515 E0.2711
G1 X120.218 Y102.648 E0.2898
G1 X120.893 Y102.796 E0.30359
G1 X121.316 Y102.903 E0.3123
G1 X121.562 Y102.968 E0.31738
G1 X121.814 Y103.038 E0.3226
G1 X122.706 Y103.328 E0.34132
G1 X123.373 Y103.601 E0.3557
G1 X123.841 Y103.811 E0.36594
G1 X124.171 Y103.966 E0.37321
G1 X124.435 Y104.093 E0.37906
G1 X125.256 Y104.547 E0.39778
G1 X125.715 Y104.842 E0.40867
G1 X126.077 Y105.088 E0.4174
G1 X126.325 Y105.262 E0.42345
G1 X126.529 Y105.409 E0.42847
G1 X127.266 Y105.989 E0.44718
G1 X127.759 Y106.44 E0.46052
G1 X128.202 Y106.87 E0.47284
G1 X128.444 Y107.111 E0.47965
G1 X129.072 Y107.807 E0.49836
G1 X129.481 Y108.333 E0.51166
G1 X129.844 Y108.83 E0.52394
G1 X130.088 Y109.178 E0.53242
G1 X130.162 Y109.288 E0.53507
G1 X130.652 Y110.088 E0.55379
G1 X130.919 Y110.6 E0.56531
G1 X131.131 Y111.034 E0.57495
G1 X131.279 Y111.35 E0.58191
G1 X131.373 Y111.559 E0.58649
G1 X131.721 Y112.43 E0.6052
G1 X131.922 Y113.064 E0.61848
G1 X132.055 Y113.532 E0.62819
G1 X132.132 Y113.817 E0.63408
G1 X132.191 Y114.048 E0.63884
G1 X132.384 Y114.966 E0.65756
G1 X132.476 Y115.649 E0.67131
G1 X132.523 Y116.108 E0.68052
G1 X132.564 Y116.596 E0.69029
G1 X132.598 Y117.533 E0.709
G1 X132.57 Y118.24 E0.72312
G1 X132.531 Y118.787 E0.73406
G1 X132.503 Y119.111 E0.74055
G1 X132.484 Y119.299 E0.74433
G1 X132.35 Y120.227 E0.76304
G1 X132.207 Y120.879 E0.77636
G1 X132.1 Y121.304 E0.7851
G1 X132.029 Y121.573 E0.79066
G1 X131.959 Y121.824 E0.79586
G1 X131.668 Y122.716 E0.81458
G1 X131.405 Y123.359 E0.82844
G1 X131.202 Y123.813 E0.83837
G1 X131.048 Y124.143 E0.84564
G1 X130.907 Y124.435 E0.85211
G1 X130.453 Y125.256 E0.87083
G1 X130.155 Y125.719 E0.88182
G1 X129.906 Y126.085 E0.89065
G1 X129.738 Y126.325 E0.8965
G1 X129.594 Y126.525 E0.90141
G1 X129.014 Y127.262 E0.92013
G1 X128.559 Y127.76 E0.93359
G1 X128.126 Y128.206 E0.946
G1 X127.885 Y128.447 E0.9528
G1 X127.189 Y129.075 E0.97151
G1 X126.667 Y129.481 E0.9847
G1 X126.17 Y129.844 E0.99699
G1 X125.822 Y130.088 E1.00547
G1 X125.712 Y130.162 E1.00811
G1 X124.912 Y130.652 E1.02683
G1 X124.4 Y130.919 E1.03836
G1 X123.966 Y131.131 E1.048
G1 X123.632 Y131.287 E1.05535
G1 X123.422 Y131.381 E1.05994
G1 X122.551 Y131.727 E1.07865
G1 X121.947 Y131.919 E1.0913
G1 X121.488 Y132.05 E1.10082
G1 X121.189 Y132.13 E1.107
G1 X120.95 Y132.191 E1.11192
G1 X120.033 Y132.384 E1.13062
G1 X119.351 Y132.476 E1.14435
G1 X118.892 Y132.523 E1.15356
G1 X118.626 Y132.547 E1.15889
G1 X118.395 Y132.565 E1.16352
G1 X117.457 Y132.598 E1.18225
G1 X116.755 Y132.57 E1.19627
G1 X116.21 Y132.531 E1.20717
G1 X115.843 Y132.499 E1.21452
G1 X115.653 Y132.479 E1.21833
G1 X114.726 Y132.341 E1.23704
G1 X114.131 Y132.209 E1.2492
G1 X113.708 Y132.103 E1.2579
G1 X113.438 Y132.032 E1.26347
G1 X113.186 Y131.962 E1.26869
G1 X112.294 Y131.672 E1.28741
G1 X111.633 Y131.402 E1.30166
G1 X111.162 Y131.191 E1.31196
G1 X110.865 Y131.052 E1.3185
G1 X110.675 Y130.96 E1.32272
G1 X109.849 Y130.516 E1.34143
G1 X109.293 Y130.163 E1.35457
G1 X108.926 Y129.914 E1.36342
G1 X108.675 Y129.738 E1.36954
G1 X108.475 Y129.594 E1.37446
G1 X107.738 Y129.014 E1.39318
G1 X107.238 Y128.558 E1.40668
G1 X106.785 Y128.118 E1.41928
G1 X106.542 Y127.875 E1.42614
G1 X105.915 Y127.177 E1.44486
G1 X105.517 Y126.665 E1.45781
G1 X105.152 Y126.165 E1.47016
G1 X104.924 Y125.839 E1.4781
G1 X104.851 Y125.731 E1.4807
G1 X104.359 Y124.932 E1.49943
G1 X104.071 Y124.381 E1.51183
G1 X103.86 Y123.947 E1.52146
G1 X103.729 Y123.667 E1.52763
G1 X103.635 Y123.459 E1.53219
G1 X103.286 Y122.589 E1.55089
G1 X103.078 Y121.936 E1.56457
G1 X102.945 Y121.468 E1.57428
G1 X102.868 Y121.183 E1.58017
G1 X102.809 Y120.952 E1.58493
G1 X102.616 Y120.034 E1.60365
G1 X102.524 Y119.351 E1.6174
G1 X102.477 Y118.892 E1.62661
G1 X102.436 Y118.404 E1.63638
G1 X102.402 Y117.467 E1.65509
G1 X102.43 Y116.76 E1.66921
G1 X102.469 Y116.213 E1.68016
G1 X102.5 Y115.861 E1.68721
G1 X102.52 Y115.668 E1.69108
G1 X102.656 Y114.74 E1.7098
G1 X102.795 Y114.11 E1.72267
G1 X102.901 Y113.69 E1.73132
G1 X102.971 Y113.427 E1.73675
G1 X103.041 Y113.176 E1.74195
G1 X103.332 Y112.284 E1.76067
G1 X103.595 Y111.642 E1.77452
G1 X103.806 Y111.17 E1.78484
G1 X103.977 Y110.805 E1.79288
G1 X104.093 Y110.565 E1.7982
G1 X104.547 Y109.744 E1.81692
G1 X104.845 Y109.281 E1.82791
G1 X105.094 Y108.915 E1.83674
G1 X105.262 Y108.675 E1.84259
G1 X105.406 Y108.475 E1.84751
G1 X105.986 Y107.738 E1.86622
G1 X106.441 Y107.239 E1.8797
G1 X106.877 Y106.79 E1.89219
G0 F6000 X107.164 Y107.069
G1 F1200 X107.399 Y106.834 E1.89882
G1 X108.083 Y106.219 E1.91718
G1 X108.575 Y105.837 E1.92961
G1 X109.081 Y105.468 E1.94211
G1 X109.407 Y105.24 E1.95004
G1 X109.508 Y105.172 E1.95247
G1 X110.293 Y104.692 E1.97084
G1 X110.776 Y104.441 E1.9817
G1 X111.21 Y104.229 E1.99134
G1 X111.514 Y104.086 E1.99804
G1 X111.723 Y103.992 E2.00262
G1 X112.578 Y103.651 E2.02099
G1 X113.173 Y103.463 E2.03344
G1 X113.641 Y103.33 E2.04315
G1 X113.916 Y103.256 E2.04883
G1 X114.147 Y103.197 E2.05359
G1 X115.048 Y103.008 E2.07196
G1 X115.69 Y102.922 E2.08489
G1 X116.149 Y102.875 E2.09409
G1 X116.637 Y102.834 E2.10387
G1 X117.557 Y102.802 E2.12224
G1 X118.217 Y102.829 E2.13542
G1 X118.762 Y102.868 E2.14632
G1 X119.06 Y102.894 E2.15229
G1 X119.25 Y102.913 E2.1561
G1 X120.161 Y103.044 E2.17447
G1 X120.794 Y103.184 E2.18741
G1 X121.217 Y103.291 E2.19611
G1 X121.455 Y103.354 E2.20103
G1 X121.707 Y103.424 E2.20625
G1 X122.583 Y103.708 E2.22462
G1 X123.21 Y103.966 E2.23816
G1 X123.678 Y104.176 E2.24839
G1 X123.995 Y104.325 E2.25538
G1 X124.287 Y104.467 E2.26186
G1 X125.091 Y104.915 E2.28023
G1 X125.49 Y105.173 E2.28971
G1 X125.852 Y105.419 E2.29845
G1 X126.091 Y105.586 E2.30426
G1 X126.295 Y105.733 E2.30928
G1 X127.018 Y106.303 E2.32765
G1 X127.481 Y106.727 E2.34018
G1 X127.924 Y107.157 E2.3525
G1 X128.158 Y107.391 E2.35911
G1 X128.774 Y108.075 E2.37748
G1 X129.158 Y108.569 E2.38996
G1 X129.521 Y109.066 E2.40225
G1 X129.756 Y109.401 E2.41041
G1 X129.83 Y109.511 E2.41306
G1 X130.31 Y110.297 E2.43144
G1 X130.559 Y110.776 E2.44221
G1 X130.771 Y111.21 E2.45185
G1 X130.914 Y111.514 E2.45855
G1 X131.008 Y111.723 E2.46313
G1 X131.349 Y112.578 E2.4815
G1 X131.537 Y113.173 E2.49395
G1 X131.67 Y113.641 E2.50366
G1 X131.744 Y113.916 E2.50934
G1 X131.803 Y114.147 E2.5141
G1 X131.992 Y115.048 E2.53247
G1 X132.078 Y115.69 E2.5454
G1 X132.125 Y116.149 E2.5546
G1 X132.165 Y116.627 E2.56418
G1 X132.198 Y117.547 E2.58255
G1 X132.171 Y118.212 E2.59583
G1 X132.132 Y118.759 E2.60677
G1 X132.105 Y119.071 E2.61302
G1 X132.086 Y119.259 E2.61679
G1 X131.954 Y120.17 E2.63516
G1 X131.819 Y120.781 E2.64765
G1 X131.712 Y121.206 E2.6564
G1 X131.643 Y121.466 E2.66176
G1 X131.573 Y121.717 E2.66696
G1 X131.288 Y122.592 E2.68533
G1 X131.04 Y123.196 E2.69836
G1 X130.837 Y123.65 E2.70828
G1 X130.688 Y123.967 E2.71527
G1 X130.533 Y124.287 E2.72237
G1 X130.085 Y125.091 E2.74074
G1 X129.824 Y125.494 E2.75032
G1 X129.575 Y125.86 E2.75915
G1 X129.413 Y126.092 E2.7648
G1 X129.269 Y126.292 E2.76972
G1 X128.699 Y127.015 E2.78809
G1 X128.272 Y127.482 E2.80072
G1 X127.839 Y127.928 E2.81312
G1 X127.605 Y128.162 E2.81973
G1 X126.921 Y128.778 E2.8381
G1 X126.431 Y129.158 E2.85047
G1 X125.934 Y129.521 E2.86275
G1 X125.599 Y129.756 E2.87092
G1 X125.489 Y129.83 E2.87356
G1 X124.703 Y130.31 E2.89194
G1 X124.224 Y130.559 E2.90272
G1 X123.79 Y130.771 E2.91236
G1 X123.469 Y130.922 E2.91944
G1 X123.259 Y131.016 E2.92403
G1 X122.403 Y131.355 E2.9424
G1 X121.837 Y131.534 E2.95425
G1 X121.378 Y131.665 E2.96377
G1 X121.09 Y131.743 E2.96973
G1 X120.851 Y131.804 E2.97465
G1 X119.95 Y131.992 E2.99302
G1 X119.31 Y132.078 E3.0059
G1 X118.851 Y132.125 E3.01511
G1 X118.363 Y132.166 E3.02488
G1 X117.443 Y132.198 E3.04325
G1 X116.783 Y132.171 E3.05644
G1 X116.238 Y132.132 E3.06734
G1 X115.885 Y132.101 E3.07441
G1 X115.695 Y132.081 E3.07823
G1 X114.785 Y131.945 E3.09659
G1 X114.228 Y131.821 E3.10797
G1 X113.805 Y131.715 E3.11668
G1 X113.545 Y131.646 E3.12205
G1 X113.293 Y131.576 E3.12726
G1 X112.417 Y131.292 E3.14564
G1 X111.796 Y131.037 E3.15904
G1 X111.325 Y130.826 E3.16934
G1 X111.039 Y130.692 E3.17564
G1 X110.849 Y130.6 E3.17985
G1 X110.039 Y130.164 E3.19821
G1 X109.518 Y129.832 E3.21054
G1 X109.151 Y129.583 E3.21939
G1 X108.908 Y129.413 E3.22531
G1 X108.708 Y129.269 E3.23023
G1 X107.985 Y128.699 E3.2486
G1 X107.517 Y128.271 E3.26126
G1 X107.064 Y127.831 E3.27386
G1 X106.828 Y127.595 E3.28052
G1 X106.213 Y126.91 E3.29889
G1 X105.841 Y126.429 E3.31102
G1 X105.476 Y125.929 E3.32338
G1 X105.255 Y125.615 E3.33104
G1 X105.182 Y125.507 E3.33364
G1 X104.7 Y124.723 E3.35201
G1 X104.431 Y124.206 E3.36364
G1 X104.22 Y123.772 E3.37327
G1 X104.094 Y123.502 E3.37921
G1 X104 Y123.294 E3.38377
G1 X103.657 Y122.44 E3.40214
G1 X103.463 Y121.827 E3.41497
G1 X103.33 Y121.359 E3.42468
G1 X103.256 Y121.084 E3.43036
G1 X103.197 Y120.853 E3.43512
G1 X103.008 Y119.952 E3.45349
G1 X102.922 Y119.31 E3.46641
G1 X102.875 Y118.851 E3.47562
G1 X102.835 Y118.373 E3.48519
G1 X102.802 Y117.453 E3.50357
G1 X102.829 Y116.788 E3.51685
G1 X102.868 Y116.241 E3.52779
G1 X102.897 Y115.902 E3.53458
G1 X102.917 Y115.709 E3.53845
G1 X103.052 Y114.799 E3.55681
G1 X103.183 Y114.208 E3.56889
G1 X103.289 Y113.788 E3.57754
G1 X103.427 Y113.283 E3.58798
G1 X103.712 Y112.408 E3.60635
G1 X103.96 Y111.805 E3.61936
G1 X104.171 Y111.333 E3.62968
G1 X104.336 Y110.982 E3.63742
G1 X104.467 Y110.713 E3.64339
G1 X104.915 Y109.909 E3.66176
G1 X105.176 Y109.506 E3.67134
G1 X105.425 Y109.14 E3.68017
G1 X105.587 Y108.908 E3.68582
G1 X105.731 Y108.708 E3.69074
G1 X106.301 Y107.985 E3.70911
G1 X106.728 Y107.518 E3.72174
G1 X107.164 Y107.069 E3.73423
G0 F6000 X107.451 Y107.347
G1 F1200 X107.679 Y107.12 E3.74065
G1 X108.351 Y106.517 E3.75867
G1 X108.811 Y106.161 E3.77027
G1 X109.317 Y105.792 E3.78277
G1 X109.63 Y105.572 E3.79041
G1 X109.731 Y105.504 E3.79284
G1 X110.502 Y105.033 E3.81087
G1 X110.951 Y104.8 E3.82096
G1 X111.385 Y104.588 E3.8306
G1 X111.678 Y104.451 E3.83705
G1 X111.887 Y104.357 E3.84163
G1 X112.726 Y104.023 E3.85965
G1 X113.283 Y103.848 E3.8713
G1 X113.751 Y103.715 E3.88101
G1 X114.015 Y103.643 E3.88647
G1 X114.246 Y103.584 E3.89123
G1 X115.13 Y103.4 E3.90925
G1 X115.731 Y103.32 E3.92135
G1 X116.19 Y103.273 E3.93055
G1 X116.668 Y103.233 E3.94013
G1 X117.57 Y103.203 E3.95814
G1 X118.188 Y103.228 E3.97048
G1 X118.733 Y103.267 E3.98138
G1 X119.02 Y103.292 E3.98713
G1 X119.21 Y103.311 E3.99094
G1 X120.104 Y103.44 E4.00897
G1 X120.696 Y103.571 E4.02107
G1 X121.119 Y103.678 E4.02978
G1 X121.6 Y103.809 E4.03972
G1 X122.459 Y104.089 E4.05775
G1 X123.046 Y104.331 E4.07042
G1 X123.514 Y104.541 E4.08066
G1 X123.82 Y104.684 E4.0874
G1 X124.139 Y104.84 E4.09449
G1 X125.265 Y105.504 E4.12057
G1 X125.627 Y105.75 E4.12931
G1 X125.857 Y105.911 E4.13491
G1 X126.061 Y106.058 E4.13993
G1 X126.77 Y106.618 E4.15796
G1 X127.202 Y107.014 E4.16965
G1 X127.645 Y107.444 E4.18198
G1 X127.873 Y107.671 E4.1884
G1 X128.477 Y108.343 E4.20643
G1 X128.835 Y108.805 E4.21809
G1 X129.198 Y109.302 E4.23037
G1 X129.424 Y109.625 E4.23824
G1 X129.498 Y109.735 E4.24089
G1 X129.969 Y110.506 E4.25892
G1 X130.2 Y110.951 E4.26892
G1 X130.412 Y111.385 E4.27856
G1 X130.549 Y111.678 E4.28501
G1 X130.643 Y111.887 E4.28959
G1 X130.977 Y112.726 E4.30761
G1 X131.152 Y113.283 E4.31926
G1 X131.285 Y113.751 E4.32897
G1 X131.357 Y114.015 E4.33443
G1 X131.416 Y114.246 E4.33919
G1 X131.6 Y115.13 E4.35721
G1 X131.68 Y115.731 E4.36931
G1 X131.727 Y116.19 E4.37851
G1 X131.767 Y116.659 E4.38791
G1 X131.797 Y117.561 E4.40592
G1 X131.772 Y118.183 E4.41834
G1 X131.733 Y118.73 E4.42928
G1 X131.707 Y119.031 E4.43531
G1 X131.688 Y119.219 E4.43908
G1 X131.558 Y120.112 E4.45709
G1 X131.431 Y120.683 E4.46877
G1 X131.324 Y121.108 E4.47751
G1 X131.258 Y121.358 E4.48267
G1 X131.188 Y121.609 E4.48787
G1 X130.907 Y122.467 E4.50589
G1 X130.675 Y123.033 E4.5181
G1 X130.472 Y123.487 E4.52802
G1 X130.329 Y123.792 E4.53474
G1 X130.16 Y124.139 E4.54245
G1 X129.493 Y125.269 E4.56863
G1 X129.244 Y125.635 E4.57747
G1 X129.089 Y125.858 E4.58289
G1 X128.945 Y126.058 E4.5878
G1 X128.385 Y126.767 E4.60583
G1 X127.985 Y127.203 E4.61764
G1 X127.552 Y127.649 E4.63005
G1 X127.325 Y127.876 E4.63645
G1 X126.653 Y128.48 E4.65448
G1 X126.195 Y128.835 E4.66605
G1 X125.698 Y129.198 E4.67833
G1 X125.375 Y129.424 E4.6862
G1 X125.265 Y129.498 E4.68884
G1 X124.494 Y129.969 E4.70687
G1 X124.049 Y130.2 E4.71688
G1 X123.615 Y130.412 E4.72652
G1 X123.305 Y130.557 E4.73335
G1 X123.095 Y130.651 E4.73794
G1 X122.255 Y130.983 E4.75596
G1 X121.727 Y131.149 E4.76701
G1 X121.268 Y131.28 E4.77653
G1 X120.991 Y131.355 E4.78226
G1 X120.752 Y131.416 E4.78718
G1 X119.868 Y131.601 E4.80521
G1 X119.269 Y131.68 E4.81726
G1 X118.81 Y131.727 E4.82647
G1 X118.332 Y131.767 E4.83604
G1 X117.43 Y131.797 E4.85405
G1 X116.812 Y131.772 E4.8664
G1 X116.267 Y131.733 E4.8773
G1 X115.927 Y131.703 E4.88411
G1 X115.737 Y131.683 E4.88793
G1 X114.844 Y131.549 E4.90595
G1 X114.326 Y131.433 E4.91654
G1 X113.903 Y131.327 E4.92524
G1 X113.652 Y131.261 E4.93042
G1 X113.4 Y131.191 E4.93564
G1 X112.541 Y130.911 E4.95367
G1 X111.96 Y130.672 E4.96621
G1 X111.489 Y130.461 E4.97651
G1 X111.214 Y130.332 E4.98257
G1 X111.024 Y130.24 E4.98678
G1 X110.229 Y129.811 E5.00481
G1 X109.742 Y129.501 E5.01633
G1 X109.375 Y129.252 E5.02518
G1 X109.142 Y129.089 E5.03085
G1 X108.942 Y128.945 E5.03577
G1 X108.233 Y128.385 E5.0538
G1 X107.795 Y127.984 E5.06565
G1 X107.342 Y127.544 E5.07826
G1 X107.114 Y127.315 E5.0847
G1 X106.511 Y126.643 E5.10272
G1 X106.164 Y126.193 E5.11406
G1 X105.799 Y125.693 E5.12642
G1 X105.586 Y125.391 E5.13379
G1 X105.513 Y125.283 E5.13639
G1 X105.041 Y124.513 E5.15442
G1 X104.791 Y124.031 E5.16525
G1 X104.58 Y123.597 E5.17488
G1 X104.458 Y123.338 E5.1806
G1 X104.364 Y123.13 E5.18515
G1 X104.029 Y122.291 E5.20318
G1 X103.848 Y121.717 E5.21519
G1 X103.715 Y121.249 E5.2249
G1 X103.643 Y120.985 E5.23036
G1 X103.584 Y120.754 E5.23512
G1 X103.4 Y119.87 E5.25314
G1 X103.32 Y119.269 E5.26524
G1 X103.273 Y118.81 E5.27444
G1 X103.233 Y118.341 E5.28384
G1 X103.203 Y117.439 E5.30185
G1 X103.228 Y116.817 E5.31427
G1 X103.267 Y116.27 E5.32521
G1 X103.295 Y115.944 E5.33174
G1 X103.315 Y115.751 E5.33562
G1 X103.448 Y114.857 E5.35365
