;FLAVOR:Marlin
;TIME:3122
;Filament used: 1.40937m
;Layer height: 0.12
;MINX:86.007
;MINY:86.011
;MINZ:0.12
;MAXX:148.979
;MAXY:148.995
;MAXZ:4.92
;Generated with Cura_SteamEngine 4.6.0
M82 ;absolute extrusion mode
; Ender 3 Custom Start G-code
M140 S50 ; Set Heat Bed temperature
M190 S50 ; Wait for Heat Bed temperature
M104 S160; start warming extruder to 160
G28 ; Home all axes
M117 Nivellement Auto GO !
G29 ; Auto bed-level (BL-Touch)
G92 E0 ; Reset Extruder
M104 S200 ; Set Extruder temperature
M109 S200 ; Wait for Extruder temperature
G1 Z1.0 F3000 ; move z up little to prevent scratching of surface
G1 X0.1 Y20 Z0.3 F5000.0 ; move to start-line position
G1 X0.1 Y200.0 Z0.3 F1500.0 E15 ; draw 1st line
G1 X0.4 Y200.0 Z0.3 F5000.0 ; move to side a little
G1 X0.4 Y20 Z0.3 F1500.0 E30 ; draw 2nd line
G92 E0 ; reset extruder
G1 Z1.0 F3000 ; move z up little to prevent scratching of surface
M117 Allez Printe ma belle !
; End of custom start GCode
G92 E0
G92 E0
G1 F2700 E-5
;LAYER_COUNT:41
;LAYER:0
M107
G0 F6000 X119.7 Y148.109 Z0.12
;TYPE:SKIRT
G1 F2700 E0
G1 F1200 X118.628 Y148.169 E0.02143
G1 X117.898 Y148.192 E0.036
G1 X117.358 Y148.195 E0.04678
G1 X116.681 Y148.182 E0.06029
G1 X115.991 Y148.155 E0.07407
G1 X115.661 Y148.137 E0.08067
G1 X114.921 Y148.084 E0.09547
G1 X114.586 Y148.054 E0.10218
G1 X113.957 Y147.988 E0.1148
G1 X113.618 Y147.947 E0.12162
G1 X112.934 Y147.852 E0.1354
G1 X112.566 Y147.794 E0.14283
G1 X111.84 Y147.666 E0.15755
G1 X111.54 Y147.608 E0.16364
G1 X110.918 Y147.479 E0.17632
G1 X110.555 Y147.397 E0.18375
G1 X109.553 Y147.146 E0.20436
G1 X108.947 Y146.977 E0.21692
G1 X108.579 Y146.867 E0.22458
G1 X107.465 Y146.506 E0.24795
G1 X106.936 Y146.319 E0.25915
G1 X106.591 Y146.19 E0.2665
G1 X105.581 Y145.786 E0.28821
G1 X104.957 Y145.513 E0.3018
G1 X104.187 Y145.156 E0.31874
G1 X103.802 Y144.967 E0.32729
G1 X103.102 Y144.606 E0.34301
G1 X102.811 Y144.45 E0.3496
G1 X102.341 Y144.188 E0.36034
G1 X102.003 Y143.991 E0.36815
G1 X101.091 Y143.431 E0.3895
G1 X100.308 Y142.922 E0.40814
G1 X100.017 Y142.725 E0.41515
G1 X99.306 Y142.225 E0.4325
G1 X99.057 Y142.039 E0.4387
G1 X98.417 Y141.542 E0.45487
G1 X97.771 Y141.016 E0.4715
G1 X97.474 Y140.764 E0.47927
G1 X97.029 Y140.37 E0.49113
G1 X96.396 Y139.79 E0.50826
G1 X96.132 Y139.54 E0.51552
G1 X95.817 Y139.23 E0.52434
G1 X95.568 Y138.976 E0.53144
G1 X94.882 Y138.252 E0.55134
G1 X94.6 Y137.942 E0.5597
G1 X94.249 Y137.534 E0.57045
G1 X93.588 Y136.735 E0.59114
G1 X93.356 Y136.444 E0.59857
G1 X93.039 Y136.031 E0.60896
G1 X92.855 Y135.783 E0.61512
G1 X92.158 Y134.812 E0.63897
G1 X91.683 Y134.106 E0.65595
G1 X91.564 Y133.918 E0.66039
G1 X91.211 Y133.346 E0.67381
G1 X91.019 Y133.021 E0.68134
G1 X90.563 Y132.209 E0.69992
G1 X90.135 Y131.388 E0.7184
G1 X89.574 Y130.231 E0.74406
G1 X89.432 Y129.922 E0.75085
G1 X89.264 Y129.536 E0.75925
G1 X88.946 Y128.765 E0.77589
G1 X88.795 Y128.348 E0.78474
G1 X88.787 Y128.351 E0.78491
G1 X88.576 Y127.77 E0.79725
G1 X88.471 Y127.466 E0.80367
G1 X88.199 Y126.624 E0.82132
G1 X88.101 Y126.292 E0.82823
G1 X87.962 Y125.818 E0.83809
G1 X87.958 Y125.801 E0.83844
G1 X87.912 Y125.643 E0.84172
G1 X87.818 Y125.3 E0.84882
G1 X87.648 Y124.615 E0.8629
G1 X87.456 Y123.74 E0.88078
G1 X87.232 Y122.57 E0.90455
G1 X87.178 Y122.244 E0.91115
G1 X87.069 Y121.478 E0.92659
G1 X87.006 Y120.939 E0.93742
G1 X86.974 Y120.622 E0.94378
G1 X86.859 Y119.251 E0.97123
G1 X86.835 Y118.879 E0.97867
G1 X86.818 Y118.35 E0.98923
G1 X86.815 Y118.35 E0.98929
G1 X86.807 Y117.754 E1.00119
G1 X86.808 Y117.442 E1.00741
G1 X86.832 Y116.276 E1.03069
G1 X86.857 Y115.731 E1.04158
G1 X86.878 Y115.391 E1.04837
G1 X86.931 Y114.723 E1.06175
G1 X86.967 Y114.358 E1.06907
G1 X87.091 Y113.324 E1.08985
G1 X87.191 Y112.65 E1.10345
G1 X87.247 Y112.312 E1.11028
G1 X87.373 Y111.623 E1.12426
G1 X87.442 Y111.283 E1.13118
G1 X87.588 Y110.614 E1.14485
G1 X87.671 Y110.263 E1.15205
G1 X87.918 Y109.314 E1.17162
G1 X88.098 Y108.686 E1.18465
G1 X88.213 Y108.312 E1.19246
G1 X88.547 Y107.31 E1.21354
G1 X88.77 Y106.695 E1.22659
G1 X88.895 Y106.369 E1.23356
G1 X89.2 Y105.61 E1.24989
G1 X89.354 Y105.245 E1.25779
G1 X89.676 Y104.538 E1.27329
G1 X90.013 Y103.84 E1.28876
G1 X90.165 Y103.537 E1.29553
G1 X90.475 Y102.946 E1.30885
G1 X90.639 Y102.646 E1.31567
G1 X91.031 Y101.956 E1.3315
G1 X91.199 Y101.671 E1.33811
G1 X91.448 Y101.264 E1.34763
G1 X91.633 Y100.974 E1.35449
G1 X92.012 Y100.399 E1.36824
G1 X92.215 Y100.101 E1.37543
G1 X92.402 Y99.838 E1.38187
G1 X92.429 Y99.801 E1.38279
G1 X92.836 Y99.234 E1.39671
G1 X93.04 Y98.959 E1.40355
G1 X93.301 Y98.62 E1.41209
G1 X93.51 Y98.358 E1.41877
G1 X94.094 Y97.649 E1.4371
G1 X94.335 Y97.366 E1.44452
G1 X94.94 Y96.69 E1.46263
G1 X95.695 Y95.891 E1.48456
G1 X96.166 Y95.429 E1.49773
G1 X96.383 Y95.224 E1.50369
G1 X97.137 Y94.537 E1.52404
G1 X97.814 Y93.958 E1.54182
G1 X97.813 Y93.957 E1.54185
G1 X98.297 Y93.554 E1.55442
G1 X98.615 Y93.301 E1.56253
G1 X99.049 Y92.968 E1.57344
G1 X99.332 Y92.758 E1.58048
G1 X100.263 Y92.1 E1.60323
G1 X100.487 Y91.95 E1.60861
G1 X101.253 Y91.459 E1.62676
G1 X101.749 Y91.159 E1.63833
G1 X102.037 Y90.992 E1.64498
G1 X102.898 Y90.514 E1.66463
G1 X104.035 Y89.922 E1.69021
G1 X104.415 Y89.734 E1.69867
G1 X105.032 Y89.45 E1.71222
G1 X105.545 Y89.229 E1.72337
G1 X105.825 Y89.114 E1.72941
G1 X106.388 Y88.891 E1.7415
G1 X106.712 Y88.779 E1.74834
G1 X106.709 Y88.771 E1.74851
G1 X107.6 Y88.457 E1.76736
G1 X107.905 Y88.358 E1.77376
G1 X108.462 Y88.176 E1.78545
G1 X108.922 Y88.035 E1.79506
G1 X109.567 Y87.858 E1.8084
G1 X110.65 Y87.587 E1.83068
G1 X110.866 Y87.543 E1.83508
G1 X110.865 Y87.537 E1.8352
G1 X111.151 Y87.472 E1.84106
G1 X111.512 Y87.397 E1.84841
G1 X112.013 Y87.302 E1.85859
G1 X112.46 Y87.227 E1.86763
G1 X113.892 Y87.024 E1.8965
G1 X114.361 Y86.968 E1.90592
G1 X114.763 Y86.928 E1.91399
G1 X115.465 Y86.873 E1.92804
G1 X115.817 Y86.853 E1.93507
G1 X116.839 Y86.817 E1.95548
G1 X117.514 Y86.811 E1.96895
G1 X117.861 Y86.814 E1.97588
G1 X118.698 Y86.835 E1.99259
G1 X119.041 Y86.85 E1.99944
G1 X119.973 Y86.908 E2.01807
G1 X120.547 Y86.958 E2.02957
G1 X120.912 Y86.997 E2.0369
G1 X121.568 Y87.078 E2.05009
G1 X121.896 Y87.124 E2.0567
G1 X122.605 Y87.235 E2.07102
G1 X122.958 Y87.296 E2.07817
G1 X123.955 Y87.493 E2.09845
G1 X124.591 Y87.636 E2.11146
G1 X124.973 Y87.73 E2.11931
G1 X125.935 Y87.99 E2.13919
G1 X126.572 Y88.179 E2.15245
G1 X126.926 Y88.291 E2.15986
G1 X127.603 Y88.519 E2.17412
G1 X127.906 Y88.627 E2.18054
G1 X128.438 Y88.825 E2.19187
G1 X128.738 Y88.942 E2.19829
G1 X129.146 Y89.109 E2.20709
G1 X129.803 Y89.384 E2.2213
G1 X130.132 Y89.529 E2.22848
G1 X130.804 Y89.842 E2.24327
G1 X131.421 Y90.147 E2.25701
G1 X131.706 Y90.294 E2.26341
G1 X132.264 Y90.592 E2.27603
G1 X132.589 Y90.773 E2.28345
G1 X133.383 Y91.235 E2.30179
G1 X133.748 Y91.458 E2.31032
G1 X134.336 Y91.837 E2.32428
G1 X134.858 Y92.189 E2.33685
G1 X135.159 Y92.401 E2.34419
G1 X136.006 Y93.023 E2.36516
G1 X136.489 Y93.399 E2.37738
G1 X136.74 Y93.601 E2.38381
G1 X137.46 Y94.199 E2.40249
G1 X137.731 Y94.433 E2.40963
G1 X138.285 Y94.927 E2.42445
G1 X138.554 Y95.176 E2.43176
G1 X139.058 Y95.659 E2.44569
G1 X139.315 Y95.914 E2.45292
G1 X139.814 Y96.434 E2.4673
G1 X140.519 Y97.214 E2.48828
G1 X141.246 Y98.061 E2.51055
G1 X141.517 Y98.39 E2.51906
G1 X141.863 Y98.829 E2.53022
G1 X142.079 Y99.114 E2.53735
G1 X142.545 Y99.757 E2.5532
G1 X143.08 Y100.546 E2.57222
G1 X143.406 Y101.052 E2.58424
G1 X143.584 Y101.339 E2.59097
G1 X144.215 Y102.398 E2.61558
G1 X144.555 Y103.001 E2.62939
G1 X144.733 Y103.338 E2.637
G1 X145.12 Y104.116 E2.65434
G1 X145.455 Y104.835 E2.67017
G1 X145.597 Y105.155 E2.67715
G1 X145.906 Y105.893 E2.69312
G1 X146.269 Y106.823 E2.71304
G1 X146.349 Y107.057 E2.71798
G1 X146.355 Y107.055 E2.7181
G1 X146.545 Y107.579 E2.72923
G1 X146.694 Y108.018 E2.73848
G1 X146.814 Y108.418 E2.74681
G1 X147.341 Y110.331 E2.78641
G1 X147.425 Y110.679 E2.79355
G1 X147.542 Y111.216 E2.80452
G1 X147.708 Y112.077 E2.82202
G1 X147.849 Y112.949 E2.83965
G1 X147.99 Y113.958 E2.85998
G1 X148.022 Y114.247 E2.86578
G1 X148.077 Y114.829 E2.87745
G1 X148.125 Y115.518 E2.89123
G1 X148.14 Y115.813 E2.89713
G1 X148.174 Y116.925 E2.91933
G1 X148.179 Y117.958 E2.93994
G1 X148.174 Y118.335 E2.94747
G1 X148.154 Y118.957 E2.95989
G1 X148.138 Y119.279 E2.96632
G1 X148.077 Y120.16 E2.98394
G1 X148.017 Y120.78 E2.99637
G1 X147.979 Y121.113 E3.00306
G1 X147.887 Y121.82 E3.01729
G1 X147.834 Y122.176 E3.02447
G1 X147.718 Y122.874 E3.03859
G1 X147.658 Y123.202 E3.04525
G1 X147.532 Y123.832 E3.05807
G1 X147.518 Y123.829 E3.05835
G1 X147.456 Y124.183 E3.06553
G1 X147.21 Y125.2 E3.08641
G1 X147.042 Y125.817 E3.09917
G1 X146.942 Y126.16 E3.1063
G1 X146.677 Y127.014 E3.12414
G1 X146.583 Y127.3 E3.13015
G1 X146.417 Y127.784 E3.14036
G1 X146.294 Y128.124 E3.14758
G1 X146.063 Y128.727 E3.16046
G1 X145.919 Y129.082 E3.16811
G1 X145.607 Y129.813 E3.18397
G1 X145.475 Y130.109 E3.19044
G1 X144.969 Y131.186 E3.21418
G1 X144.761 Y131.6 E3.22343
G1 X144.594 Y131.9 E3.23028
G1 X144.601 Y131.904 E3.23044
G1 X144.318 Y132.423 E3.24224
G1 X144.149 Y132.722 E3.24909
G1 X143.604 Y133.636 E3.27033
G1 X143.421 Y133.932 E3.27727
G1 X142.973 Y134.618 E3.29362
G1 X142.392 Y135.458 E3.31401
G1 X142.128 Y135.819 E3.32293
G1 X141.853 Y136.179 E3.33197
G1 X141.706 Y136.363 E3.33667
G1 X141.442 Y136.704 E3.34528
G1 X141.425 Y136.726 E3.34583
G1 X141.16 Y137.056 E3.35428
G1 X140.837 Y137.44 E3.36429
G1 X140.602 Y137.709 E3.37142
G1 X140.091 Y138.275 E3.38664
G1 X139.816 Y138.568 E3.39466
G1 X139.09 Y139.304 E3.41529
G1 X138.422 Y139.948 E3.4338
G1 X138.235 Y140.113 E3.43878
G1 X138.24 Y140.119 E3.43894
G1 X137.863 Y140.465 E3.44915
G1 X137.498 Y140.784 E3.45882
G1 X137.029 Y141.175 E3.47101
G1 X136.78 Y141.376 E3.47739
G1 X136.069 Y141.932 E3.49541
G1 X135.784 Y142.147 E3.50253
G1 X135.11 Y142.631 E3.51909
G1 X134.381 Y143.121 E3.53662
G1 X133.189 Y143.875 E3.56477
G1 X132.64 Y144.202 E3.57752
G1 X132.305 Y144.389 E3.58517
G1 X131.746 Y144.687 E3.59782
G1 X131.452 Y144.838 E3.60441
G1 X130.825 Y145.142 E3.61832
G1 X130.083 Y145.483 E3.63461
G1 X129.733 Y145.636 E3.64224
G1 X128.446 Y146.17 E3.67004
G1 X127.9 Y146.38 E3.68172
G1 X127.585 Y146.491 E3.68838
G1 X126.962 Y146.698 E3.70148
G1 X126.668 Y146.79 E3.70763
G1 X126.076 Y146.967 E3.71996
G1 X126.033 Y146.981 E3.72086
G1 X125.224 Y147.205 E3.73761
G1 X124.663 Y147.345 E3.74915
G1 X124.045 Y147.485 E3.7618
G1 X123.747 Y147.539 E3.76784
G1 X123.748 Y147.546 E3.76798
G1 X122.696 Y147.748 E3.78936
G1 X122.056 Y147.854 E3.80231
G1 X121.605 Y147.919 E3.8114
G1 X121 Y147.992 E3.82356
G1 X119.7 Y148.109 E3.84961
G0 F6000 X119.723 Y148.508
G1 F1200 X118.643 Y148.569 E3.8712
G1 X117.902 Y148.592 E3.88599
G1 X117.353 Y148.595 E3.89695
G1 X116.666 Y148.582 E3.91066
G1 X115.976 Y148.555 E3.92444
G1 X115.633 Y148.536 E3.93129
G1 X114.893 Y148.483 E3.9461
G1 X114.544 Y148.452 E3.95309
G1 X113.915 Y148.386 E3.96571
G1 X113.563 Y148.343 E3.97279
G1 X112.879 Y148.248 E3.98657
G1 X112.497 Y148.188 E3.99429
G1 X111.458 Y148 E4.01536
G1 X110.836 Y147.871 E4.02804
G1 X110.46 Y147.786 E4.03573
G1 X109.764 Y147.615 E4.05003
G1 X109.446 Y147.531 E4.05659
G1 X108.84 Y147.362 E4.06915
G1 X108.457 Y147.248 E4.07712
G1 X107.332 Y146.883 E4.10073
G1 X106.803 Y146.696 E4.11192
G1 X106.444 Y146.562 E4.11957
G1 X105.722 Y146.277 E4.13506
G1 X105.422 Y146.153 E4.14154
G1 X104.788 Y145.876 E4.15535
G1 X104.018 Y145.519 E4.17228
G1 X103.618 Y145.323 E4.18117
G1 X102.918 Y144.962 E4.19689
G1 X102.616 Y144.8 E4.20373
G1 X102.146 Y144.538 E4.21447
G1 X101.795 Y144.333 E4.22258
G1 X100.873 Y143.766 E4.24418
G1 X100.09 Y143.257 E4.26282
G1 X99.787 Y143.053 E4.27011
G1 X99.072 Y142.549 E4.28756
G1 X98.813 Y142.356 E4.29401
G1 X98.164 Y141.852 E4.31041
G1 X97.518 Y141.326 E4.32703
G1 X97.21 Y141.065 E4.33509
G1 X96.759 Y140.665 E4.34712
G1 X96.126 Y140.085 E4.36425
G1 X95.852 Y139.825 E4.37179
G1 X95.537 Y139.515 E4.38061
G1 X95.277 Y139.251 E4.388
G1 X94.591 Y138.527 E4.40791
G1 X94.299 Y138.205 E4.41658
G1 X93.941 Y137.789 E4.42753
G1 X93.28 Y136.99 E4.44823
G1 X93.038 Y136.687 E4.45597
G1 X92.53 Y136.017 E4.47275
G1 X91.828 Y135.038 E4.49679
G1 X91.347 Y134.323 E4.51398
G1 X91.223 Y134.128 E4.5186
G1 X90.87 Y133.556 E4.53201
G1 X90.671 Y133.219 E4.53982
G1 X90.363 Y132.676 E4.55228
G1 X90.21 Y132.396 E4.55864
G1 X89.928 Y131.862 E4.5707
G1 X89.776 Y131.563 E4.57739
G1 X89.21 Y130.398 E4.60324
G1 X89.068 Y130.089 E4.61002
G1 X88.894 Y129.688 E4.61875
G1 X88.577 Y128.918 E4.63536
G1 X88.419 Y128.484 E4.64458
G1 X88.411 Y128.487 E4.64475
G1 X88.2 Y127.906 E4.65709
G1 X88.091 Y127.591 E4.66374
G1 X87.816 Y126.737 E4.68164
G1 X87.718 Y126.405 E4.68855
G1 X87.579 Y125.93 E4.69843
G1 X87.528 Y125.755 E4.70207
G1 X87.43 Y125.398 E4.70945
G1 X87.258 Y124.702 E4.72376
G1 X87.064 Y123.816 E4.74186
G1 X86.838 Y122.641 E4.76574
G1 X86.782 Y122.303 E4.77258
G1 X86.715 Y121.852 E4.78167
G1 X86.672 Y121.525 E4.78826
G1 X86.575 Y120.656 E4.80571
G1 X86.46 Y119.276 E4.83334
G1 X86.436 Y118.904 E4.84078
G1 X86.418 Y118.355 E4.85174
G1 X86.415 Y118.355 E4.8518
G1 X86.407 Y117.759 E4.8637
G1 X86.408 Y117.435 E4.87016
G1 X86.432 Y116.257 E4.89368
G1 X86.457 Y115.712 E4.90456
G1 X86.479 Y115.36 E4.9116
G1 X86.532 Y114.692 E4.92497
G1 X86.569 Y114.312 E4.93259
G1 X86.651 Y113.603 E4.94684
G1 X86.696 Y113.265 E4.95364
G1 X86.796 Y112.591 E4.96724
G1 X86.854 Y112.24 E4.97434
G1 X86.98 Y111.551 E4.98832
G1 X87.051 Y111.198 E4.9955
G1 X87.197 Y110.529 E5.00917
G1 X87.283 Y110.164 E5.01665
G1 X87.533 Y109.203 E5.03647
G1 X87.713 Y108.575 E5.0495
G1 X87.833 Y108.187 E5.05761
G1 X88.171 Y107.174 E5.07892
G1 X88.394 Y106.559 E5.09197
G1 X88.523 Y106.22 E5.09921
G1 X88.828 Y105.461 E5.11554
G1 X88.989 Y105.081 E5.12377
G1 X89.315 Y104.364 E5.13949
G1 X89.652 Y103.666 E5.15496
G1 X89.811 Y103.351 E5.162
G1 X90.121 Y102.76 E5.17532
G1 X90.291 Y102.448 E5.18241
G1 X90.683 Y101.758 E5.19824
G1 X90.858 Y101.462 E5.20511
G1 X91.107 Y101.055 E5.21463
G1 X91.299 Y100.753 E5.22177
G1 X91.678 Y100.178 E5.23551
G1 X91.889 Y99.87 E5.24296
G1 X92.076 Y99.607 E5.2494
G1 X92.511 Y99.001 E5.26429
G1 X92.723 Y98.715 E5.27139
G1 X92.984 Y98.376 E5.27993
G1 X93.201 Y98.104 E5.28688
G1 X93.785 Y97.395 E5.30521
G1 X94.036 Y97.101 E5.31292
G1 X94.648 Y96.417 E5.33124
G1 X95.41 Y95.61 E5.35339
G1 X96.112 Y94.929 E5.3729
G1 X96.625 Y94.457 E5.38682
G1 X96.876 Y94.234 E5.39352
G1 X97.558 Y93.651 E5.41142
G1 X97.557 Y93.65 E5.41145
G1 X98.041 Y93.247 E5.42402
G1 X98.371 Y92.983 E5.43245
G1 X98.805 Y92.65 E5.44337
G1 X99.099 Y92.433 E5.45066
G1 X100.037 Y91.77 E5.47358
G1 X100.27 Y91.614 E5.47918
G1 X100.765 Y91.293 E5.49095
G1 X101.046 Y91.117 E5.49757
G1 X101.542 Y90.817 E5.50914
G1 X101.841 Y90.643 E5.51604
G1 X102.422 Y90.317 E5.52934
G1 X102.714 Y90.159 E5.53596
G1 X103.851 Y89.567 E5.56154
G1 X104.245 Y89.372 E5.57032
G1 X104.567 Y89.221 E5.57741
G1 X104.874 Y89.083 E5.58413
G1 X105.677 Y88.742 E5.60154
G1 X106.24 Y88.519 E5.61362
G1 X106.578 Y88.402 E5.62076
G1 X106.575 Y88.394 E5.62093
G1 X107.476 Y88.077 E5.63999
G1 X108.295 Y87.811 E5.65718
G1 X108.336 Y87.797 E5.65804
G1 X108.814 Y87.65 E5.66802
G1 X109.47 Y87.47 E5.6816
G1 X110.553 Y87.199 E5.70388
G1 X110.778 Y87.153 E5.70846
G1 X110.777 Y87.147 E5.70858
G1 X111.063 Y87.082 E5.71443
G1 X111.437 Y87.004 E5.72206
G1 X111.938 Y86.909 E5.73223
G1 X112.403 Y86.831 E5.74164
G1 X113.844 Y86.627 E5.77069
G1 X114.313 Y86.571 E5.78011
G1 X114.731 Y86.529 E5.7885
G1 X115.435 Y86.474 E5.80259
G1 X115.801 Y86.453 E5.8099
G1 X116.836 Y86.417 E5.83057
G1 X117.511 Y86.411 E5.84404
G1 X117.871 Y86.414 E5.85123
G1 X118.708 Y86.435 E5.86794
G1 X119.064 Y86.45 E5.87505
G1 X120.008 Y86.51 E5.89392
G1 X120.582 Y86.56 E5.90542
G1 X120.961 Y86.6 E5.91303
G1 X121.617 Y86.681 E5.92622
G1 X121.958 Y86.729 E5.93309
G1 X122.667 Y86.84 E5.94741
G1 X123.033 Y86.904 E5.95482
G1 X124.042 Y87.103 E5.97535
G1 X124.678 Y87.246 E5.98836
G1 X125.076 Y87.344 E5.99654
G1 X126.049 Y87.607 E6.01665
G1 X126.686 Y87.796 E6.02991
G1 X127.054 Y87.912 E6.03761
G1 X127.731 Y88.14 E6.05187
G1 X128.045 Y88.252 E6.05852
G1 X128.889 Y88.571 E6.07653
