;FLAVOR:Marlin
;TIME:5457
;Filament used: 2.51036m
;Layer height: 0.16
;MINX:98.71
;MINY:81.063
;MINZ:0.2
;MAXX:139.622
;MAXY:153.937
;MAXZ:26.64
;Generated with Cura_SteamEngine 4.8.0
M82 ;absolute extrusion mode
; Ender 3 Custom Start G-code
M117 Getting the bed up to temp!
M140 S60 ; Set Heat Bed temperature
M190 S60 ; Wait for Heat Bed temperature
M117 Pre-heating the extruder!
M104 S160; start warming extruder to 160
G28 ; Home all axes
M117 Auto bed-level GO!
G29 ; Auto bed-level (BL-Touch)
G92 E0 ; Reset Extruder
M117 Getting the extruder up to temp!
M104 S190 ; Set Extruder temperature
M109 S190 ; Wait for Extruder temperature
G1 Z1.0 F3000 ; move z up little to prevent scratching of surface
G1 X0.1 Y20 Z0.3 F5000.0 ; move to start-line position
M117 LET THE PURGE BEGIN!
G1 X0.1 Y200.0 Z0.3 F1500.0 E15 ; draw 1st line
G1 X0.4 Y200.0 Z0.3 F5000.0 ; move to side a little
G1 X0.4 Y20 Z0.3 F1500.0 E30 ; draw 2nd line
G92 E0 ; reset extruder
G1 Z1.0 F3000 ; move z up little to prevent scratching of surface
M117 Autobots! Roll Out!
; End of custom start GCode
G92 E0
G92 E0
G1 F3000 E-10
;LAYER_COUNT:174
;LAYER:0
M107
G0 F6000 X101.768 Y85.565 Z0.2
;TYPE:SKIRT
G1 F3000 E0
G1 F1200 X102.107 Y85.183 E0.01699
G1 X102.323 Y84.955 E0.02743
G1 X102.647 Y84.632 E0.04265
G1 X102.875 Y84.418 E0.05305
G1 X103.265 Y84.075 E0.07032
G1 X103.527 Y83.86 E0.0816
G1 X103.927 Y83.553 E0.09837
G1 X104.182 Y83.37 E0.10881
G1 X104.607 Y83.086 E0.12581
G1 X104.888 Y82.911 E0.13682
G1 X105.348 Y82.646 E0.15448
G1 X105.645 Y82.488 E0.16566
G1 X106.089 Y82.269 E0.18213
G1 X106.387 Y82.134 E0.19301
G1 X106.894 Y81.926 E0.21124
G1 X107.196 Y81.814 E0.22195
G1 X107.64 Y81.664 E0.23754
G1 X107.946 Y81.571 E0.24818
G1 X108.437 Y81.439 E0.26509
G1 X108.766 Y81.362 E0.27633
G1 X109.273 Y81.261 E0.29352
G1 X109.588 Y81.209 E0.30414
G1 X110.101 Y81.142 E0.32135
G1 X110.429 Y81.11 E0.33231
G1 X110.946 Y81.077 E0.34954
G1 X111.271 Y81.067 E0.36035
G1 X111.511 Y81.063 E0.36834
G1 X122.758 Y81.063 E0.74241
G1 X123.06 Y81.069 E0.75246
G1 X123.344 Y81.08 E0.76191
G1 X123.903 Y81.122 E0.78056
G1 X124.191 Y81.154 E0.79019
G1 X124.783 Y81.243 E0.81011
G1 X125.052 Y81.294 E0.81921
G1 X125.632 Y81.427 E0.839
G1 X125.895 Y81.498 E0.84806
G1 X126.447 Y81.669 E0.86728
G1 X126.726 Y81.767 E0.87712
G1 X127.266 Y81.979 E0.89641
G1 X127.513 Y82.087 E0.90538
G1 X128.067 Y82.356 E0.92586
G1 X128.31 Y82.486 E0.93503
G1 X128.77 Y82.753 E0.95272
G1 X129.016 Y82.907 E0.96237
G1 X129.509 Y83.242 E0.9822
G1 X129.738 Y83.411 E0.99166
G1 X130.182 Y83.765 E1.01055
G1 X130.385 Y83.939 E1.01944
G1 X130.851 Y84.372 E1.0406
G1 X131.061 Y84.584 E1.05053
G1 X131.445 Y85.001 E1.06938
G1 X131.629 Y85.216 E1.07879
G1 X131.98 Y85.658 E1.09757
G1 X132.143 Y85.879 E1.1067
G1 X132.521 Y86.441 E1.12923
G1 X132.683 Y86.706 E1.13956
G1 X132.966 Y87.21 E1.15878
G1 X133.098 Y87.467 E1.16839
G1 X133.339 Y87.982 E1.1873
G1 X133.449 Y88.241 E1.19666
G1 X133.682 Y88.862 E1.21872
G1 X133.777 Y89.152 E1.22887
G1 X133.935 Y89.701 E1.24787
G1 X134.005 Y89.983 E1.25754
G1 X134.133 Y90.602 E1.27856
G1 X134.179 Y90.883 E1.28803
G1 X134.253 Y91.482 E1.3081
G1 X134.277 Y91.764 E1.31752
G1 X134.302 Y92.213 E1.33248
G1 X134.31 Y92.609 E1.34565
G1 X134.31 Y100.253 E1.59989
G1 X134.893 Y100.625 E1.62289
G1 X135.846 Y101.319 E1.6621
G1 X136.46 Y101.815 E1.68835
G1 X137.02 Y102.371 E1.7146
G1 X137.522 Y102.981 E1.74088
G1 X137.959 Y103.639 E1.76715
G1 X138.328 Y104.337 E1.79341
G1 X138.624 Y105.069 E1.81967
G1 X138.773 Y105.549 E1.83639
G1 X139.346 Y107.625 E1.90802
G1 X139.517 Y108.396 E1.93428
G1 X139.61 Y109.18 E1.96054
G1 X139.622 Y109.969 E1.98679
G1 X139.555 Y110.756 E2.01306
G1 X139.458 Y111.317 E2.03199
G1 X139.293 Y112.096 E2.05848
G1 X139.325 Y113.344 E2.1
G1 X139.306 Y114.133 E2.12625
G1 X139.206 Y114.917 E2.15254
G1 X138.946 Y115.956 E2.18816
G1 X138.593 Y117.042 E2.22614
G1 X138.311 Y117.78 E2.25242
G1 X137.956 Y118.485 E2.27867
G1 X137.532 Y119.151 E2.30493
G1 X137.042 Y119.771 E2.33121
G1 X136.492 Y120.338 E2.35749
G1 X135.761 Y120.941 E2.38901
G1 X134.835 Y121.614 E2.42708
G1 X134.31 Y121.956 E2.44792
G1 X134.31 Y142.384 E3.12736
G1 X134.305 Y142.663 E3.13664
G1 X134.295 Y142.942 E3.14592
G1 X134.251 Y143.536 E3.16573
G1 X134.218 Y143.829 E3.17554
G1 X134.131 Y144.404 E3.19488
G1 X134.08 Y144.674 E3.20402
G1 X133.946 Y145.259 E3.22398
G1 X133.875 Y145.522 E3.23304
G1 X133.701 Y146.082 E3.25255
G1 X133.603 Y146.36 E3.26235
G1 X133.401 Y146.875 E3.28075
G1 X133.295 Y147.119 E3.2896
G1 X133.017 Y147.693 E3.31081
G1 X132.881 Y147.947 E3.3204
G1 X132.624 Y148.392 E3.33749
G1 X132.475 Y148.631 E3.34685
G1 X132.129 Y149.139 E3.3673
G1 X131.962 Y149.365 E3.37664
G1 X131.605 Y149.813 E3.3957
G1 X131.428 Y150.019 E3.40473
G1 X131.001 Y150.478 E3.42558
G1 X130.789 Y150.688 E3.43551
G1 X130.372 Y151.072 E3.45436
G1 X130.157 Y151.256 E3.46377
G1 X129.71 Y151.611 E3.48276
G1 X129.49 Y151.773 E3.49185
G1 X128.94 Y152.143 E3.51389
G1 X128.674 Y152.306 E3.52427
G1 X128.163 Y152.593 E3.54376
G1 X127.906 Y152.725 E3.55337
G1 X127.385 Y152.969 E3.57251
G1 X127.123 Y153.08 E3.58197
G1 X126.5 Y153.313 E3.60409
G1 X126.215 Y153.406 E3.61406
G1 X125.674 Y153.561 E3.63278
G1 X125.396 Y153.63 E3.64231
G1 X124.804 Y153.753 E3.66242
G1 X124.517 Y153.801 E3.6721
G1 X123.889 Y153.88 E3.69315
G1 X123.606 Y153.904 E3.7026
G1 X123.154 Y153.929 E3.71765
G1 X122.759 Y153.937 E3.73079
G1 X111.512 Y153.937 E4.10487
G1 X111.254 Y153.933 E4.11345
G1 X110.922 Y153.922 E4.1245
G1 X110.425 Y153.889 E4.14107
G1 X110.096 Y153.857 E4.15206
G1 X109.601 Y153.793 E4.16866
G1 X109.287 Y153.742 E4.17924
G1 X108.721 Y153.629 E4.19844
G1 X108.391 Y153.55 E4.20972
G1 X107.939 Y153.427 E4.2253
G1 X107.633 Y153.334 E4.23594
G1 X107.146 Y153.168 E4.25305
G1 X106.844 Y153.054 E4.26379
G1 X106.391 Y152.867 E4.28009
G1 X106.094 Y152.733 E4.29093
G1 X105.621 Y152.5 E4.30847
G1 X105.324 Y152.341 E4.31967
G1 X104.871 Y152.078 E4.33709
G1 X104.591 Y151.903 E4.34807
G1 X104.176 Y151.625 E4.36469
G1 X103.91 Y151.434 E4.37558
G1 X103.479 Y151.101 E4.3937
G1 X103.215 Y150.882 E4.4051
G1 X102.83 Y150.541 E4.42221
G1 X102.601 Y150.324 E4.4327
G1 X102.28 Y150.002 E4.44783
G1 X102.064 Y149.772 E4.45832
G1 X101.716 Y149.375 E4.47588
G1 X101.503 Y149.115 E4.48706
G1 X101.192 Y148.708 E4.50409
G1 X101.009 Y148.452 E4.51456
G1 X100.723 Y148.023 E4.53171
G1 X100.544 Y147.734 E4.54302
G1 X100.307 Y147.323 E4.5588
G1 X100.159 Y147.048 E4.56918
G1 X99.91 Y146.543 E4.58791
G1 X99.771 Y146.233 E4.59921
G1 X99.591 Y145.799 E4.61484
G1 X99.475 Y145.492 E4.62575
G1 X99.299 Y144.969 E4.64411
G1 X99.209 Y144.668 E4.65456
G1 X99.091 Y144.228 E4.66971
G1 X99.013 Y143.898 E4.68099
G1 X98.907 Y143.366 E4.69903
G1 X98.856 Y143.055 E4.70951
G1 X98.789 Y142.546 E4.72658
G1 X98.757 Y142.216 E4.73761
G1 X98.726 Y141.73 E4.75381
G1 X98.715 Y141.409 E4.76449
G1 X98.71 Y141.142 E4.77337
G1 X98.71 Y93.866 E6.34578
G1 X98.715 Y93.589 E6.35499
G1 X98.727 Y93.251 E6.36624
G1 X98.759 Y92.768 E6.38234
G1 X98.791 Y92.441 E6.39327
G1 X98.857 Y91.939 E6.41011
G1 X98.908 Y91.628 E6.42059
G1 X99.019 Y91.074 E6.43939
G1 X99.098 Y90.744 E6.45067
G1 X99.218 Y90.303 E6.46587
G1 X99.309 Y90.002 E6.47633
G1 X99.468 Y89.531 E6.49287
G1 X99.583 Y89.223 E6.5038
G1 X99.785 Y88.732 E6.52146
G1 X99.925 Y88.423 E6.53274
G1 X100.162 Y87.946 E6.55046
G1 X100.31 Y87.671 E6.56085
G1 X100.557 Y87.243 E6.57728
G1 X100.737 Y86.954 E6.58861
G1 X101.022 Y86.529 E6.60562
G1 X101.213 Y86.263 E6.61652
G1 X101.548 Y85.83 E6.63473
G1 X101.768 Y85.565 E6.64618
G0 F6000 X102.075 Y85.82
G1 F1200 X102.397 Y85.458 E6.66229
G1 X102.613 Y85.23 E6.67274
G1 X102.921 Y84.923 E6.6872
G1 X103.149 Y84.709 E6.69761
G1 X103.519 Y84.385 E6.71396
G1 X103.781 Y84.17 E6.72524
G1 X104.16 Y83.878 E6.74115
G1 X104.415 Y83.695 E6.75159
G1 X104.818 Y83.426 E6.7677
G1 X105.099 Y83.251 E6.77871
G1 X105.535 Y82.999 E6.79546
G1 X105.832 Y82.841 E6.80665
G1 X106.254 Y82.633 E6.8223
G1 X106.552 Y82.498 E6.83318
G1 X107.033 Y82.301 E6.85047
G1 X107.335 Y82.189 E6.86118
G1 X107.756 Y82.047 E6.87596
G1 X108.062 Y81.954 E6.8866
G1 X108.528 Y81.829 E6.90264
G1 X108.857 Y81.752 E6.91388
G1 X109.338 Y81.656 E6.9302
G1 X109.653 Y81.604 E6.94082
G1 X110.139 Y81.54 E6.95712
G1 X110.467 Y81.508 E6.96808
G1 X110.958 Y81.477 E6.98444
G1 X111.283 Y81.467 E6.99526
G1 X111.511 Y81.463 E7.00284
G1 X122.758 Y81.463 E7.37692
G1 X123.044 Y81.469 E7.38643
G1 X123.328 Y81.48 E7.39589
G1 X123.859 Y81.519 E7.4136
G1 X124.147 Y81.551 E7.42323
G1 X124.708 Y81.636 E7.44211
G1 X124.977 Y81.687 E7.45121
G1 X125.528 Y81.813 E7.47001
G1 X125.791 Y81.884 E7.47907
G1 X126.314 Y82.046 E7.49728
G1 X126.593 Y82.144 E7.50712
G1 X127.106 Y82.346 E7.52545
G1 X127.353 Y82.454 E7.53442
G1 X127.879 Y82.709 E7.55386
G1 X128.122 Y82.839 E7.56303
G1 X128.558 Y83.092 E7.5798
G1 X128.804 Y83.246 E7.58945
G1 X129.271 Y83.564 E7.60824
G1 X129.5 Y83.733 E7.61771
G1 X129.922 Y84.069 E7.63565
G1 X130.125 Y84.243 E7.64454
G1 X130.566 Y84.653 E7.66457
G1 X130.776 Y84.865 E7.67449
G1 X131.141 Y85.261 E7.69241
G1 X131.325 Y85.476 E7.70182
G1 X131.658 Y85.896 E7.71964
G1 X131.821 Y86.117 E7.72878
G1 X132.18 Y86.649 E7.75012
G1 X132.342 Y86.914 E7.76045
G1 X132.611 Y87.393 E7.77873
G1 X132.743 Y87.65 E7.78834
G1 X132.971 Y88.138 E7.80625
G1 X133.081 Y88.397 E7.81561
G1 X133.302 Y88.986 E7.83653
G1 X133.397 Y89.276 E7.84668
G1 X133.547 Y89.797 E7.86472
G1 X133.617 Y90.079 E7.87438
G1 X133.738 Y90.667 E7.89435
G1 X133.784 Y90.948 E7.90382
G1 X133.854 Y91.515 E7.92282
G1 X133.878 Y91.797 E7.93223
G1 X133.902 Y92.224 E7.94646
G1 X133.91 Y92.609 E7.95926
G1 X133.91 Y100.474 E8.22086
G1 X133.977 Y100.508 E8.22335
G1 X134.657 Y100.948 E8.25029
G1 X135.61 Y101.642 E8.2895
G1 X136.208 Y102.127 E8.31511
G1 X136.751 Y102.67 E8.34065
G1 X137.236 Y103.268 E8.36626
G1 X137.656 Y103.912 E8.39184
G1 X138.006 Y104.597 E8.41742
G1 X138.387 Y105.655 E8.45482
G1 X138.96 Y107.731 E8.52645
G1 X139.126 Y108.482 E8.55203
G1 X139.213 Y109.246 E8.57761
G1 X139.22 Y110.016 E8.60322
G1 X139.148 Y110.781 E8.62878
G1 X139.066 Y111.234 E8.64409
G1 X138.892 Y112.053 E8.67194
G1 X138.926 Y113.354 E8.71522
G1 X138.905 Y114.123 E8.74081
G1 X138.806 Y114.886 E8.7664
G1 X138.566 Y115.833 E8.79889
G1 X138.213 Y116.919 E8.83687
G1 X137.937 Y117.637 E8.86246
G1 X137.589 Y118.322 E8.88801
G1 X137.171 Y118.968 E8.9136
G1 X136.688 Y119.567 E8.9392
G1 X136.146 Y120.113 E8.96478
G1 X135.526 Y120.617 E8.99136
G1 X134.6 Y121.29 E9.02943
G1 X133.955 Y121.709 E9.05501
G1 X133.91 Y121.732 E9.0567
G1 X133.91 Y142.384 E9.74358
G1 X133.905 Y142.649 E9.7524
G1 X133.895 Y142.928 E9.76169
G1 X133.854 Y143.491 E9.78046
G1 X133.821 Y143.784 E9.79027
G1 X133.738 Y144.329 E9.8086
G1 X133.687 Y144.599 E9.81774
G1 X133.56 Y145.155 E9.83671
G1 X133.489 Y145.418 E9.84577
G1 X133.324 Y145.949 E9.86427
G1 X133.226 Y146.227 E9.87407
G1 X133.034 Y146.716 E9.89154
G1 X132.928 Y146.96 E9.90039
G1 X132.665 Y147.504 E9.92049
G1 X132.529 Y147.758 E9.93007
G1 X132.285 Y148.18 E9.94628
G1 X132.136 Y148.419 E9.95565
G1 X131.807 Y148.902 E9.97509
G1 X131.64 Y149.128 E9.98443
G1 X131.302 Y149.553 E10.0025
G1 X131.125 Y149.759 E10.01153
G1 X130.72 Y150.193 E10.03127
G1 X130.508 Y150.403 E10.0412
G1 X130.112 Y150.768 E10.05911
G1 X129.897 Y150.952 E10.06852
G1 X129.473 Y151.289 E10.08654
G1 X129.253 Y151.451 E10.09562
G1 X128.731 Y151.802 E10.11655
G1 X128.465 Y151.965 E10.12692
G1 X127.98 Y152.238 E10.14543
G1 X127.723 Y152.37 E10.15504
G1 X127.229 Y152.601 E10.17318
G1 X126.967 Y152.712 E10.18264
G1 X126.376 Y152.933 E10.20363
G1 X126.091 Y153.026 E10.2136
G1 X125.578 Y153.173 E10.23135
G1 X125.3 Y153.242 E10.24088
G1 X124.738 Y153.359 E10.25997
G1 X124.451 Y153.407 E10.26965
G1 X123.855 Y153.482 E10.28963
G1 X123.572 Y153.506 E10.29907
G1 X123.144 Y153.529 E10.31333
G1 X122.759 Y153.537 E10.32614
G1 X111.512 Y153.537 E10.70021
G1 X111.267 Y153.533 E10.70836
G1 X110.935 Y153.522 E10.71941
G1 X110.464 Y153.491 E10.73511
G1 X110.135 Y153.459 E10.74611
G1 X109.665 Y153.398 E10.76187
G1 X109.351 Y153.347 E10.77245
G1 X108.814 Y153.24 E10.79066
G1 X108.484 Y153.161 E10.80195
G1 X108.055 Y153.044 E10.81674
G1 X107.749 Y152.951 E10.82738
G1 X107.288 Y152.794 E10.84357
G1 X106.986 Y152.68 E10.85431
G1 X106.556 Y152.502 E10.86979
G1 X106.259 Y152.368 E10.88063
G1 X105.809 Y152.147 E10.8973
G1 X105.512 Y151.988 E10.9085
G1 X105.083 Y151.739 E10.925
G1 X104.803 Y151.564 E10.93598
G1 X104.409 Y151.3 E10.95176
G1 X104.143 Y151.109 E10.96265
G1 X103.734 Y150.793 E10.97984
G1 X103.47 Y150.574 E10.99125
G1 X103.105 Y150.25 E11.00748
G1 X102.876 Y150.033 E11.01798
G1 X102.572 Y149.728 E11.0323
G1 X102.356 Y149.498 E11.04279
G1 X102.026 Y149.122 E11.05943
G1 X101.813 Y148.862 E11.07061
G1 X101.517 Y148.475 E11.08682
G1 X101.334 Y148.219 E11.09728
G1 X101.063 Y147.813 E11.11352
G1 X100.884 Y147.524 E11.12482
G1 X100.659 Y147.134 E11.1398
G1 X100.511 Y146.859 E11.15019
G1 X100.275 Y146.38 E11.16795
G1 X100.136 Y146.07 E11.17925
G1 X99.966 Y145.658 E11.19407
G1 X99.85 Y145.351 E11.20499
G1 X99.682 Y144.855 E11.2224
G1 X99.592 Y144.554 E11.23285
G1 X99.48 Y144.136 E11.24725
G1 X99.402 Y143.806 E11.25852
G1 X99.302 Y143.302 E11.27561
G1 X99.251 Y142.991 E11.2861
G1 X99.188 Y142.507 E11.30233
G1 X99.156 Y142.177 E11.31336
G1 X99.125 Y141.716 E11.32873
G1 X99.114 Y141.395 E11.33941
G1 X99.11 Y141.142 E11.34782
G1 X99.11 Y93.866 E12.92023
G1 X99.115 Y93.603 E12.92898
G1 X99.127 Y93.265 E12.94023
G1 X99.157 Y92.807 E12.95549
G1 X99.189 Y92.48 E12.96642
G1 X99.252 Y92.003 E12.98242
G1 X99.303 Y91.692 E12.99291
G1 X99.408 Y91.167 E13.01071
G1 X99.487 Y90.837 E13.022
G1 X99.601 Y90.419 E13.03641
G1 X99.692 Y90.118 E13.04687
G1 X99.842 Y89.671 E13.06255
G1 X99.957 Y89.363 E13.07349
G1 X100.15 Y88.897 E13.09026
G1 X100.29 Y88.588 E13.10155
G1 X100.514 Y88.135 E13.11835
G1 X100.662 Y87.86 E13.12874
G1 X100.897 Y87.455 E13.14431
G1 X101.077 Y87.166 E13.15564
G1 X101.347 Y86.762 E13.1718
G1 X101.538 Y86.496 E13.18269
G1 X101.855 Y86.085 E13.19996
G1 X102.075 Y85.82 E13.21141
G0 F6000 X102.383 Y86.076
G1 F1200 X102.687 Y85.733 E13.22665
G1 X102.903 Y85.505 E13.2371
G1 X103.194 Y85.215 E13.25077
G1 X103.422 Y85.001 E13.26117
G1 X103.772 Y84.694 E13.27665
G1 X104.034 Y84.479 E13.28792
G1 X104.394 Y84.203 E13.30301
G1 X104.649 Y84.02 E13.31345
G1 X105.03 Y83.765 E13.3287
G1 X105.311 Y83.59 E13.33971
G1 X105.723 Y83.352 E13.35553
G1 X106.02 Y83.194 E13.36672
G1 X106.419 Y82.998 E13.38151
G1 X106.717 Y82.863 E13.39239
G1 X107.172 Y82.676 E13.40875
G1 X107.474 Y82.564 E13.41946
G1 X107.872 Y82.429 E13.43344
G1 X108.178 Y82.336 E13.44408
G1 X108.619 Y82.218 E13.45926
G1 X108.948 Y82.141 E13.4705
G1 X109.403 Y82.05 E13.48594
G1 X109.718 Y81.998 E13.49655
G1 X110.178 Y81.938 E13.51198
G1 X110.506 Y81.906 E13.52294
G1 X110.971 Y81.876 E13.53844
G1 X111.296 Y81.866 E13.54926
G1 X111.511 Y81.863 E13.55641
G1 X122.758 Y81.863 E13.93049
G1 X123.029 Y81.868 E13.9395
G1 X123.313 Y81.879 E13.94895
G1 X123.815 Y81.917 E13.9657
G1 X124.103 Y81.949 E13.97534
G1 X124.634 Y82.029 E13.9932
G1 X124.903 Y82.08 E14.0023
G1 X125.423 Y82.199 E14.02004
G1 X125.686 Y82.27 E14.02911
G1 X126.182 Y82.424 E14.04638
G1 X126.461 Y82.522 E14.05621
G1 X126.945 Y82.712 E14.07351
G1 X127.192 Y82.82 E14.08247
G1 X127.69 Y83.062 E14.10089
G1 X127.933 Y83.192 E14.11006
G1 X128.345 Y83.431 E14.1259
G1 X128.591 Y83.585 E14.13555
G1 X129.034 Y83.886 E14.15336
G1 X129.263 Y84.055 E14.16283
G1 X129.662 Y84.372 E14.17978
G1 X129.865 Y84.546 E14.18867
G1 X130.282 Y84.935 E14.20764
G1 X130.492 Y85.147 E14.21757
G1 X130.837 Y85.522 E14.23451
G1 X131.021 Y85.737 E14.24393
G1 X131.336 Y86.133 E14.26076
G1 X131.499 Y86.354 E14.26989
G1 X131.838 Y86.858 E14.29009
G1 X132 Y87.123 E14.30042
G1 X132.255 Y87.576 E14.31771
G1 X132.387 Y87.833 E14.32732
G1 X132.603 Y88.295 E14.34428
G1 X132.713 Y88.554 E14.35364
G1 X132.922 Y89.111 E14.37343
G1 X133.017 Y89.401 E14.38358
G1 X133.159 Y89.894 E14.40064
G1 X133.229 Y90.176 E14.41031
G1 X133.343 Y90.731 E14.42915
G1 X133.389 Y91.012 E14.43862
G1 X133.456 Y91.549 E14.45662
G1 X133.48 Y91.831 E14.46604
