;FLAVOR:Marlin
;TIME:1119
;Filament used: 0.418861m
;Layer height: 0.12
;MINX:97.011
;MINY:91.283
;MINZ:0.12
;MAXX:137.984
;MAXY:143.773
;MAXZ:8.4
;Generated with Cura_SteamEngine 4.8.0
M82 ;absolute extrusion mode
; Ender 3 Custom Start G-code
M117 Getting the bed up to temp!
M140 S60 ; Set Heat Bed temperature
M190 S60 ; Wait for Heat Bed temperature
M117 Pre-heating the extruder!
M104 S160; start warming extruder to 160
G28 ; Home all axes
M117 Auto bed-level GO!
G29 ; Auto bed-level (BL-Touch)
G92 E0 ; Reset Extruder
M117 Getting the extruder up to temp!
M104 S200 ; Set Extruder temperature
M109 S200 ; Wait for Extruder temperature
G1 Z1.0 F3000 ; move z up little to prevent scratching of surface
G1 X0.1 Y20 Z0.3 F5000.0 ; move to start-line position
M117 LET THE PURGE BEGIN!
G1 X0.1 Y200.0 Z0.3 F1500.0 E15 ; draw 1st line
G1 X0.4 Y200.0 Z0.3 F5000.0 ; move to side a little
G1 X0.4 Y20 Z0.3 F1500.0 E30 ; draw 2nd line
G92 E0 ; reset extruder
G1 Z1.0 F3000 ; move z up little to prevent scratching of surface
M117 Autobots! Roll Out!
; End of custom start GCode
G92 E0
G92 E0
G1 F2700 E-5
;LAYER_COUNT:70
;LAYER:0
M107
G0 F6000 X108.905 Y95.688 Z0.12
;TYPE:SKIRT
G1 F2700 E0
G1 F1200 X109.574 Y95.031 E0.01871
G1 X110.297 Y94.433 E0.03744
G1 X111.068 Y93.899 E0.05615
G1 X111.882 Y93.433 E0.07487
G1 X112.732 Y93.037 E0.09358
G1 X113.613 Y92.716 E0.1123
G1 X114.161 Y92.557 E0.12368
G1 X114.57 Y92.454 E0.1321
G1 X115.113 Y92.328 E0.14322
G1 X118.089 Y91.673 E0.20403
G1 X118.921 Y91.502 E0.22098
G1 X119.847 Y91.353 E0.2397
G1 X120.782 Y91.283 E0.25841
G1 X121.72 Y91.294 E0.27713
G1 X122.653 Y91.384 E0.29584
G1 X123.576 Y91.554 E0.31457
G1 X124.48 Y91.802 E0.33327
G1 X125.36 Y92.125 E0.35198
G1 X126.21 Y92.523 E0.37071
G1 X127.022 Y92.991 E0.38941
G1 X127.792 Y93.527 E0.40814
G1 X128.513 Y94.127 E0.42686
G1 X129.181 Y94.786 E0.44558
G1 X129.79 Y95.499 E0.46429
G1 X130.336 Y96.261 E0.483
G1 X130.815 Y97.068 E0.50173
G1 X131.223 Y97.912 E0.52044
G1 X131.559 Y98.788 E0.53916
G1 X131.799 Y99.61 E0.55625
G1 X131.875 Y99.914 E0.5625
G1 X131.945 Y100.212 E0.56861
G1 X137.624 Y125.954 E1.09467
G1 X137.763 Y126.627 E1.10839
G1 X137.913 Y127.553 E1.12711
G1 X137.984 Y128.488 E1.14582
G1 X137.975 Y129.426 E1.16454
G1 X137.886 Y130.359 E1.18324
G1 X137.718 Y131.282 E1.20197
G1 X137.472 Y132.187 E1.22068
G1 X137.15 Y133.068 E1.2394
G1 X136.754 Y133.918 E1.25811
G1 X136.287 Y134.731 E1.27682
G1 X135.752 Y135.502 E1.29555
G1 X135.154 Y136.224 E1.31426
G1 X134.496 Y136.893 E1.33299
G1 X133.784 Y137.503 E1.3517
G1 X133.022 Y138.05 E1.37041
G1 X132.217 Y138.531 E1.38913
G1 X131.374 Y138.941 E1.40784
G1 X130.498 Y139.278 E1.42657
G1 X129.597 Y139.539 E1.44529
G1 X128.45 Y139.755 E1.46858
G1 X127.087 Y139.938 E1.49602
G1 X124.586 Y140.309 E1.54648
G1 X122.076 Y140.755 E1.59735
G1 X119.626 Y141.262 E1.64728
G1 X117.21 Y141.833 E1.69682
G1 X114.732 Y142.494 E1.748
G1 X113.296 Y142.926 E1.77793
G1 X112.975 Y143.008 E1.78454
G1 X111.953 Y143.315 E1.80584
G1 X111.044 Y143.546 E1.82455
G1 X110.119 Y143.699 E1.84326
G1 X109.184 Y143.773 E1.86198
G1 X108.246 Y143.767 E1.8807
G1 X107.312 Y143.681 E1.89942
G1 X106.389 Y143.515 E1.91813
G1 X105.483 Y143.272 E1.93685
G1 X104.602 Y142.952 E1.95556
G1 X103.75 Y142.559 E1.97428
G1 X102.936 Y142.094 E1.99299
G1 X102.164 Y141.562 E2.0117
G1 X101.44 Y140.965 E2.03043
G1 X100.769 Y140.31 E2.04914
G1 X100.157 Y139.599 E2.06786
G1 X99.607 Y138.839 E2.08658
G1 X99.124 Y138.035 E2.1053
G1 X98.712 Y137.193 E2.124
G1 X98.503 Y136.68 E2.13506
G1 X98.17 Y135.798 E2.15387
G1 X97.829 Y134.85 E2.17398
G1 X97.609 Y134.211 E2.18746
G1 X97.342 Y133.312 E2.20618
G1 X97.152 Y132.393 E2.22491
G1 X97.042 Y131.462 E2.24362
G1 X97.011 Y130.525 E2.26232
G1 X97.059 Y129.588 E2.28105
G1 X97.188 Y128.659 E2.29976
G1 X97.395 Y127.744 E2.31849
G1 X97.68 Y126.851 E2.33719
G1 X97.894 Y126.31 E2.3488
G1 X98.048 Y125.958 E2.35647
G1 X98.505 Y124.959 E2.37839
G1 X99.304 Y123.198 E2.41698
G1 X100.289 Y120.867 E2.46748
G1 X101.194 Y118.53 E2.5175
G1 X102.038 Y116.164 E2.56763
G1 X102.824 Y113.743 E2.61842
G1 X103.519 Y111.378 E2.66761
G1 X104.169 Y108.912 E2.71851
G1 X104.748 Y106.433 E2.76931
G1 X105.247 Y103.974 E2.81938
G1 X105.563 Y102.199 E2.85536
G1 X105.766 Y101.283 E2.87408
G1 X106.047 Y100.388 E2.8928
G1 X106.317 Y99.711 E2.90735
G1 X106.423 Y99.469 E2.91262
G1 X106.836 Y98.626 E2.93136
G1 X107.162 Y98.066 E2.94429
G1 X107.271 Y97.891 E2.9484
G1 X107.414 Y97.668 E2.95369
G1 X107.747 Y97.161 E2.96579
G1 X108.295 Y96.4 E2.98451
G1 X108.905 Y95.688 E3.00322
G0 F6000 X109.221 Y95.937
G1 F1200 X109.88 Y95.294 E3.02159
G1 X110.593 Y94.711 E3.03997
G1 X111.353 Y94.192 E3.05834
G1 X112.156 Y93.742 E3.07671
G1 X112.995 Y93.362 E3.09509
G1 X114.262 Y92.944 E3.12171
G1 X114.661 Y92.843 E3.12992
G1 X115.199 Y92.719 E3.14094
G1 X118.327 Y92.031 E3.20486
G1 X119.001 Y91.893 E3.21859
G1 X119.91 Y91.748 E3.23696
G1 X120.828 Y91.682 E3.25532
G1 X121.749 Y91.696 E3.2737
G1 X122.665 Y91.79 E3.29208
G1 X123.569 Y91.963 E3.31045
G1 X124.455 Y92.214 E3.32883
G1 X125.315 Y92.541 E3.34719
G1 X126.145 Y92.941 E3.36557
G1 X126.936 Y93.411 E3.38393
G1 X127.683 Y93.949 E3.40231
G1 X128.381 Y94.549 E3.42067
G1 X129.025 Y95.208 E3.43906
G1 X129.608 Y95.92 E3.45743
G1 X130.128 Y96.68 E3.4758
G1 X130.58 Y97.482 E3.49417
G1 X130.96 Y98.32 E3.51254
G1 X131.267 Y99.188 E3.53091
G1 X131.411 Y99.707 E3.54166
G1 X131.487 Y100.011 E3.54791
G1 X131.554 Y100.298 E3.55379
G1 X137.232 Y126.035 E4.07975
G1 X137.371 Y126.708 E4.09347
G1 X137.518 Y127.617 E4.11184
G1 X137.585 Y128.535 E4.13021
G1 X137.573 Y129.456 E4.14859
G1 X137.481 Y130.372 E4.16696
G1 X137.309 Y131.276 E4.18533
G1 X137.06 Y132.162 E4.20369
G1 X136.735 Y133.024 E4.22208
G1 X136.336 Y133.854 E4.24046
G1 X135.867 Y134.646 E4.25883
G1 X135.33 Y135.394 E4.2772
G1 X134.731 Y136.093 E4.29557
G1 X134.074 Y136.737 E4.31393
G1 X133.363 Y137.322 E4.3323
G1 X132.604 Y137.843 E4.35068
G1 X131.802 Y138.297 E4.36907
G1 X130.965 Y138.679 E4.38743
G1 X130.097 Y138.986 E4.4058
G1 X129.206 Y139.218 E4.42418
G1 X128.397 Y139.358 E4.44056
G1 X127.11 Y139.53 E4.46647
G1 X124.494 Y139.919 E4.51925
G1 X121.997 Y140.362 E4.56986
G1 X119.568 Y140.866 E4.61937
G1 X117.08 Y141.453 E4.67038
G1 X114.641 Y142.104 E4.72076
G1 X113.181 Y142.543 E4.75118
G1 X112.865 Y142.623 E4.75769
G1 X111.838 Y142.932 E4.77909
G1 X110.946 Y143.158 E4.79745
G1 X110.037 Y143.306 E4.81583
G1 X109.119 Y143.375 E4.8342
G1 X108.198 Y143.364 E4.85258
G1 X107.282 Y143.273 E4.87095
G1 X106.377 Y143.102 E4.88933
G1 X105.491 Y142.854 E4.90769
G1 X104.629 Y142.53 E4.92607
G1 X103.799 Y142.132 E4.94444
G1 X103.006 Y141.664 E4.96281
G1 X102.257 Y141.129 E4.98118
G1 X101.557 Y140.531 E4.99956
G1 X100.912 Y139.874 E5.01793
G1 X100.326 Y139.164 E5.0363
G1 X99.804 Y138.406 E5.05467
G1 X99.35 Y137.605 E5.07304
G1 X98.877 Y136.538 E5.09633
G1 X98.546 Y135.662 E5.11502
G1 X98.207 Y134.72 E5.135
G1 X97.987 Y134.081 E5.14849
G1 X97.726 Y133.198 E5.16686
G1 X97.542 Y132.296 E5.18523
G1 X97.437 Y131.381 E5.20361
G1 X97.411 Y130.461 E5.22198
G1 X97.466 Y129.542 E5.24035
G1 X97.6 Y128.631 E5.25873
G1 X97.813 Y127.735 E5.27711
G1 X98.262 Y126.467 E5.30395
G1 X98.412 Y126.124 E5.31142
G1 X98.869 Y125.125 E5.33334
G1 X99.665 Y123.371 E5.37178
G1 X100.665 Y121.002 E5.4231
G1 X101.572 Y118.661 E5.4732
G1 X102.419 Y116.286 E5.52352
G1 X103.19 Y113.916 E5.57325
G1 X103.915 Y111.445 E5.62464
G1 X104.56 Y109 E5.67511
G1 X105.136 Y106.532 E5.72568
G1 X105.641 Y104.045 E5.77632
G1 X105.957 Y102.269 E5.81232
G1 X106.157 Y101.37 E5.8307
G1 X106.435 Y100.492 E5.84908
G1 X106.684 Y99.871 E5.86243
G1 X106.79 Y99.629 E5.86771
G1 X107.195 Y98.803 E5.88606
G1 X107.502 Y98.278 E5.8982
G1 X107.748 Y97.888 E5.9074
G1 X108.081 Y97.381 E5.91951
G1 X108.62 Y96.634 E5.93789
G1 X109.221 Y95.937 E5.95626
G0 F6000 X109.536 Y96.186
G1 F1200 X110.185 Y95.558 E5.97428
G1 X110.887 Y94.991 E5.99229
G1 X111.637 Y94.487 E6.01032
G1 X112.429 Y94.052 E6.02835
G1 X113.256 Y93.689 E6.04638
G1 X114.363 Y93.331 E6.06959
G1 X114.753 Y93.233 E6.07762
G1 X115.285 Y93.109 E6.08852
G1 X118.407 Y92.423 E6.15231
G1 X119.081 Y92.285 E6.16604
G1 X119.973 Y92.143 E6.18406
G1 X120.874 Y92.081 E6.20209
G1 X121.777 Y92.099 E6.22011
G1 X122.675 Y92.196 E6.23813
G1 X123.56 Y92.373 E6.25615
G1 X124.427 Y92.627 E6.27417
G1 X125.268 Y92.956 E6.2922
G1 X126.076 Y93.359 E6.31021
G1 X126.846 Y93.832 E6.32825
G1 X127.57 Y94.371 E6.34626
G1 X128.244 Y94.972 E6.36428
G1 X128.863 Y95.63 E6.38231
G1 X129.42 Y96.34 E6.40032
G1 X129.913 Y97.097 E6.41835
G1 X130.337 Y97.894 E6.43636
G1 X130.689 Y98.726 E6.45439
G1 X131.022 Y99.804 E6.47691
G1 X131.098 Y100.108 E6.48316
G1 X131.163 Y100.384 E6.48882
G1 X136.84 Y126.116 E7.01468
G1 X136.979 Y126.789 E7.02839
G1 X137.123 Y127.681 E7.04642
G1 X137.186 Y128.581 E7.06443
G1 X137.17 Y129.484 E7.08245
G1 X137.075 Y130.382 E7.10047
G1 X136.9 Y131.268 E7.11849
G1 X136.647 Y132.135 E7.13652
G1 X136.319 Y132.977 E7.15455
G1 X135.917 Y133.786 E7.17258
G1 X135.446 Y134.556 E7.19059
G1 X134.908 Y135.282 E7.20862
G1 X134.309 Y135.957 E7.22663
G1 X133.651 Y136.576 E7.24466
G1 X132.942 Y137.135 E7.26268
G1 X132.186 Y137.629 E7.2807
G1 X131.389 Y138.054 E7.29873
G1 X130.558 Y138.408 E7.31675
G1 X129.699 Y138.686 E7.33477
G1 X128.818 Y138.887 E7.3528
G1 X128.344 Y138.962 E7.36238
G1 X126.996 Y139.143 E7.38952
G1 X124.436 Y139.523 E7.44117
G1 X121.951 Y139.964 E7.49153
G1 X119.431 Y140.486 E7.54289
G1 X117.023 Y141.055 E7.59227
G1 X114.519 Y141.723 E7.64399
G1 X113.066 Y142.16 E7.67427
G1 X112.758 Y142.238 E7.68061
G1 X111.723 Y142.549 E7.70217
G1 X110.847 Y142.77 E7.7202
G1 X109.956 Y142.913 E7.73821
G1 X109.055 Y142.977 E7.75624
G1 X108.152 Y142.96 E7.77426
G1 X107.254 Y142.864 E7.79228
G1 X106.368 Y142.689 E7.8103
G1 X105.501 Y142.436 E7.82833
G1 X104.66 Y142.107 E7.84635
G1 X103.851 Y141.706 E7.86437
G1 X103.081 Y141.234 E7.88239
G1 X102.355 Y140.696 E7.90042
G1 X101.68 Y140.096 E7.91845
G1 X101.061 Y139.439 E7.93646
G1 X100.502 Y138.729 E7.95449
G1 X100.009 Y137.973 E7.97251
G1 X99.584 Y137.176 E7.99053
G1 X99.251 Y136.397 E8.00744
G1 X98.922 Y135.527 E8.026
G1 X98.634 Y134.728 E8.04295
G1 X98.366 Y133.95 E8.05937
G1 X98.11 Y133.084 E8.07739
G1 X97.931 Y132.199 E8.09541
G1 X97.832 Y131.301 E8.11344
G1 X97.813 Y130.399 E8.13144
G1 X97.873 Y129.497 E8.14948
G1 X98.013 Y128.605 E8.1675
G1 X98.231 Y127.729 E8.18552
G1 X98.63 Y126.624 E8.20896
G1 X98.775 Y126.291 E8.21621
G1 X99.232 Y125.292 E8.23813
G1 X100.046 Y123.498 E8.27745
G1 X101.027 Y121.176 E8.32775
G1 X101.951 Y118.791 E8.37879
G1 X102.79 Y116.438 E8.42865
G1 X103.581 Y114.005 E8.4797
G1 X104.3 Y111.554 E8.53067
G1 X104.942 Y109.121 E8.58089
G1 X105.53 Y106.605 E8.63245
G1 X106.028 Y104.148 E8.68248
G1 X106.35 Y102.339 E8.71915
G1 X106.548 Y101.457 E8.73719
G1 X106.822 Y100.597 E8.7552
G1 X107.05 Y100.032 E8.76736
G1 X107.156 Y99.79 E8.77263
G1 X107.555 Y98.979 E8.79067
G1 X107.841 Y98.489 E8.80199
G1 X108.082 Y98.107 E8.811
G1 X108.415 Y97.6 E8.82311
G1 X108.944 Y96.868 E8.84113
G1 X109.536 Y96.186 E8.85915
G1 F2700 E3.85915
;MESH:Cable_Cap_-_V52.stl
G0 F6000 X109.825 Y128.564
G0 X110.148 Y129.6
G0 X109.28 Y130.696
G0 X109.385 Y131.525
;TYPE:WALL-INNER
G1 F2700 E8.85915
G1 F1200 X109.124 Y130.803 E8.87447
G1 X109.081 Y130.682 E8.87704
G1 X109.143 Y130.55 E8.87995
G1 X109.265 Y130.509 E8.88252
G1 X110.316 Y130.155 E8.90465
G1 X111.897 Y129.661 E8.9377
G1 X113.475 Y129.209 E8.97046
G1 X115.065 Y128.793 E9.00326
G1 X116.68 Y128.408 E9.03639
G1 X118.276 Y128.066 E9.06896
G1 X119.889 Y127.76 E9.10173
G1 X122.356 Y127.347 E9.15164
G1 X122.563 Y127.313 E9.15583
G1 X122.518 Y127.108 E9.15849
G1 X117.492 Y104.33 E9.62399
G1 X117.467 Y104.215 E9.62634
G1 X117.554 Y104.078 E9.62958
G1 X117.669 Y104.053 E9.63192
G1 X120.372 Y103.457 E9.68716
G1 X125.731 Y127.747 E10.18355
G1 X125.779 Y127.967 E10.18805
G1 X125.554 Y127.987 E10.19086
G1 X125.193 Y128.02 E10.19809
G1 X123.48 Y128.219 E10.23251
G1 X121.773 Y128.461 E10.26691
G1 X120.073 Y128.742 E10.3013
G1 X118.379 Y129.065 E10.33571
G1 X116.695 Y129.43 E10.3701
G1 X115.02 Y129.833 E10.40448
G1 X113.354 Y130.279 E10.4389
G1 X111.7 Y130.766 E10.47331
G1 X110.057 Y131.292 E10.50773
G1 X109.385 Y131.525 E10.52193
G0 F6000 X109.143 Y132.032
G1 F1200 X108.648 Y130.661 E10.55102
G1 X108.854 Y130.225 E10.56064
G1 X110.197 Y129.773 E10.58892
G1 X111.787 Y129.276 E10.62216
G1 X113.365 Y128.824 E10.65492
G1 X114.972 Y128.404 E10.68807
G1 X116.587 Y128.019 E10.7212
G1 X118.201 Y127.673 E10.75414
G1 X119.823 Y127.365 E10.78709
G1 X121.875 Y127.022 E10.8286
G1 X122.082 Y126.988 E10.83279
G1 X122.037 Y126.783 E10.83546
G1 X117.041 Y104.14 E11.29819
G1 X117.307 Y103.723 E11.30806
G1 X120.677 Y102.98 E11.37693
G1 X126.22 Y128.104 E11.89036
G1 X126.268 Y128.324 E11.89486
G1 X126.043 Y128.344 E11.89767
G1 X125.234 Y128.418 E11.91388
G1 X123.531 Y128.616 E11.9481
G1 X121.834 Y128.856 E11.9823
G1 X120.143 Y129.136 E12.0165
G1 X118.459 Y129.457 E12.05071
G1 X116.784 Y129.82 E12.08492
G1 X115.119 Y130.221 E12.11909
G1 X113.462 Y130.664 E12.15332
G1 X111.817 Y131.148 E12.18754
G1 X110.184 Y131.671 E12.22176
G1 X109.143 Y132.032 E12.24375
G0 F6000 X108.901 Y132.539
;TYPE:WALL-OUTER
G1 F1200 X108.215 Y130.64 E12.28404
G1 X108.565 Y129.9 E12.30038
G1 X110.078 Y129.391 E12.33223
G1 X111.668 Y128.895 E12.36547
G1 X113.264 Y128.437 E12.39861
G1 X114.879 Y128.015 E12.43192
G1 X116.494 Y127.63 E12.46505
G1 X118.126 Y127.28 E12.49836
G1 X119.757 Y126.97 E12.53149
G1 X121.601 Y126.663 E12.5688
G1 X116.615 Y104.065 E13.03061
G1 X117.06 Y103.368 E13.04711
G1 X120.982 Y102.503 E13.12726
G1 X126.757 Y128.681 E13.66223
G1 X125.275 Y128.816 E13.69193
G1 X123.582 Y129.013 E13.72594
G1 X121.895 Y129.251 E13.75994
G1 X120.213 Y129.53 E13.79397
G1 X118.539 Y129.849 E13.82798
G1 X116.873 Y130.21 E13.86199
G1 X115.217 Y130.609 E13.89599
G1 X113.57 Y131.049 E13.93001
G1 X111.934 Y131.53 E13.96404
G1 X110.311 Y132.05 E13.99805
G1 X108.901 Y132.539 E14.02783
G0 F6000 X109.065 Y132.195
G0 X109.358 Y131.123
G0 X109.621 Y131.03
;TYPE:SKIN
G1 F1200 X109.548 Y130.826 E14.03215
G1 X110.441 Y130.525 E14.05096
G1 X112.009 Y130.035 E14.08374
G1 X113.582 Y129.584 E14.1164
G1 X115.106 Y129.185 E14.14784
G1 X116.762 Y128.79 E14.18181
G1 X118.402 Y128.439 E14.21528
G1 X119.957 Y128.143 E14.24687
G1 X123.033 Y127.63 E14.3091
G1 X117.907 Y104.4 E14.78383
G1 X120.075 Y103.922 E14.82814
G1 X125.303 Y127.618 E15.31239
G1 X125.152 Y127.632 E15.31542
G1 X123.43 Y127.833 E15.35001
G1 X121.714 Y128.075 E15.3846
G1 X120.005 Y128.358 E15.41917
G1 X118.301 Y128.683 E15.45379
G1 X116.608 Y129.05 E15.48836
G1 X114.924 Y129.455 E15.52292
G1 X113.249 Y129.903 E15.55752
G1 X111.585 Y130.393 E15.59214
G1 X109.934 Y130.922 E15.62674
G1 X109.621 Y131.03 E15.63334
G0 F6000 X109.358 Y131.123
G0 X123.732 Y128.079
G0 X123.682 Y127.641
G1 F1200 X123.062 Y127.022 E15.65083
G0 F6000 X122.902 Y126.297
G1 F1200 X124.188 Y127.582 E15.68711
G0 F6000 X124.694 Y127.523
G1 F1200 X122.742 Y125.57 E15.74221
G0 F6000 X122.581 Y124.844
G1 F1200 X125.08 Y127.342 E15.81272
G0 F6000 X124.92 Y126.617
G1 F1200 X122.422 Y124.119 E15.88322
G0 F6000 X122.261 Y123.392
G1 F1200 X124.759 Y125.891 E15.95374
G0 F6000 X124.599 Y125.164
G1 F1200 X122.101 Y122.666 E16.02423
G0 F6000 X121.941 Y121.941
G1 F1200 X124.439 Y124.439 E16.09473
G0 F6000 X124.278 Y123.713
G1 F1200 X121.78 Y121.215 E16.16523
G0 F6000 X121.62 Y120.488
G1 F1200 X124.119 Y122.987 E16.23576
G0 F6000 X123.958 Y122.261
G1 F1200 X121.46 Y119.763 E16.30626
G0 F6000 X121.299 Y119.037
G1 F1200 X123.798 Y121.535 E16.37677
G0 F6000 X123.638 Y120.809
G1 F1200 X121.139 Y118.31 E16.4473
G0 F6000 X120.979 Y117.585
G1 F1200 X123.477 Y120.083 E16.5178
G0 F6000 X123.318 Y119.358
G1 F1200 X120.819 Y116.859 E16.58832
G0 F6000 X120.659 Y116.133
G1 F1200 X123.157 Y118.632 E16.65884
G0 F6000 X122.996 Y117.905
G1 F1200 X120.498 Y115.407 E16.72934
G0 F6000 X120.338 Y114.681
G1 F1200 X122.837 Y117.18 E16.79986
G0 F6000 X122.676 Y116.454
G1 F1200 X120.178 Y113.955 E16.87038
G0 F6000 X120.017 Y113.229
G1 F1200 X122.516 Y115.728 E16.9409
G0 F6000 X122.356 Y115.002
