;FLAVOR:Marlin
;TIME:195
;Filament used: 0.035598m
;Layer height: 0.12
;MINX:100.069
;MINY:104.216
;MINZ:0.12
;MAXX:128.044
;MAXY:132.186
;MAXZ:3
;Generated with Cura_SteamEngine 4.6.0
M82 ;absolute extrusion mode
; Ender 3 Custom Start G-code
M140 S60 ; Set Heat Bed temperature
M190 S60 ; Wait for Heat Bed temperature
M104 S160; start warming extruder to 160
G28 ; Home all axes
M117 Nivellement Auto GO !
G29 ; Auto bed-level (BL-Touch)
G92 E0 ; Reset Extruder
M104 S210 ; Set Extruder temperature
M109 S210 ; Wait for Extruder temperature
G1 Z1.0 F3000 ; move z up little to prevent scratching of surface
G1 X0.1 Y20 Z0.3 F5000.0 ; move to start-line position
G1 X0.1 Y200.0 Z0.3 F1500.0 E15 ; draw 1st line
G1 X0.4 Y200.0 Z0.3 F5000.0 ; move to side a little
G1 X0.4 Y20 Z0.3 F1500.0 E30 ; draw 2nd line
G92 E0 ; reset extruder
G1 Z1.0 F3000 ; move z up little to prevent scratching of surface
M117 Allez Printe ma belle !
; End of custom start GCode
G92 E0
G92 E0
G1 F2700 E-5
;LAYER_COUNT:25
;LAYER:0
M107
G0 F6000 X115.157 Y105.062 Z0.12
;TYPE:SKIRT
G1 F2700 E0
G1 F1200 X115.436 Y105.088 E0.00559
G1 X116.604 Y105.265 E0.02917
G1 X116.807 Y105.308 E0.03331
G1 X116.972 Y105.344 E0.03668
G1 X117.662 Y105.518 E0.05088
G1 X117.879 Y105.581 E0.05539
G1 X118.932 Y105.951 E0.07766
G1 X119.186 Y106.056 E0.08315
G1 X119.876 Y106.37 E0.09827
G1 X120.929 Y106.958 E0.12234
G1 X121.383 Y107.248 E0.13309
G1 X122.122 Y107.767 E0.15111
G1 X122.475 Y108.052 E0.16017
G1 X122.649 Y108.199 E0.16471
G1 X123.197 Y108.698 E0.1795
G1 X123.378 Y108.875 E0.18456
G1 X123.996 Y109.535 E0.2026
G1 X124.154 Y109.736 E0.2077
G1 X124.159 Y109.732 E0.20783
G1 X124.425 Y110.059 E0.21624
G1 X125.164 Y111.094 E0.24162
G1 X125.287 Y111.291 E0.24626
G1 X125.766 Y112.147 E0.26583
G1 X125.881 Y112.378 E0.27098
G1 X126.096 Y112.839 E0.28113
G1 X126.228 Y113.141 E0.28771
G1 X126.652 Y114.295 E0.31224
G1 X126.712 Y114.495 E0.31641
G1 X126.864 Y115.061 E0.32811
G1 X126.905 Y115.233 E0.33163
G1 X127.083 Y116.17 E0.35067
G1 X127.138 Y116.559 E0.35851
G1 X127.235 Y117.72 E0.38176
G1 X127.244 Y118.131 E0.38996
G1 X127.217 Y119.033 E0.40797
G1 X127.196 Y119.318 E0.41367
G1 X127.076 Y120.297 E0.43336
G1 X127.028 Y120.576 E0.43901
G1 X126.894 Y121.231 E0.45235
G1 X126.532 Y122.468 E0.47807
G1 X126.376 Y122.898 E0.4872
G1 X126.185 Y123.387 E0.49767
G1 X126.166 Y123.432 E0.49865
G1 X125.844 Y124.12 E0.51381
G1 X125.746 Y124.311 E0.51809
G1 X125.384 Y124.958 E0.53289
G1 X125.23 Y125.211 E0.5388
G1 X124.561 Y126.18 E0.5623
G1 X124.48 Y126.286 E0.56496
G1 X124.477 Y126.284 E0.56503
G1 X123.931 Y126.946 E0.58215
G1 X123.513 Y127.397 E0.59443
G1 X123.096 Y127.807 E0.6061
G1 X122.945 Y127.947 E0.61021
G1 X122.478 Y128.354 E0.62257
G1 X122.328 Y128.477 E0.62644
G1 X121.678 Y128.968 E0.64269
G1 X121.179 Y129.306 E0.65472
G1 X120.412 Y129.758 E0.67249
G1 X120.117 Y129.915 E0.67916
G1 X119.334 Y130.29 E0.69648
G1 X119.072 Y130.402 E0.70217
G1 X118.086 Y130.765 E0.72314
G1 X117.575 Y130.913 E0.73375
G1 X116.987 Y131.062 E0.74586
G1 X116.07 Y131.239 E0.7645
G1 X115.794 Y131.279 E0.77006
G1 X114.725 Y131.376 E0.79148
G1 X114.466 Y131.386 E0.79665
G1 X113.635 Y131.385 E0.81324
G1 X113.332 Y131.372 E0.81929
G1 X112.424 Y131.292 E0.83748
G1 X112.191 Y131.261 E0.84217
G1 X111.129 Y131.062 E0.86373
G1 X110.816 Y130.986 E0.87016
G1 X110.088 Y130.78 E0.88526
G1 X109.862 Y130.707 E0.89
G1 X109.013 Y130.391 E0.90808
G1 X108.98 Y130.377 E0.90879
G1 X108.565 Y130.19 E0.91788
G1 X108.224 Y130.027 E0.92542
G1 X107.122 Y129.413 E0.95059
G1 X106.727 Y129.16 E0.95995
G1 X105.652 Y128.368 E0.9866
G1 X105.486 Y128.228 E0.99093
G1 X104.85 Y127.643 E1.00818
G1 X104.39 Y127.176 E1.02126
G1 X104.361 Y127.145 E1.02211
G1 X103.717 Y126.386 E1.04197
G1 X103.539 Y126.154 E1.04781
G1 X103.161 Y125.627 E1.06075
G1 X102.998 Y125.384 E1.06659
G1 X102.499 Y124.558 E1.08585
G1 X102.401 Y124.377 E1.08995
G1 X102.052 Y123.668 E1.10573
G1 X101.963 Y123.468 E1.11009
G1 X101.64 Y122.649 E1.12766
G1 X101.543 Y122.368 E1.1336
G1 X101.301 Y121.562 E1.15039
G1 X101.089 Y120.587 E1.1703
G1 X101.021 Y120.179 E1.17856
G1 X100.903 Y119.149 E1.19924
G1 X100.888 Y118.913 E1.20396
G1 X100.868 Y118.094 E1.22031
G1 X100.871 Y117.916 E1.22387
G1 X100.923 Y117.053 E1.24112
G1 X100.959 Y116.7 E1.2482
G1 X101.138 Y115.572 E1.27099
G1 X101.217 Y115.208 E1.27842
G1 X101.52 Y114.112 E1.30112
G1 X101.608 Y113.851 E1.30661
G1 X101.97 Y112.928 E1.3264
G1 X102.129 Y112.577 E1.33409
G1 X102.142 Y112.549 E1.33471
G1 X102.641 Y111.606 E1.356
G1 X102.799 Y111.342 E1.36214
G1 X103.175 Y110.758 E1.376
G1 X103.33 Y110.535 E1.38142
G1 X103.984 Y109.693 E1.40269
G1 X104.173 Y109.474 E1.40847
G1 X104.819 Y108.791 E1.42723
G1 X105.009 Y108.608 E1.43249
G1 X105.678 Y108.018 E1.45029
G1 X105.844 Y107.884 E1.45455
G1 X106.479 Y107.425 E1.47018
G1 X106.473 Y107.416 E1.4704
G1 X106.66 Y107.287 E1.47493
G1 X107.334 Y106.86 E1.49086
G1 X107.584 Y106.715 E1.49662
G1 X108.458 Y106.263 E1.51626
G1 X108.67 Y106.166 E1.52091
G1 X109.786 Y105.732 E1.54481
G1 X110.084 Y105.636 E1.55106
G1 X110.75 Y105.447 E1.56487
G1 X111.14 Y105.35 E1.57289
G1 X112.462 Y105.112 E1.5997
G1 X112.702 Y105.085 E1.60452
G1 X113.549 Y105.024 E1.62146
G1 X114.117 Y105.016 E1.6328
G1 X114.345 Y105.019 E1.63735
G1 X115.157 Y105.062 E1.65358
G0 F6000 X115.195 Y104.664
G1 F1200 X115.474 Y104.69 E1.65917
G1 X116.687 Y104.874 E1.68365
G1 X116.89 Y104.917 E1.68779
G1 X117.056 Y104.953 E1.69118
G1 X117.773 Y105.134 E1.70594
G1 X117.99 Y105.197 E1.71045
G1 X119.085 Y105.581 E1.73361
G1 X119.339 Y105.686 E1.73909
G1 X120.05 Y106.01 E1.75468
G1 X121.144 Y106.621 E1.77969
G1 X121.598 Y106.911 E1.79044
G1 X122.352 Y107.44 E1.80882
G1 X122.733 Y107.747 E1.81859
G1 X122.907 Y107.894 E1.82313
G1 X123.477 Y108.412 E1.8385
G1 X123.658 Y108.589 E1.84355
G1 X124.288 Y109.261 E1.86194
G1 X124.464 Y109.484 E1.86761
G1 X124.469 Y109.48 E1.86773
G1 X124.735 Y109.807 E1.87615
G1 X125.503 Y110.882 E1.90251
G1 X125.626 Y111.079 E1.90715
G1 X126.124 Y111.969 E1.9275
G1 X126.239 Y112.2 E1.93265
G1 X126.463 Y112.679 E1.9432
G1 X126.595 Y112.981 E1.94978
G1 X127.035 Y114.18 E1.97527
G1 X127.095 Y114.38 E1.97943
G1 X127.253 Y114.968 E1.99158
G1 X127.294 Y115.14 E1.99511
G1 X127.479 Y116.114 E2.0149
G1 X127.534 Y116.503 E2.02274
G1 X127.634 Y117.709 E2.04689
G1 X127.644 Y118.125 E2.05519
G1 X127.616 Y119.062 E2.0739
G1 X127.595 Y119.347 E2.0796
G1 X127.471 Y120.365 E2.10007
G1 X127.423 Y120.644 E2.10571
G1 X127.285 Y121.319 E2.11946
G1 X126.909 Y122.604 E2.14618
G1 X126.753 Y123.034 E2.15531
G1 X126.553 Y123.542 E2.16621
G1 X126.534 Y123.587 E2.16718
G1 X126.2 Y124.303 E2.18295
G1 X126.102 Y124.494 E2.18723
G1 X125.726 Y125.166 E2.2026
G1 X125.572 Y125.419 E2.20851
G1 X124.935 Y126.35 E2.23102
G1 X124.798 Y126.529 E2.23552
G1 X124.793 Y126.525 E2.23565
G1 X124.227 Y127.215 E2.25346
G1 X123.802 Y127.674 E2.26594
G1 X123.368 Y128.1 E2.27808
G1 X123.217 Y128.24 E2.28219
G1 X122.731 Y128.664 E2.29506
G1 X122.581 Y128.787 E2.29893
G1 X121.906 Y129.297 E2.31581
G1 X121.397 Y129.642 E2.32808
G1 X120.6 Y130.111 E2.34654
G1 X120.305 Y130.268 E2.3532
G1 X119.492 Y130.658 E2.3712
G1 X119.23 Y130.77 E2.37689
G1 X118.205 Y131.147 E2.39868
G1 X117.683 Y131.298 E2.40952
G1 X117.081 Y131.451 E2.42192
G1 X116.127 Y131.634 E2.44131
G1 X115.851 Y131.674 E2.44687
G1 X114.74 Y131.776 E2.46913
G1 X114.481 Y131.786 E2.47431
G1 X113.618 Y131.784 E2.49153
G1 X113.315 Y131.771 E2.49758
G1 X112.371 Y131.688 E2.51649
G1 X112.138 Y131.657 E2.52118
G1 X111.035 Y131.451 E2.54358
G1 X110.722 Y131.375 E2.55
G1 X109.965 Y131.161 E2.5657
G1 X109.739 Y131.088 E2.57044
G1 X108.857 Y130.759 E2.58923
G1 X108.824 Y130.745 E2.58994
G1 X108.393 Y130.551 E2.59938
G1 X108.052 Y130.388 E2.60692
G1 X106.906 Y129.75 E2.63309
G1 X106.511 Y129.497 E2.64245
G1 X105.758 Y128.967 E2.66083
G1 X105.228 Y128.534 E2.67449
G1 X104.567 Y127.926 E2.69241
G1 X104.344 Y127.703 E2.6987
G1 X104.098 Y127.449 E2.70576
G1 X104.069 Y127.418 E2.70661
G1 X103.4 Y126.629 E2.72725
G1 X103.222 Y126.397 E2.73309
G1 X102.829 Y125.85 E2.74653
G1 X102.666 Y125.607 E2.75237
G1 X102.148 Y124.749 E2.77237
G1 X102.05 Y124.568 E2.77648
G1 X101.687 Y123.831 E2.79287
G1 X101.598 Y123.631 E2.79724
G1 X101.262 Y122.78 E2.8155
G1 X101.165 Y122.499 E2.82143
G1 X100.914 Y121.666 E2.83879
G1 X100.694 Y120.653 E2.85948
G1 X100.626 Y120.245 E2.86773
G1 X100.503 Y119.174 E2.88925
G1 X100.488 Y118.938 E2.89396
G1 X100.469 Y118.087 E2.91095
G1 X100.472 Y117.909 E2.9145
G1 X100.525 Y117.013 E2.93242
G1 X100.561 Y116.66 E2.9395
G1 X100.747 Y115.487 E2.9632
G1 X100.826 Y115.123 E2.97063
G1 X101.141 Y113.984 E2.99421
G1 X101.229 Y113.723 E2.99971
G1 X101.605 Y112.764 E3.02027
G1 X101.766 Y112.408 E3.02806
G1 X101.779 Y112.38 E3.02868
G1 X102.298 Y111.4 E3.05081
G1 X102.456 Y111.136 E3.05695
G1 X102.847 Y110.53 E3.07134
G1 X103.002 Y110.307 E3.07676
G1 X103.681 Y109.431 E3.09888
G1 X103.87 Y109.212 E3.10465
G1 X104.542 Y108.503 E3.12415
G1 X104.732 Y108.32 E3.12941
G1 X105.427 Y107.707 E3.14791
G1 X105.593 Y107.573 E3.15216
G1 X106.253 Y107.097 E3.1684
G1 X106.246 Y107.087 E3.16865
G1 X106.433 Y106.958 E3.17318
G1 X107.134 Y106.514 E3.18974
G1 X107.384 Y106.369 E3.19551
G1 X108.292 Y105.899 E3.21591
G1 X108.504 Y105.802 E3.22056
G1 X109.664 Y105.352 E3.24539
G1 X109.962 Y105.256 E3.25164
G1 X110.654 Y105.058 E3.266
G1 X111.044 Y104.961 E3.27402
G1 X111.946 Y104.778 E3.29239
G1 X112.417 Y104.714 E3.30188
G1 X112.657 Y104.687 E3.3067
G1 X113.532 Y104.625 E3.3242
G1 X114.122 Y104.616 E3.33598
G1 X114.35 Y104.619 E3.34053
G1 X115.195 Y104.664 E3.35741
G0 F6000 X115.232 Y104.265
G1 F1200 X115.511 Y104.291 E3.36301
G1 X116.769 Y104.483 E3.3884
G1 X116.972 Y104.526 E3.39254
G1 X117.14 Y104.562 E3.39597
G1 X117.885 Y104.75 E3.4113
G1 X118.102 Y104.813 E3.41581
G1 X119.237 Y105.211 E3.43982
G1 X119.491 Y105.316 E3.4453
G1 X120.224 Y105.65 E3.46138
G1 X121.359 Y106.284 E3.48732
G1 X121.813 Y106.574 E3.49807
G1 X122.582 Y107.112 E3.5168
G1 X122.991 Y107.441 E3.52727
G1 X123.165 Y107.588 E3.53182
G1 X123.757 Y108.126 E3.54778
G1 X123.938 Y108.303 E3.55284
G1 X124.58 Y108.987 E3.57156
G1 X124.774 Y109.232 E3.57779
G1 X124.779 Y109.228 E3.57792
G1 X125.045 Y109.555 E3.58633
G1 X125.843 Y110.67 E3.6137
G1 X125.966 Y110.867 E3.61833
G1 X126.482 Y111.791 E3.63945
G1 X126.597 Y112.022 E3.6446
G1 X126.829 Y112.518 E3.65553
G1 X126.961 Y112.82 E3.6621
G1 X127.418 Y114.065 E3.68857
G1 X127.478 Y114.265 E3.69274
G1 X127.642 Y114.875 E3.70534
G1 X127.683 Y115.047 E3.70887
G1 X127.875 Y116.058 E3.72941
G1 X127.93 Y116.447 E3.73725
G1 X128.034 Y117.699 E3.76232
G1 X128.044 Y118.119 E3.7707
G1 X128.015 Y119.091 E3.79011
G1 X127.994 Y119.376 E3.79581
G1 X127.865 Y120.433 E3.81706
G1 X127.817 Y120.712 E3.82271
G1 X127.675 Y121.407 E3.83687
G1 X127.285 Y122.74 E3.86458
G1 X127.129 Y123.17 E3.87371
G1 X126.922 Y123.698 E3.88503
G1 X126.903 Y123.743 E3.88601
G1 X126.556 Y124.486 E3.90237
G1 X126.458 Y124.677 E3.90665
G1 X126.067 Y125.374 E3.9226
G1 X125.913 Y125.627 E3.92851
G1 X125.252 Y126.594 E3.95189
G1 X125.115 Y126.773 E3.95639
G1 X125.109 Y126.768 E3.95654
G1 X124.523 Y127.484 E3.97501
G1 X124.09 Y127.951 E3.98772
G1 X123.64 Y128.393 E4.0003
G1 X123.489 Y128.533 E4.00441
G1 X122.985 Y128.973 E4.01776
G1 X122.835 Y129.096 E4.02163
G1 X122.134 Y129.625 E4.03916
G1 X121.615 Y129.977 E4.05167
G1 X120.788 Y130.464 E4.07083
G1 X120.493 Y130.621 E4.0775
G1 X119.649 Y131.026 E4.09618
G1 X119.387 Y131.138 E4.10186
G1 X118.323 Y131.529 E4.12449
G1 X117.792 Y131.683 E4.13552
G1 X117.174 Y131.84 E4.14824
G1 X116.185 Y132.03 E4.16834
G1 X115.909 Y132.07 E4.17391
G1 X114.755 Y132.176 E4.19703
G1 X114.496 Y132.186 E4.20221
G1 X113.6 Y132.184 E4.22009
G1 X113.297 Y132.171 E4.22614
G1 X112.318 Y132.085 E4.24575
G1 X112.085 Y132.054 E4.25044
G1 X110.94 Y131.839 E4.27369
G1 X110.627 Y131.763 E4.28012
G1 X109.842 Y131.541 E4.2964
G1 X109.616 Y131.468 E4.30114
G1 X108.701 Y131.127 E4.32062
G1 X108.668 Y131.113 E4.32134
G1 X108.22 Y130.911 E4.33115
G1 X107.879 Y130.748 E4.33869
G1 X106.69 Y130.087 E4.36584
G1 X106.295 Y129.834 E4.3752
G1 X105.528 Y129.295 E4.39391
G1 X105.136 Y128.98 E4.40394
G1 X104.97 Y128.84 E4.40827
G1 X104.284 Y128.209 E4.42688
G1 X104.061 Y127.986 E4.43317
G1 X103.806 Y127.723 E4.44048
G1 X103.777 Y127.692 E4.44133
G1 X103.083 Y126.873 E4.46275
G1 X102.905 Y126.641 E4.46858
G1 X102.497 Y126.073 E4.48254
G1 X102.334 Y125.83 E4.48838
G1 X101.796 Y124.939 E4.50915
G1 X101.698 Y124.758 E4.51326
G1 X101.321 Y123.993 E4.53028
G1 X101.232 Y123.793 E4.53465
G1 X100.884 Y122.91 E4.55359
G1 X100.787 Y122.629 E4.55952
G1 X100.528 Y121.77 E4.57742
G1 X100.3 Y120.718 E4.59891
G1 X100.232 Y120.31 E4.60716
G1 X100.104 Y119.2 E4.62946
G1 X100.089 Y118.964 E4.63418
G1 X100.069 Y118.081 E4.6518
G1 X100.072 Y117.903 E4.65536
G1 X100.127 Y116.972 E4.67397
G1 X100.163 Y116.619 E4.68105
G1 X100.356 Y115.402 E4.70564
G1 X100.435 Y115.038 E4.71307
G1 X100.762 Y113.857 E4.73753
G1 X100.85 Y113.596 E4.74302
G1 X101.24 Y112.599 E4.76439
G1 X101.403 Y112.24 E4.77225
G1 X101.416 Y112.212 E4.77287
G1 X101.954 Y111.195 E4.79583
G1 X102.112 Y110.931 E4.80197
G1 X102.519 Y110.302 E4.81692
G1 X102.674 Y110.079 E4.82234
G1 X103.378 Y109.17 E4.84529
G1 X103.567 Y108.951 E4.85106
G1 X104.264 Y108.215 E4.87129
G1 X104.454 Y108.032 E4.87655
G1 X105.176 Y107.396 E4.89575
G1 X105.342 Y107.262 E4.90001
G1 X106.026 Y106.768 E4.91685
G1 X106.019 Y106.757 E4.91711
G1 X106.206 Y106.628 E4.92164
G1 X106.933 Y106.168 E4.93881
G1 X107.183 Y106.023 E4.94458
G1 X108.125 Y105.535 E4.96575
G1 X108.337 Y105.438 E4.9704
G1 X109.541 Y104.971 E4.99617
G1 X109.839 Y104.875 E5.00242
G1 X110.557 Y104.67 E5.01732
G1 X110.947 Y104.573 E5.02534
G1 X111.866 Y104.386 E5.04406
G1 X112.372 Y104.317 E5.05425
G1 X112.612 Y104.29 E5.05907
G1 X113.515 Y104.225 E5.07713
G1 X114.128 Y104.216 E5.08937
G1 X114.356 Y104.219 E5.09392
G1 X115.232 Y104.265 E5.11143
G1 F2700 E0.11143
;MESH:test moteur.stl
G0 F6000 X115.489 Y114.832
G0 X115.148 Y115.866
G0 X115.836 Y117.93
;TYPE:WALL-INNER
G1 F2700 E5.11143
G1 F1200 X115.834 Y117.912 E5.11179
G1 X115.792 Y117.726 E5.11559
G1 X115.761 Y117.621 E5.11778
G1 X115.683 Y117.429 E5.12191
G1 X115.594 Y117.267 E5.1256
G1 X115.487 Y117.109 E5.12941
G1 X115.294 Y116.895 E5.13516
G1 X115.132 Y116.76 E5.13937
G1 X114.971 Y116.654 E5.14322
G1 X114.802 Y116.566 E5.14702
G1 X114.689 Y116.518 E5.14947
G1 X114.511 Y116.462 E5.15319
G1 X114.243 Y116.414 E5.15862
G1 X114.127 Y116.405 E5.16095
G1 X113.963 Y116.407 E5.16422
G1 X113.741 Y116.432 E5.16868
G1 X113.544 Y116.477 E5.17271
G1 X113.364 Y116.542 E5.17653
G1 X113.256 Y116.591 E5.1789
G1 X113.098 Y116.681 E5.18252
G1 X112.904 Y116.817 E5.18725
G1 X112.888 Y116.838 E5.18778
G1 X112.791 Y116.923 E5.19035
G1 X112.66 Y117.068 E5.19425
G1 X112.548 Y117.222 E5.19805
G1 X112.497 Y117.306 E5.20001
G1 X112.445 Y117.402 E5.20219
G1 X112.354 Y117.611 E5.20674
G1 X112.349 Y117.641 E5.20735
G1 X112.31 Y117.766 E5.20996
G1 X112.268 Y118.007 E5.21484
G1 X112.257 Y118.155 E5.21781
G1 X112.261 Y118.345 E5.2216
G1 X112.289 Y118.552 E5.22577
G1 X112.364 Y118.823 E5.23138
G1 X112.495 Y119.1 E5.23749
G1 X112.597 Y119.259 E5.24126
G1 X112.667 Y119.35 E5.24355
G1 X112.864 Y119.555 E5.24923
G1 X113.02 Y119.677 E5.25318
G1 X113.177 Y119.774 E5.25686
G1 X113.269 Y119.824 E5.25895
G1 X113.423 Y119.888 E5.26228
G1 X113.548 Y119.931 E5.26492
G1 X113.739 Y119.978 E5.26884
G1 X113.871 Y119.995 E5.2715
G1 X113.879 Y119.995 E5.27166
G1 X113.939 Y120.002 E5.27286
G1 X114.219 Y119.999 E5.27845
G1 X114.424 Y119.967 E5.28259
G1 X114.61 Y119.918 E5.28643
G1 X114.713 Y119.881 E5.28862
G1 X114.886 Y119.803 E5.2924
G1 X115.048 Y119.707 E5.29616
G1 X115.139 Y119.644 E5.29837
G1 X115.293 Y119.514 E5.30239
G1 X115.482 Y119.305 E5.30801
G1 X115.594 Y119.142 E5.31196
G1 X115.689 Y118.966 E5.31595
G1 X115.763 Y118.78 E5.31995
G1 X115.834 Y118.504 E5.32563
G1 X115.855 Y118.304 E5.32965
G1 X115.859 Y117.953 E5.33665
G1 X115.836 Y117.93 E5.3373
G0 F6000 X115.452 Y118.112
;TYPE:WALL-OUTER
G1 F1200 X115.438 Y117.976 E5.34003
G1 X115.405 Y117.827 E5.34308
