;FLAVOR:Marlin
;TIME:1967
;Filament used: 0.582242m
;Layer height: 0.12
;MINX:54.993
;MINY:102.574
;MINZ:0.12
;MAXX:180.007
;MAXY:132.429
;MAXZ:5.88
;Generated with Cura_SteamEngine 4.6.0
M82 ;absolute extrusion mode
; Ender 3 Custom Start G-code
M140 S60 ; Set Heat Bed temperature
M190 S60 ; Wait for Heat Bed temperature
M104 S160; start warming extruder to 160
G28 ; Home all axes
M117 Nivellement Auto GO !
G29 ; Auto bed-level (BL-Touch)
G92 E0 ; Reset Extruder
M104 S210 ; Set Extruder temperature
M109 S210 ; Wait for Extruder temperature
G1 Z1.0 F3000 ; move z up little to prevent scratching of surface
G1 X0.1 Y20 Z0.3 F5000.0 ; move to start-line position
G1 X0.1 Y200.0 Z0.3 F1500.0 E15 ; draw 1st line
G1 X0.4 Y200.0 Z0.3 F5000.0 ; move to side a little
G1 X0.4 Y20 Z0.3 F1500.0 E30 ; draw 2nd line
G92 E0 ; reset extruder
G1 Z1.0 F3000 ; move z up little to prevent scratching of surface
M117 Allez Printe ma belle !
; End of custom start GCode
G92 E0
G92 E0
G1 F2700 E-5
;LAYER_COUNT:49
;LAYER:0
M107
G0 F6000 X76.856 Y103.813 Z0.12
;TYPE:SKIRT
G1 F2700 E0
G1 F1200 X77.215 Y103.781 E0.00719
G1 X78.872 Y103.667 E0.04034
G1 X80.107 Y103.606 E0.06501
G1 X82.01 Y103.541 E0.10301
G1 X83.534 Y103.519 E0.13343
G1 X85.955 Y103.528 E0.18174
G1 X87.803 Y103.56 E0.21863
G1 X90.006 Y103.626 E0.26261
G1 X91.918 Y103.716 E0.30081
G1 X95.755 Y103.917 E0.37748
G1 X97.784 Y104.044 E0.41805
G1 X100.337 Y104.181 E0.46908
G1 X102.904 Y104.247 E0.52032
G1 X105.439 Y104.238 E0.57091
G1 X107.972 Y104.16 E0.62148
G1 X110.5 Y104.009 E0.67202
G1 X113.05 Y103.785 E0.7231
G1 X114.391 Y103.629 E0.75005
G1 X114.519 Y103.62 E0.75261
G1 X115.902 Y103.459 E0.78039
G1 X116.398 Y103.414 E0.79033
G1 X116.696 Y103.394 E0.79629
G1 X117.143 Y103.373 E0.80522
G1 X117.851 Y103.375 E0.81935
G1 X118.147 Y103.386 E0.82526
G1 X118.843 Y103.434 E0.83918
G1 X119.138 Y103.465 E0.8451
G1 X119.651 Y103.527 E0.85542
G1 X121.51 Y103.77 E0.89283
G1 X124.014 Y104.025 E0.94306
G1 X126.57 Y104.213 E0.9942
G1 X129.103 Y104.326 E1.0448
G1 X131.672 Y104.369 E1.09608
G1 X134.138 Y104.34 E1.14529
G1 X137.736 Y104.178 E1.21717
G1 X139.598 Y104.058 E1.2544
G1 X140.494 Y104.008 E1.27231
G1 X143.349 Y103.875 E1.32935
G1 X145.629 Y103.79 E1.37488
G1 X145.672 Y103.789 E1.37574
G1 X147.443 Y103.731 E1.4111
G1 X149.23 Y103.702 E1.44676
G1 X151.179 Y103.693 E1.48566
G1 X151.878 Y103.702 E1.49961
G1 X153.51 Y103.737 E1.53219
G1 X154.97 Y103.784 E1.56134
G1 X155.883 Y103.825 E1.57957
G1 X157.578 Y103.929 E1.61346
G1 X157.899 Y103.954 E1.61989
G1 X159.37 Y104.091 E1.64937
G1 X159.709 Y104.128 E1.65618
G1 X161.762 Y104.393 E1.69749
G1 X162.798 Y104.554 E1.71841
G1 X164.922 Y104.925 E1.76144
G1 X165.253 Y104.988 E1.76816
G1 X165.861 Y105.115 E1.78056
G1 X166.709 Y105.331 E1.79802
G1 X167.884 Y105.686 E1.82252
G1 X168.733 Y105.961 E1.84032
G1 X169.393 Y106.185 E1.85423
G1 X169.92 Y106.38 E1.86545
G1 X170.301 Y106.539 E1.87369
G1 X171.345 Y107.003 E1.89649
G1 X171.898 Y107.262 E1.90867
G1 X172.959 Y107.838 E1.93276
G1 X173.533 Y108.195 E1.94625
G1 X174.01 Y108.507 E1.95763
G1 X174.491 Y108.849 E1.96941
G1 X175.072 Y109.288 E1.98394
G1 X175.582 Y109.699 E1.99701
G1 X176.246 Y110.311 E2.01503
G1 X176.853 Y110.98 E2.03306
G1 X177.399 Y111.699 E2.05107
G1 X177.879 Y112.464 E2.0691
G1 X178.289 Y113.269 E2.08712
G1 X178.626 Y114.106 E2.10513
G1 X178.888 Y114.971 E2.12317
G1 X179.073 Y115.855 E2.14119
G1 X179.179 Y116.752 E2.15922
G1 X179.205 Y117.38 E2.17176
G1 X179.207 Y117.556 E2.17527
G1 X179.178 Y118.459 E2.1933
G1 X179.068 Y119.355 E2.21132
G1 X178.88 Y120.238 E2.22933
G1 X178.614 Y121.102 E2.24737
G1 X178.273 Y121.938 E2.26539
G1 X177.86 Y122.741 E2.28341
G1 X177.376 Y123.504 E2.30144
G1 X176.828 Y124.221 E2.31945
G1 X176.218 Y124.887 E2.33747
G1 X175.688 Y125.38 E2.35192
G1 X175.508 Y125.536 E2.35667
G1 X174.871 Y126.045 E2.37294
G1 X174.493 Y126.323 E2.38231
G1 X174.108 Y126.593 E2.39169
G1 X174.102 Y126.597 E2.39184
G1 X173.799 Y126.791 E2.39902
G1 X173.17 Y127.179 E2.41376
G1 X172.732 Y127.435 E2.42389
G1 X172.463 Y127.583 E2.43002
G1 X172.165 Y127.74 E2.43674
G1 X171.663 Y127.995 E2.44797
G1 X171.135 Y128.245 E2.45963
G1 X170.108 Y128.684 E2.48192
G1 X169.779 Y128.8 E2.48888
G1 X169.782 Y128.808 E2.48905
G1 X168.693 Y129.198 E2.51214
G1 X168.036 Y129.415 E2.52594
G1 X167.496 Y129.577 E2.5372
G1 X166.624 Y129.81 E2.55521
G1 X165.806 Y130.008 E2.572
G1 X164.889 Y130.216 E2.59077
G1 X164.689 Y130.252 E2.59482
G1 X164.69 Y130.258 E2.59494
G1 X163.794 Y130.44 E2.61319
G1 X162.798 Y130.618 E2.63338
G1 X162.149 Y130.716 E2.64648
G1 X161.945 Y130.738 E2.65057
G1 X161.945 Y130.74 E2.65061
G1 X160.429 Y130.937 E2.68112
G1 X158.699 Y131.135 E2.71587
G1 X157.516 Y131.24 E2.73957
G1 X156.061 Y131.338 E2.76867
G1 X155.2 Y131.381 E2.78588
G1 X153.416 Y131.447 E2.8215
G1 X153.068 Y131.457 E2.82845
G1 X151.467 Y131.481 E2.8604
G1 X148.967 Y131.471 E2.9103
G1 X146.805 Y131.43 E2.95345
G1 X145.874 Y131.403 E2.97204
G1 X144.899 Y131.366 E2.99151
G1 X141.711 Y131.218 E3.05519
G1 X139.673 Y131.11 E3.09592
G1 X137.135 Y130.95 E3.14667
G1 X134.695 Y130.818 E3.19544
G1 X132.123 Y130.751 E3.24678
G1 X129.59 Y130.758 E3.29733
G1 X127.048 Y130.836 E3.34808
G1 X124.534 Y130.984 E3.39834
G1 X121.997 Y131.206 E3.44916
G1 X120.409 Y131.393 E3.48107
G1 X120.172 Y131.41 E3.48581
G1 X119.005 Y131.549 E3.50926
G1 X118.196 Y131.612 E3.52546
G1 X117.54 Y131.629 E3.53855
G1 X116.768 Y131.61 E3.55396
G1 X116.575 Y131.598 E3.55782
G1 X115.985 Y131.544 E3.56965
G1 X114.32 Y131.341 E3.60312
G1 X111.773 Y131.055 E3.65427
G1 X109.273 Y130.848 E3.70433
G1 X106.73 Y130.708 E3.75515
G1 X104.168 Y130.641 E3.8063
G1 X101.63 Y130.646 E3.85695
G1 X99.112 Y130.721 E3.90722
G1 X97.137 Y130.83 E3.94669
G1 X95.243 Y130.953 E3.98457
G1 X94.292 Y131.006 E4.00358
G1 X91.677 Y131.124 E4.05581
G1 X89.178 Y131.216 E4.10572
G1 X89.161 Y131.216 E4.10606
G1 X87.563 Y131.269 E4.13796
G1 X85.769 Y131.298 E4.17377
G1 X83.805 Y131.307 E4.21296
G1 X83.18 Y131.3 E4.22544
G1 X81.018 Y131.253 E4.26859
G1 X79.915 Y131.21 E4.29062
G1 X78.678 Y131.15 E4.31534
G1 X77.172 Y131.052 E4.34545
G1 X76.304 Y130.976 E4.36284
G1 X75.393 Y130.886 E4.38111
G1 X75.111 Y130.853 E4.38678
G1 X75.111 Y130.854 E4.3868
G1 X73.671 Y130.673 E4.41576
G1 X72.968 Y130.571 E4.42993
G1 X72.168 Y130.445 E4.4461
G1 X70.222 Y130.106 E4.48552
G1 X69.759 Y130.016 E4.49493
G1 X69.163 Y129.892 E4.50708
G1 X68.289 Y129.67 E4.52507
G1 X67.077 Y129.301 E4.55036
G1 X66.274 Y129.041 E4.5672
G1 X65.547 Y128.794 E4.58252
G1 X64.705 Y128.465 E4.60056
G1 X63.636 Y127.99 E4.62391
G1 X63.085 Y127.731 E4.63606
G1 X62.046 Y127.167 E4.65965
G1 X61.54 Y126.853 E4.67153
G1 X61.254 Y126.669 E4.67832
G1 X60.929 Y126.452 E4.68612
G1 X60.525 Y126.168 E4.69597
G1 X60.221 Y125.943 E4.70352
G1 X59.868 Y125.669 E4.71244
G1 X59.573 Y125.43 E4.72001
G1 X58.897 Y124.831 E4.73804
G1 X58.277 Y124.175 E4.75605
G1 X57.717 Y123.466 E4.77408
G1 X57.222 Y122.711 E4.7921
G1 X56.796 Y121.914 E4.81013
G1 X56.442 Y121.084 E4.82814
G1 X56.163 Y120.225 E4.84616
G1 X55.961 Y119.345 E4.86418
G1 X55.838 Y118.45 E4.88221
G1 X55.796 Y117.69 E4.8974
G1 X55.793 Y117.525 E4.90069
G1 X55.816 Y116.623 E4.9187
G1 X55.92 Y115.725 E4.93674
G1 X56.102 Y114.841 E4.95475
G1 X56.362 Y113.976 E4.97278
G1 X56.697 Y113.137 E4.9908
G1 X57.105 Y112.332 E5.00881
G1 X57.583 Y111.565 E5.02685
G1 X58.127 Y110.844 E5.04487
G1 X58.732 Y110.174 E5.06289
G1 X59.31 Y109.633 E5.07869
G1 X59.558 Y109.418 E5.08524
G1 X60.169 Y108.927 E5.10088
G1 X60.61 Y108.604 E5.11179
G1 X60.609 Y108.603 E5.11182
G1 X60.723 Y108.519 E5.11464
G1 X61.681 Y107.894 E5.13747
G1 X62.048 Y107.684 E5.14591
G1 X62.443 Y107.466 E5.15491
G1 X62.738 Y107.309 E5.16158
G1 X63.342 Y107.001 E5.17511
G1 X63.892 Y106.741 E5.18725
G1 X64.51 Y106.471 E5.20071
G1 X65.052 Y106.253 E5.21237
G1 X65.764 Y105.991 E5.22751
G1 X66.483 Y105.743 E5.24269
G1 X67.337 Y105.472 E5.26057
G1 X67.699 Y105.366 E5.26809
G1 X68.068 Y105.265 E5.27573
G1 X68.652 Y105.12 E5.28774
G1 X69.899 Y104.833 E5.31327
G1 X71.537 Y104.5 E5.34663
G1 X71.869 Y104.439 E5.35337
G1 X72.207 Y104.392 E5.36018
G1 X72.206 Y104.384 E5.36034
G1 X72.998 Y104.267 E5.37631
G1 X74.812 Y104.03 E5.41282
G1 X76.856 Y103.813 E5.45384
G0 F6000 X76.814 Y103.415
G1 F1200 X77.187 Y103.382 E5.46131
G1 X78.853 Y103.267 E5.49464
G1 X80.093 Y103.207 E5.51941
G1 X82.003 Y103.141 E5.55755
G1 X83.535 Y103.119 E5.58813
G1 X85.961 Y103.129 E5.63654
G1 X87.815 Y103.161 E5.67355
G1 X90.024 Y103.227 E5.71765
G1 X91.938 Y103.317 E5.75589
G1 X95.78 Y103.518 E5.83266
G1 X97.763 Y103.641 E5.87231
G1 X100.37 Y103.782 E5.92441
G1 X102.913 Y103.846 E5.97518
G1 X105.424 Y103.838 E6.02529
G1 X107.971 Y103.759 E6.07614
G1 X110.478 Y103.61 E6.12626
G1 X113.001 Y103.388 E6.1768
G1 X114.344 Y103.232 E6.20378
G1 X114.48 Y103.222 E6.2065
G1 X115.856 Y103.062 E6.23415
G1 X116.371 Y103.015 E6.24447
G1 X116.669 Y102.995 E6.25043
G1 X117.13 Y102.974 E6.25964
G1 X117.866 Y102.975 E6.27433
G1 X118.162 Y102.986 E6.28024
G1 X118.879 Y103.036 E6.29458
G1 X119.185 Y103.068 E6.30072
G1 X119.703 Y103.13 E6.31113
G1 X121.567 Y103.373 E6.34864
G1 X124.048 Y103.626 E6.39841
G1 X126.619 Y103.815 E6.44986
G1 X129.093 Y103.926 E6.49928
G1 X131.673 Y103.969 E6.55077
G1 X134.145 Y103.94 E6.60011
G1 X137.694 Y103.78 E6.671
G1 X139.576 Y103.659 E6.70864
G1 X140.475 Y103.609 E6.72661
G1 X143.334 Y103.475 E6.78372
G1 X145.614 Y103.39 E6.82926
G1 X145.659 Y103.389 E6.83015
G1 X147.437 Y103.331 E6.86565
G1 X149.228 Y103.302 E6.9014
G1 X151.184 Y103.293 E6.94044
G1 X151.886 Y103.302 E6.95445
G1 X153.522 Y103.337 E6.9871
G1 X154.987 Y103.384 E7.01635
G1 X155.907 Y103.426 E7.03473
G1 X157.602 Y103.53 E7.06862
G1 X157.936 Y103.556 E7.07531
G1 X159.407 Y103.693 E7.10479
G1 X159.76 Y103.732 E7.11188
G1 X161.823 Y103.997 E7.15338
G1 X162.867 Y104.16 E7.17447
G1 X164.991 Y104.531 E7.2175
G1 X165.334 Y104.597 E7.22447
G1 X165.942 Y104.724 E7.23686
G1 X166.824 Y104.948 E7.25502
G1 X168.007 Y105.305 E7.27968
G1 X168.862 Y105.582 E7.29762
G1 X169.522 Y105.806 E7.31153
G1 X170.066 Y106.008 E7.32311
G1 X170.462 Y106.173 E7.33167
G1 X171.515 Y106.641 E7.35466
G1 X172.068 Y106.9 E7.36685
G1 X173.17 Y107.498 E7.39187
G1 X173.744 Y107.855 E7.40536
G1 X174.232 Y108.174 E7.417
G1 X174.732 Y108.53 E7.42924
G1 X175.313 Y108.969 E7.44378
G1 X175.84 Y109.393 E7.45728
G1 X176.517 Y110.017 E7.47565
G1 X177.138 Y110.697 E7.49403
G1 X177.697 Y111.428 E7.51239
G1 X178.191 Y112.205 E7.53076
G1 X178.615 Y113.022 E7.54913
G1 X178.967 Y113.872 E7.56749
G1 X179.244 Y114.751 E7.58589
G1 X179.444 Y115.649 E7.60424
G1 X179.565 Y116.562 E7.62262
G1 X179.605 Y117.376 E7.63889
G1 X179.607 Y117.552 E7.6424
G1 X179.578 Y118.472 E7.66077
G1 X179.469 Y119.386 E7.67914
G1 X179.28 Y120.287 E7.69751
G1 X179.015 Y121.169 E7.71589
G1 X178.674 Y122.024 E7.73426
G1 X178.259 Y122.846 E7.75263
G1 X177.776 Y123.629 E7.77099
G1 X177.226 Y124.368 E7.78938
G1 X176.614 Y125.055 E7.80774
G1 X175.95 Y125.682 E7.82596
G1 X175.77 Y125.838 E7.83072
G1 X175.108 Y126.367 E7.84763
G1 X174.73 Y126.645 E7.85699
G1 X174.33 Y126.926 E7.86675
G1 X174.324 Y126.93 E7.86689
G1 X174.009 Y127.132 E7.87436
G1 X173.38 Y127.52 E7.88911
G1 X172.925 Y127.785 E7.89961
G1 X172.656 Y127.933 E7.90574
G1 X172.347 Y128.097 E7.91272
G1 X171.845 Y128.352 E7.92396
G1 X171.295 Y128.611 E7.93609
G1 X170.258 Y129.054 E7.95859
G1 X169.917 Y129.176 E7.96582
G1 X169.92 Y129.184 E7.96599
G1 X168.818 Y129.578 E7.98935
G1 X168.161 Y129.795 E8.00315
G1 X167.6 Y129.964 E8.01485
G1 X166.719 Y130.198 E8.03304
G1 X165.895 Y130.398 E8.04996
G1 X164.978 Y130.606 E8.06872
G1 X164.77 Y130.644 E8.07294
G1 X164.771 Y130.65 E8.07306
G1 X163.866 Y130.834 E8.09149
G1 X163.183 Y130.959 E8.10535
G1 X162.858 Y131.013 E8.11193
G1 X162.209 Y131.111 E8.12502
G1 X161.996 Y131.134 E8.1293
G1 X161.996 Y131.137 E8.12936
G1 X160.475 Y131.334 E8.15997
G1 X158.736 Y131.533 E8.1949
G1 X157.544 Y131.639 E8.21878
G1 X156.081 Y131.738 E8.24804
G1 X155.216 Y131.78 E8.26532
G1 X154.202 Y131.821 E8.28557
G1 X153.074 Y131.857 E8.3081
G1 X151.466 Y131.881 E8.34019
G1 X148.96 Y131.871 E8.3902
G1 X146.794 Y131.83 E8.43343
G1 X145.859 Y131.803 E8.4521
G1 X144.88 Y131.766 E8.47165
G1 X141.69 Y131.617 E8.53538
G1 X139.648 Y131.509 E8.57619
G1 X137.175 Y131.353 E8.62564
G1 X134.627 Y131.215 E8.67656
G1 X132.149 Y131.151 E8.72603
G1 X129.603 Y131.158 E8.77683
G1 X127.083 Y131.235 E8.82715
G1 X124.524 Y131.386 E8.8783
G1 X122.046 Y131.603 E8.92794
G1 X120.456 Y131.79 E8.95989
G1 X120.217 Y131.808 E8.96468
G1 X119.053 Y131.946 E8.98807
G1 X118.212 Y132.012 E9.0049
G1 X117.546 Y132.029 E9.0182
G1 X116.743 Y132.01 E9.03423
G1 X116.55 Y131.998 E9.03809
G1 X115.937 Y131.942 E9.05037
G1 X114.252 Y131.735 E9.08425
G1 X111.767 Y131.457 E9.13415
G1 X109.218 Y131.245 E9.18519
G1 X106.697 Y131.107 E9.23558
G1 X104.195 Y131.041 E9.28552
G1 X101.643 Y131.046 E9.33645
G1 X99.106 Y131.122 E9.3871
G1 X97.183 Y131.227 E9.42554
G1 X95.265 Y131.353 E9.46389
G1 X94.31 Y131.405 E9.48298
G1 X91.692 Y131.524 E9.53528
G1 X89.185 Y131.616 E9.58534
G1 X89.18 Y131.616 E9.58544
G1 X87.57 Y131.669 E9.61759
G1 X85.771 Y131.698 E9.6535
G1 X83.8 Y131.707 E9.69283
G1 X83.171 Y131.7 E9.70538
G1 X81.003 Y131.652 E9.74866
G1 X79.896 Y131.61 E9.77076
G1 X78.653 Y131.549 E9.7956
G1 X77.137 Y131.451 E9.82592
G1 X76.265 Y131.374 E9.84339
G1 X75.062 Y131.251 E9.86752
G1 X73.613 Y131.069 E9.89666
G1 X72.907 Y130.966 E9.9109
G1 X72.1 Y130.839 E9.9272
G1 X70.147 Y130.499 E9.96676
G1 X69.678 Y130.408 E9.9763
G1 X69.082 Y130.284 E9.98845
G1 X68.173 Y130.052 E10.00717
G1 X66.954 Y129.682 E10.03259
G1 X66.145 Y129.42 E10.04956
G1 X65.418 Y129.173 E10.06488
G1 X64.543 Y128.831 E10.08363
G1 X63.466 Y128.352 E10.10715
G1 X62.915 Y128.093 E10.1193
G1 X61.835 Y127.507 E10.14382
G1 X61.329 Y127.193 E10.15571
G1 X61.032 Y127.002 E10.16275
G1 X60.707 Y126.785 E10.17055
G1 X60.287 Y126.489 E10.18081
G1 X59.983 Y126.264 E10.18835
G1 X59.616 Y125.98 E10.19762
G1 X59.321 Y125.741 E10.20519
G1 X58.632 Y125.131 E10.22356
G1 X57.998 Y124.464 E10.24192
G1 X57.424 Y123.743 E10.26031
G1 X56.915 Y122.976 E10.27868
G1 X56.475 Y122.168 E10.29704
G1 X56.106 Y121.324 E10.31542
G1 X55.812 Y120.452 E10.33379
G1 X55.595 Y119.557 E10.35217
G1 X55.456 Y118.647 E10.37054
G1 X55.396 Y117.698 E10.38951
G1 X55.393 Y117.533 E10.39281
G1 X55.416 Y116.612 E10.41119
G1 X55.519 Y115.697 E10.42957
G1 X55.701 Y114.795 E10.44793
G1 X55.961 Y113.912 E10.4663
G1 X56.296 Y113.054 E10.48468
G1 X56.704 Y112.229 E10.50305
G1 X57.183 Y111.443 E10.52142
G1 X57.728 Y110.701 E10.53979
G1 X58.335 Y110.009 E10.55816
G1 X59.048 Y109.331 E10.57779
G1 X59.296 Y109.116 E10.58434
G1 X59.928 Y108.608 E10.60052
G1 X60.486 Y108.197 E10.61435
G1 X61.481 Y107.547 E10.63807
G1 X61.855 Y107.334 E10.64666
G1 X62.25 Y107.116 E10.65567
G1 X62.557 Y106.953 E10.6626
G1 X63.161 Y106.645 E10.67613
G1 X63.732 Y106.375 E10.68874
G1 X64.35 Y106.105 E10.70219
G1 X64.913 Y105.878 E10.71431
G1 X65.632 Y105.614 E10.72959
G1 X66.36 Y105.362 E10.74497
G1 X67.224 Y105.088 E10.76306
G1 X67.586 Y104.982 E10.77058
G1 X67.97 Y104.878 E10.77852
G1 X68.561 Y104.73 E10.79068
G1 X69.819 Y104.441 E10.81644
G1 X71.464 Y104.107 E10.84994
G1 X71.796 Y104.046 E10.85667
G1 X72.147 Y103.997 E10.86375
G1 X72.146 Y103.988 E10.86393
G1 X72.946 Y103.871 E10.88006
G1 X74.77 Y103.632 E10.91677
G1 X76.814 Y103.415 E10.95779
G1 F2700 E5.95779
G0 F6000 X94.328 Y131.805
G1 F2700 E10.95779
G1 F1200 X91.707 Y131.923 E11.01015
G1 X89.316 Y132.012 E11.0579
G1 X87.576 Y132.068 E11.09264
G1 X85.773 Y132.098 E11.12863
G1 X83.796 Y132.107 E11.16808
G1 X83.163 Y132.1 E11.18071
G1 X80.988 Y132.052 E11.22413
G1 X79.876 Y132.009 E11.24633
G1 X78.628 Y131.948 E11.27127
G1 X77.102 Y131.849 E11.30179
G1 X76.226 Y131.772 E11.31934
G1 X75.013 Y131.648 E11.34367
G1 X74.969 Y131.643 E11.34455
G1 X73.556 Y131.465 E11.37297
G1 X72.845 Y131.361 E11.38731
G1 X72.032 Y131.233 E11.40374
G1 X70.072 Y130.892 E11.44344
G1 X69.596 Y130.799 E11.45312
G1 X69 Y130.675 E11.46527
G1 X68.058 Y130.435 E11.48466
G1 X66.832 Y130.063 E11.51023
G1 X66.016 Y129.798 E11.52735
G1 X65.289 Y129.551 E11.54268
