;FLAVOR:Marlin
;TIME:11643
;Filament used: 2.2013m
;Layer height: 0.06
;MINX:85
;MINY:63.591
;MINZ:0.12
;MAXX:150
;MAXY:168.998
;MAXZ:7.533
;Generated with Cura_SteamEngine 4.8.0
M82 ;absolute extrusion mode
; Ender 3 Custom Start G-code
M117 Getting the bed up to temp!
M140 S60 ; Set Heat Bed temperature
M190 S60 ; Wait for Heat Bed temperature
M117 Pre-heating the extruder!
M104 S160; start warming extruder to 160
G28 ; Home all axes
M117 Auto bed-level GO!
G29 ; Auto bed-level (BL-Touch)
G92 E0 ; Reset Extruder
M117 Getting the extruder up to temp!
M104 S210 ; Set Extruder temperature
M109 S210 ; Wait for Extruder temperature
G1 Z1.0 F3000 ; move z up little to prevent scratching of surface
G1 X0.1 Y20 Z0.3 F5000.0 ; move to start-line position
M117 LET THE PURGE BEGIN!
G1 X0.1 Y200.0 Z0.3 F1500.0 E15 ; draw 1st line
G1 X0.4 Y200.0 Z0.3 F5000.0 ; move to side a little
G1 X0.4 Y20 Z0.3 F1500.0 E30 ; draw 2nd line
G92 E0 ; reset extruder
G1 Z1.0 F3000 ; move z up little to prevent scratching of surface
M117 Autobots! Roll Out!
; End of custom start GCode
G92 E0
G92 E0
G1 F2700 E-5
;LAYER_COUNT:124
;LAYER:0
M107
G0 F6000 X87.566 Y67.549 Z0.12
;TYPE:SKIRT
G1 F2700 E0
G1 F1200 X88.198 Y66.855 E0.01873
G1 X88.886 Y66.218 E0.03744
G1 X89.626 Y65.642 E0.05616
G1 X90.412 Y65.13 E0.07488
G1 X91.239 Y64.688 E0.09359
G1 X92.101 Y64.318 E0.11231
G1 X92.991 Y64.022 E0.13103
G1 X93.903 Y63.804 E0.14974
G1 X94.83 Y63.663 E0.16845
G1 X95.701 Y63.604 E0.18587
G1 X96.022 Y63.595 E0.19228
G1 X96.33 Y63.591 E0.19843
G1 X138.293 Y63.591 E1.03585
G1 X139.149 Y63.602 E1.05293
G1 X140.085 Y63.656 E1.07164
G1 X141.013 Y63.788 E1.09034
G1 X141.927 Y64 E1.10907
G1 X142.819 Y64.289 E1.12778
G1 X143.684 Y64.652 E1.1465
G1 X144.514 Y65.088 E1.16521
G1 X145.305 Y65.593 E1.18394
G1 X146.049 Y66.164 E1.20265
G1 X146.742 Y66.796 E1.22137
G1 X147.379 Y67.484 E1.24008
G1 X147.954 Y68.225 E1.2588
G1 X148.465 Y69.011 E1.27751
G1 X148.907 Y69.839 E1.29624
G1 X149.276 Y70.701 E1.31495
G1 X149.571 Y71.591 E1.33366
G1 X149.789 Y72.503 E1.35238
G1 X149.929 Y73.431 E1.3711
G1 X149.987 Y74.292 E1.38833
G1 X149.996 Y74.612 E1.39471
G1 X150 Y74.921 E1.40088
G1 X149.999 Y157.389 E3.04662
G1 X149.989 Y158.116 E3.06113
G1 X149.936 Y159.053 E3.07986
G1 X149.804 Y159.981 E3.09856
G1 X149.593 Y160.895 E3.11728
G1 X149.304 Y161.787 E3.13599
G1 X148.941 Y162.652 E3.15471
G1 X148.506 Y163.483 E3.17343
G1 X148.001 Y164.273 E3.19214
G1 X147.431 Y165.018 E3.21086
G1 X146.8 Y165.712 E3.22958
G1 X146.111 Y166.349 E3.24831
G1 X145.371 Y166.925 E3.26702
G1 X144.585 Y167.436 E3.28573
G1 X143.758 Y167.878 E3.30444
G1 X142.896 Y168.248 E3.32316
G1 X142.006 Y168.543 E3.34187
G1 X141.094 Y168.762 E3.36059
G1 X140.167 Y168.902 E3.3793
G1 X139.279 Y168.961 E3.39706
G1 X139.013 Y168.968 E3.40237
G1 X138.712 Y168.972 E3.40838
G1 X135.796 Y168.969 E3.46657
G1 X135.004 Y168.961 E3.48238
G1 X133.889 Y168.946 E3.50463
G1 X131.729 Y168.94 E3.54773
G1 X128.404 Y168.968 E3.61409
G1 X121.951 Y168.955 E3.74287
G1 X101.149 Y168.984 E4.15799
G1 X100.531 Y168.982 E4.17033
G1 X97.983 Y168.998 E4.22118
G1 X96.511 Y168.998 E4.25055
G1 X95.845 Y168.988 E4.26384
G1 X94.909 Y168.934 E4.28255
G1 X93.98 Y168.8 E4.30129
G1 X93.067 Y168.588 E4.31999
G1 X92.175 Y168.299 E4.3387
G1 X91.31 Y167.934 E4.35744
G1 X90.48 Y167.498 E4.37615
G1 X89.69 Y166.992 E4.39487
G1 X88.946 Y166.421 E4.41359
G1 X88.254 Y165.789 E4.43229
G1 X87.617 Y165.1 E4.45101
G1 X87.042 Y164.359 E4.46973
G1 X86.532 Y163.572 E4.48845
G1 X86.091 Y162.744 E4.50717
G1 X85.722 Y161.882 E4.52588
G1 X85.428 Y160.992 E4.54458
G1 X85.21 Y160.079 E4.56332
G1 X85.072 Y159.152 E4.58202
G1 X85.015 Y158.312 E4.59882
G1 X85.005 Y157.972 E4.60561
G1 X85 Y157.649 E4.61205
G1 X85.001 Y75.116 E6.25909
G1 X85.01 Y74.451 E6.27236
G1 X85.063 Y73.515 E6.29107
G1 X85.195 Y72.586 E6.3098
G1 X85.406 Y71.672 E6.32852
G1 X85.694 Y70.78 E6.34722
G1 X86.057 Y69.915 E6.36594
G1 X86.492 Y69.084 E6.38466
G1 X86.996 Y68.294 E6.40336
G1 X87.566 Y67.549 E6.42208
G0 F6000 X87.961 Y67.702
G1 F1200 X88.589 Y67.03 E6.44043
G1 X89.274 Y66.414 E6.45882
G1 X90.01 Y65.861 E6.47719
G1 X90.791 Y65.373 E6.49557
G1 X91.611 Y64.955 E6.51394
G1 X92.465 Y64.61 E6.53232
G1 X93.345 Y64.34 E6.55069
G1 X94.245 Y64.148 E6.56905
G1 X95.159 Y64.034 E6.58743
G1 X95.712 Y64.004 E6.59848
G1 X96.033 Y63.995 E6.60489
G1 X96.33 Y63.991 E6.61082
G1 X138.293 Y63.991 E7.44824
G1 X139.143 Y64.002 E7.4652
G1 X140.062 Y64.055 E7.48357
G1 X140.973 Y64.188 E7.50194
G1 X141.869 Y64.399 E7.52031
G1 X142.743 Y64.687 E7.53868
G1 X143.59 Y65.05 E7.55707
G1 X144.401 Y65.485 E7.57543
G1 X145.171 Y65.989 E7.5938
G1 X145.895 Y66.558 E7.61217
G1 X146.567 Y67.188 E7.63056
G1 X147.182 Y67.873 E7.64893
G1 X147.735 Y68.609 E7.6673
G1 X148.222 Y69.39 E7.68567
G1 X148.639 Y70.211 E7.70404
G1 X148.984 Y71.065 E7.72242
G1 X149.253 Y71.945 E7.74079
G1 X149.445 Y72.846 E7.75917
G1 X149.558 Y73.759 E7.77753
G1 X149.587 Y74.303 E7.7884
G1 X149.596 Y74.623 E7.79479
G1 X149.6 Y74.921 E7.80074
G1 X149.599 Y157.384 E9.44638
G1 X149.589 Y158.111 E9.46089
G1 X149.536 Y159.03 E9.47926
G1 X149.404 Y159.941 E9.49763
G1 X149.193 Y160.837 E9.516
G1 X148.906 Y161.712 E9.53437
G1 X148.543 Y162.558 E9.55274
G1 X148.109 Y163.37 E9.57112
G1 X147.605 Y164.141 E9.5895
G1 X147.037 Y164.865 E9.60786
G1 X146.408 Y165.537 E9.62623
G1 X145.723 Y166.152 E9.6446
G1 X144.987 Y166.705 E9.66297
G1 X144.206 Y167.193 E9.68135
G1 X143.386 Y167.611 E9.69972
G1 X142.532 Y167.956 E9.7181
G1 X141.652 Y168.225 E9.73646
G1 X140.751 Y168.418 E9.75485
G1 X139.838 Y168.531 E9.77321
G1 X139.269 Y168.561 E9.78458
G1 X139.003 Y168.568 E9.78989
G1 X138.713 Y168.572 E9.79568
G1 X135.8 Y168.569 E9.85381
G1 X135.009 Y168.561 E9.8696
G1 X133.895 Y168.546 E9.89183
G1 X131.727 Y168.54 E9.9351
G1 X128.405 Y168.568 E10.00139
G1 X121.952 Y168.555 E10.13017
G1 X101.15 Y168.584 E10.5453
G1 X100.529 Y168.582 E10.55769
G1 X97.983 Y168.598 E10.6085
G1 X96.517 Y168.598 E10.63775
G1 X95.851 Y168.588 E10.65105
G1 X94.932 Y168.534 E10.66942
G1 X94.021 Y168.401 E10.68779
G1 X93.125 Y168.189 E10.70616
G1 X92.251 Y167.9 E10.72453
G1 X91.405 Y167.536 E10.74291
G1 X90.594 Y167.101 E10.76128
G1 X89.824 Y166.596 E10.77966
G1 X89.1 Y166.027 E10.79803
G1 X88.429 Y165.397 E10.8164
G1 X87.814 Y164.711 E10.83479
G1 X87.262 Y163.975 E10.85314
G1 X86.776 Y163.193 E10.87152
G1 X86.359 Y162.372 E10.88989
G1 X86.015 Y161.518 E10.90827
G1 X85.746 Y160.638 E10.92663
G1 X85.555 Y159.737 E10.94501
G1 X85.443 Y158.823 E10.96339
G1 X85.415 Y158.301 E10.97382
G1 X85.405 Y157.961 E10.98061
G1 X85.4 Y157.649 E10.98683
G1 X85.401 Y75.122 E12.63375
G1 X85.41 Y74.457 E12.64702
G1 X85.462 Y73.537 E12.66541
G1 X85.594 Y72.626 E12.68378
G1 X85.805 Y71.73 E12.70215
G1 X86.092 Y70.855 E12.72053
G1 X86.455 Y70.009 E12.7389
G1 X86.889 Y69.197 E12.75727
G1 X87.392 Y68.426 E12.77564
G1 X87.961 Y67.702 E12.79402
G0 F6000 X88.355 Y67.858
G1 F1200 X88.981 Y67.208 E12.81203
G1 X89.662 Y66.615 E12.83005
G1 X90.394 Y66.085 E12.84808
G1 X91.169 Y65.622 E12.8661
G1 X91.982 Y65.229 E12.88412
G1 X92.827 Y64.909 E12.90215
G1 X93.696 Y64.666 E12.92016
G1 X94.584 Y64.5 E12.93819
G1 X95.723 Y64.404 E12.961
G1 X96.044 Y64.395 E12.96741
G1 X96.33 Y64.391 E12.97311
G1 X138.293 Y64.391 E13.81053
G1 X139.137 Y64.402 E13.82738
G1 X140.039 Y64.455 E13.84541
G1 X140.932 Y64.587 E13.86342
G1 X141.81 Y64.798 E13.88144
G1 X142.666 Y65.086 E13.89946
G1 X143.493 Y65.448 E13.91748
G1 X144.285 Y65.883 E13.93551
G1 X145.036 Y66.385 E13.95354
G1 X145.739 Y66.952 E13.97156
G1 X146.389 Y67.579 E13.98959
G1 X146.981 Y68.261 E14.00761
G1 X147.511 Y68.992 E14.02563
G1 X147.973 Y69.768 E14.04365
G1 X148.366 Y70.581 E14.06167
G1 X148.684 Y71.426 E14.07969
G1 X148.927 Y72.296 E14.09771
G1 X149.092 Y73.184 E14.11574
G1 X149.187 Y74.314 E14.13837
G1 X149.196 Y74.634 E14.14476
G1 X149.2 Y74.921 E14.15048
G1 X149.199 Y157.378 E15.796
G1 X149.189 Y158.105 E15.81051
G1 X149.137 Y159.007 E15.82854
G1 X149.005 Y159.9 E15.84656
G1 X148.794 Y160.779 E15.8646
G1 X148.507 Y161.635 E15.88261
G1 X148.145 Y162.462 E15.90063
G1 X147.711 Y163.254 E15.91865
G1 X147.209 Y164.005 E15.93668
G1 X146.643 Y164.708 E15.95469
G1 X146.016 Y165.359 E15.97273
G1 X145.335 Y165.951 E15.99073
G1 X144.604 Y166.481 E16.00875
G1 X143.828 Y166.944 E16.02679
G1 X143.015 Y167.337 E16.04481
G1 X142.17 Y167.657 E16.06284
G1 X141.301 Y167.9 E16.08085
G1 X140.413 Y168.065 E16.09887
G1 X139.258 Y168.161 E16.122
G1 X138.992 Y168.168 E16.12731
G1 X138.713 Y168.172 E16.13288
G1 X135.803 Y168.169 E16.19095
G1 X135.014 Y168.161 E16.20669
G1 X133.9 Y168.146 E16.22893
G1 X131.725 Y168.14 E16.27233
G1 X128.405 Y168.168 E16.33859
G1 X121.951 Y168.155 E16.46739
G1 X101.151 Y168.184 E16.88247
G1 X100.528 Y168.182 E16.89491
G1 X97.983 Y168.198 E16.94569
G1 X96.523 Y168.198 E16.97483
G1 X95.857 Y168.188 E16.98812
G1 X94.955 Y168.134 E17.00616
G1 X94.062 Y168.001 E17.02417
G1 X93.184 Y167.79 E17.04219
G1 X92.328 Y167.501 E17.06022
G1 X91.501 Y167.138 E17.07825
G1 X90.71 Y166.704 E17.09625
G1 X89.96 Y166.201 E17.11427
G1 X89.257 Y165.633 E17.13231
G1 X88.607 Y165.006 E17.15033
G1 X88.016 Y164.324 E17.16834
G1 X87.487 Y163.592 E17.18636
G1 X87.024 Y162.816 E17.2044
G1 X86.633 Y162.002 E17.22242
G1 X86.314 Y161.157 E17.24044
G1 X86.072 Y160.287 E17.25846
G1 X85.908 Y159.399 E17.27648
G1 X85.814 Y158.289 E17.29872
G1 X85.804 Y157.949 E17.3055
G1 X85.8 Y157.649 E17.31149
G1 X85.801 Y75.127 E18.95831
G1 X85.81 Y74.462 E18.97158
G1 X85.862 Y73.56 E18.98961
G1 X85.994 Y72.667 E19.00762
G1 X86.204 Y71.789 E19.02564
G1 X86.491 Y70.932 E19.04367
G1 X86.853 Y70.105 E19.06169
G1 X87.286 Y69.313 E19.0797
G1 X87.788 Y68.562 E19.09773
G1 X88.355 Y67.858 E19.11577
G1 F2700 E14.11577
G0 F6000 X104.609 Y109.063
G0 X104.644 Y110.505
G0 X104.923 Y110.304
G0 X115.109 Y135.676
G1 F2700 E19.11577
G1 F1200 X115.308 Y135.531 E19.12068
G1 X119.161 Y135.531 E19.19757
G1 X119.36 Y135.676 E19.20249
G1 X119.436 Y135.909 E19.20738
G1 X119.36 Y136.142 E19.21227
G1 X119.161 Y136.287 E19.21718
G1 X115.308 Y136.287 E19.29407
G1 X115.109 Y136.142 E19.29899
G1 X115.033 Y135.909 E19.30388
G1 X115.109 Y135.676 E19.30877
G0 F6000 X114.768 Y135.43
G1 F1200 X115.178 Y135.131 E19.3189
G1 X119.291 Y135.131 E19.40097
G1 X119.701 Y135.43 E19.4111
G1 X119.857 Y135.909 E19.42115
G1 X119.701 Y136.388 E19.43121
G1 X119.291 Y136.687 E19.44133
G1 X115.178 Y136.687 E19.52341
G1 X114.768 Y136.388 E19.53354
G1 X114.612 Y135.909 E19.54359
G1 X114.768 Y135.43 E19.55365
G0 F6000 X114.428 Y135.183
G1 F1200 X115.049 Y134.731 E19.56897
G1 X119.42 Y134.731 E19.6562
G1 X120.041 Y135.183 E19.67153
G1 X120.278 Y135.909 E19.68677
G1 X120.041 Y136.635 E19.70201
G1 X119.42 Y137.087 E19.71734
G1 X115.049 Y137.087 E19.80457
G1 X114.428 Y136.635 E19.81989
G1 X114.191 Y135.909 E19.83514
G1 X114.428 Y135.183 E19.85038
G1 F2700 E14.85038
;MESH:Folding_Phone_Holder_b.stl
G0 F6000 X125.081 Y110.378
G0 X124.616 Y110.304
G0 X130.126 Y110.305
G0 X130.358 Y110.502
G0 X130.39 Y98.017
G0 X134.835 Y87.672
G0 X135.87 Y87.672
G0 X135.828 Y91.127
G0 X135.7 Y90.999
;TYPE:WALL-OUTER
G1 F2700 E19.85038
G1 F1200 X135.7 Y77.197 E20.12581
G1 X99.3 Y77.196 E20.85221
G1 X99.3 Y90.998 E21.12765
G1 X135.7 Y90.999 E21.85405
G1 F2700 E16.85405
G0 F6000 X135.699 Y91.109
G0 X131.202 Y91.189
G0 X131.202 Y93.109
G0 X131.328 Y156.957
G0 X131.2 Y156.829
G1 F2700 E21.85405
G1 F1200 X131.2 Y93.209 E23.12365
G1 X103.8 Y93.209 E23.67045
G1 X103.8 Y156.827 E24.94001
G1 X114.789 Y156.82 E25.15931
G1 X116.684 Y156.823 E25.19713
G1 X131.2 Y156.829 E25.48681
G1 F2700 E20.48681
G0 F6000 X131.199 Y156.939
G0 X103.61 Y157.017
G0 X103.61 Y157.571
G0 X96.34 Y157.659
G0 X96.2 Y157.799
G1 F2700 E25.48681
G1 F1200 X96.2 Y74.791 E27.14333
G1 X138.8 Y74.791 E27.99345
G1 X138.8 Y157.774 E29.64947
G1 X135.539 Y157.768 E29.71455
G1 X132.794 Y157.73 E29.76933
G1 X128.604 Y157.768 E29.85295
G1 X122.161 Y157.755 E29.98153
G1 X101.165 Y157.784 E30.40053
G1 X99.641 Y157.78 E30.43094
G1 X98.331 Y157.798 E30.45709
G1 X96.2 Y157.799 E30.49961
G0 F6000 X96.59 Y157.409
;TYPE:SKIN
G1 F1200 X96.59 Y75.181 E32.14056
G1 X138.41 Y75.181 E32.97512
G1 X138.41 Y157.384 E34.61557
G1 X135.545 Y157.378 E34.67275
G1 X132.794 Y157.34 E34.72765
G1 X128.6 Y157.378 E34.81135
G1 X122.161 Y157.365 E34.93985
G1 X101.165 Y157.394 E35.35885
G1 X99.639 Y157.39 E35.3893
G1 X98.325 Y157.408 E35.41552
G1 X96.59 Y157.409 E35.45015
G1 F2700 E30.45015
G0 F6000 X96.4 Y157.409
G0 X103.63 Y157.571
G0 X103.63 Y157.036
G0 X103.41 Y157.217
G1 F2700 E35.45015
G1 F1200 X114.789 Y157.21 E35.67723
G1 X116.684 Y157.213 E35.71505
G1 X131.59 Y157.219 E36.01251
G1 X131.59 Y92.819 E37.29768
G1 X103.41 Y92.819 E37.86004
G1 X103.41 Y157.217 E39.14518
G1 F2700 E34.14518
G0 F6000 X103.63 Y156.997
G0 X103.61 Y93.019
G0 X103.612 Y91.189
G0 X99.13 Y91.168
G0 X98.91 Y91.388
G1 F2700 E39.14518
G1 F1200 X136.09 Y91.389 E39.88714
G1 X136.09 Y76.807 E40.17814
G1 X98.91 Y76.806 E40.92011
G1 X98.91 Y91.388 E41.21111
G1 F2700 E36.21111
G0 F6000 X99.13 Y91.168
G0 X135.828 Y91.127
G0 X135.837 Y77.082
G0 X138.59 Y77.097
G0 X138.6 Y75.458
G0 X138.249 Y75.458
G1 F2700 E41.21111
G1 F1200 X138.131 Y75.34 E41.21444
G0 F6000 X137.566 Y75.34
G1 F1200 X138.249 Y76.024 E41.23373
G0 F6000 X138.249 Y76.59
G1 F1200 X137 Y75.34 E41.26899
G0 F6000 X136.434 Y75.34
G1 F1200 X138.249 Y77.155 E41.32022
G0 F6000 X138.249 Y77.721
G1 F1200 X135.869 Y75.34 E41.3874
G0 F6000 X135.303 Y75.34
G1 F1200 X138.249 Y78.287 E41.47056
G0 F6000 X138.249 Y78.853
G1 F1200 X136.248 Y76.851 E41.52704
G0 F6000 X136.043 Y76.646
G1 F1200 X134.737 Y75.34 E41.5639
G0 F6000 X134.172 Y75.34
G1 F1200 X135.477 Y76.646 E41.60075
G0 F6000 X134.911 Y76.646
G1 F1200 X133.606 Y75.34 E41.63759
G0 F6000 X133.04 Y75.34
G1 F1200 X134.346 Y76.646 E41.67445
G0 F6000 X133.78 Y76.646
G1 F1200 X132.475 Y75.34 E41.71129
G0 F6000 X131.909 Y75.34
G1 F1200 X133.214 Y76.646 E41.74814
G0 F6000 X132.648 Y76.646
G1 F1200 X131.343 Y75.34 E41.78498
G0 F6000 X130.777 Y75.34
G1 F1200 X132.083 Y76.646 E41.82184
G0 F6000 X131.517 Y76.646
G1 F1200 X130.212 Y75.34 E41.85868
G0 F6000 X129.646 Y75.34
G1 F1200 X130.951 Y76.646 E41.89553
G0 F6000 X130.386 Y76.646
G1 F1200 X129.08 Y75.34 E41.93238
G0 F6000 X128.515 Y75.34
G1 F1200 X129.82 Y76.646 E41.96923
G0 F6000 X129.254 Y76.646
G1 F1200 X127.949 Y75.34 E42.00607
G0 F6000 X127.383 Y75.34
G1 F1200 X128.689 Y76.646 E42.04293
G0 F6000 X128.123 Y76.646
G1 F1200 X126.818 Y75.34 E42.07977
G0 F6000 X126.252 Y75.34
G1 F1200 X127.557 Y76.646 E42.11662
G0 F6000 X126.992 Y76.646
G1 F1200 X125.686 Y75.34 E42.15348
G0 F6000 X125.121 Y75.34
G1 F1200 X126.426 Y76.646 E42.19032
G0 F6000 X125.86 Y76.646
G1 F1200 X124.555 Y75.34 E42.22716
G0 F6000 X123.989 Y75.34
G1 F1200 X125.295 Y76.646 E42.26402
G0 F6000 X124.729 Y76.646
G1 F1200 X123.424 Y75.34 E42.30087
G0 F6000 X122.858 Y75.34
G1 F1200 X124.163 Y76.646 E42.33771
G0 F6000 X123.598 Y76.646
G1 F1200 X122.292 Y75.34 E42.37457
G0 F6000 X121.727 Y75.34
G1 F1200 X123.032 Y76.646 E42.41141
G0 F6000 X122.466 Y76.646
G1 F1200 X121.161 Y75.34 E42.44826
G0 F6000 X120.595 Y75.34
G1 F1200 X121.9 Y76.646 E42.4851
G0 F6000 X121.335 Y76.646
G1 F1200 X120.029 Y75.34 E42.52196
G0 F6000 X119.464 Y75.34
G1 F1200 X120.769 Y76.646 E42.5588
G0 F6000 X120.203 Y76.646
G1 F1200 X118.898 Y75.34 E42.59565
G0 F6000 X118.332 Y75.34
G1 F1200 X119.638 Y76.646 E42.63251
G0 F6000 X119.072 Y76.646
G1 F1200 X117.767 Y75.34 E42.66935
G0 F6000 X117.201 Y75.34
G1 F1200 X118.506 Y76.646 E42.70619
G0 F6000 X117.941 Y76.646
G1 F1200 X116.635 Y75.34 E42.74305
G0 F6000 X116.07 Y75.34
G1 F1200 X117.375 Y76.646 E42.7799
G0 F6000 X116.809 Y76.646
G1 F1200 X115.504 Y75.34 E42.81674
G0 F6000 X114.938 Y75.34
G1 F1200 X116.244 Y76.646 E42.8536
G0 F6000 X115.678 Y76.646
G1 F1200 X114.373 Y75.34 E42.89044
G0 F6000 X113.807 Y75.34
G1 F1200 X115.112 Y76.646 E42.92729
G0 F6000 X114.547 Y76.646
G1 F1200 X113.241 Y75.34 E42.96414
G0 F6000 X112.676 Y75.34
G1 F1200 X113.981 Y76.646 E43.00099
G0 F6000 X113.415 Y76.646
G1 F1200 X112.11 Y75.34 E43.03783
G0 F6000 X111.544 Y75.34
G1 F1200 X112.849 Y76.646 E43.07468
G0 F6000 X112.284 Y76.646
