;FLAVOR:Marlin
;TIME:2957
;Filament used: 1.49387m
;Layer height: 0.16
;MINX:80.5
;MINY:95.262
;MINZ:0.2
;MAXX:154.499
;MAXY:139.737
;MAXZ:24.48
;Generated with Cura_SteamEngine 4.7.1
M82 ;absolute extrusion mode
; Ender 3 Custom Start G-code
M117 Getting the bed up to temp!
M140 S60 ; Set Heat Bed temperature
M190 S60 ; Wait for Heat Bed temperature
M117 Pre-heating the extruder!
M104 S160; start warming extruder to 160
G28 ; Home all axes
M117 Auto bed-level GO!
G29 ; Auto bed-level (BL-Touch)
G92 E0 ; Reset Extruder
M117 Getting the extruder up to temp!
M104 S210 ; Set Extruder temperature
M109 S210 ; Wait for Extruder temperature
G1 Z1.0 F3000 ; move z up little to prevent scratching of surface
G1 X0.1 Y20 Z0.3 F5000.0 ; move to start-line position
M117 LET THE PURGE BEGIN!
G1 X0.1 Y200.0 Z0.3 F1500.0 E15 ; draw 1st line
G1 X0.4 Y200.0 Z0.3 F5000.0 ; move to side a little
G1 X0.4 Y20 Z0.3 F1500.0 E30 ; draw 2nd line
G92 E0 ; reset extruder
G1 Z1.0 F3000 ; move z up little to prevent scratching of surface
M117 Autobots! Roll Out!
; End of custom start GCode
G92 E0
G92 E0
G1 F2700 E-5
;LAYER_COUNT:159
;LAYER:0
M107
G0 F6000 X84.404 Y97.887 Z0.2
;TYPE:SKIRT
G1 F2700 E0
G1 F1200 X85.146 Y97.312 E0.03122
G1 X85.933 Y96.803 E0.0624
G1 X86.761 Y96.362 E0.0936
G1 X87.623 Y95.994 E0.12477
G1 X88.514 Y95.7 E0.15598
G1 X89.427 Y95.483 E0.18719
G1 X90.354 Y95.345 E0.21836
G1 X91.195 Y95.289 E0.2464
G1 X91.509 Y95.28 E0.25684
G1 X91.821 Y95.275 E0.26722
G1 X114.943 Y95.269 E1.03626
G1 X117.756 Y95.267 E1.12982
G1 X142.833 Y95.262 E1.96389
G1 X143.003 Y95.263 E1.96954
G1 X143.657 Y95.273 E1.9913
G1 X144.593 Y95.328 E2.02248
G1 X145.522 Y95.461 E2.0537
G1 X146.435 Y95.674 E2.08488
G1 X147.327 Y95.963 E2.11606
G1 X148.191 Y96.328 E2.14726
G1 X149.021 Y96.765 E2.17846
G1 X149.811 Y97.27 E2.20964
G1 X150.555 Y97.842 E2.24086
G1 X151.247 Y98.474 E2.27203
G1 X151.884 Y99.163 E2.30324
G1 X152.459 Y99.904 E2.33443
G1 X152.968 Y100.692 E2.36563
G1 X153.409 Y101.519 E2.39681
G1 X153.778 Y102.382 E2.42802
G1 X154.072 Y103.272 E2.4592
G1 X154.289 Y104.185 E2.49041
G1 X154.428 Y105.112 E2.52159
G1 X154.484 Y105.945 E2.54936
G1 X154.494 Y106.281 E2.56054
G1 X154.499 Y106.596 E2.57101
G1 X154.499 Y107.699 E2.6077
G1 X154.488 Y108.423 E2.63178
G1 X154.434 Y109.359 E2.66297
G1 X154.3 Y110.288 E2.69418
G1 X154.087 Y111.201 E2.72537
G1 X153.798 Y112.093 E2.75655
G1 X153.56 Y112.681 E2.77765
G1 X153.164 Y113.494 E2.80773
G1 X153.068 Y113.672 E2.81446
G1 X152.948 Y113.888 E2.82267
G1 X152.769 Y114.202 E2.8347
G1 X151.618 Y116.176 E2.9107
G1 X151.172 Y116.917 E2.93946
G1 X151.167 Y116.914 E2.93966
G1 X150.848 Y117.429 E2.95981
G1 X150.288 Y118.181 E2.99099
G1 X149.667 Y118.883 E3.02216
G1 X148.987 Y119.53 E3.05338
G1 X148.255 Y120.116 E3.08457
G1 X147.476 Y120.638 E3.11576
G1 X146.655 Y121.091 E3.14695
G1 X145.798 Y121.473 E3.17815
G1 X144.912 Y121.781 E3.20935
G1 X144.003 Y122.012 E3.24055
G1 X142.792 Y122.196 E3.28129
G1 X142.156 Y122.257 E3.30254
G1 X139.571 Y122.542 E3.38903
G1 X137.075 Y122.887 E3.47284
G1 X134.62 Y123.299 E3.55564
G1 X132.128 Y123.789 E3.64011
G1 X129.687 Y124.342 E3.72335
G1 X127.232 Y124.972 E3.80765
G1 X124.846 Y125.655 E3.8902
G1 X122.402 Y126.432 E3.9755
G1 X120.041 Y127.255 E4.05866
G1 X117.667 Y128.161 E4.14317
G1 X115.392 Y129.103 E4.22507
G1 X113.059 Y130.147 E4.31008
G1 X110.799 Y131.235 E4.3935
G1 X108.593 Y132.377 E4.47612
G1 X106.335 Y133.625 E4.56193
G1 X104.213 Y134.88 E4.64393
G1 X102.043 Y136.246 E4.72921
G1 X100.571 Y137.223 E4.78798
G1 X99.667 Y137.835 E4.82429
G1 X98.869 Y138.328 E4.85548
G1 X98.032 Y138.75 E4.88666
G1 X97.161 Y139.1 E4.91788
G1 X96.264 Y139.374 E4.94908
G1 X95.347 Y139.571 E4.98027
G1 X94.417 Y139.689 E5.01145
G1 X93.836 Y139.722 E5.03081
G1 X93.509 Y139.732 E5.04169
G1 X93.184 Y139.737 E5.0525
G1 X92.02 Y139.737 E5.09121
G1 X91.35 Y139.727 E5.1135
G1 X90.414 Y139.673 E5.14468
G1 X89.485 Y139.539 E5.1759
G1 X88.572 Y139.327 E5.20708
G1 X87.679 Y139.038 E5.23829
G1 X86.815 Y138.674 E5.26948
G1 X85.985 Y138.237 E5.30068
G1 X85.195 Y137.732 E5.33186
G1 X84.451 Y137.161 E5.36305
G1 X83.758 Y136.529 E5.39425
G1 X83.122 Y135.84 E5.42544
G1 X82.547 Y135.099 E5.45663
G1 X82.037 Y134.312 E5.48782
G1 X81.595 Y133.484 E5.51904
G1 X81.226 Y132.622 E5.55023
G1 X80.932 Y131.732 E5.5814
G1 X80.715 Y130.819 E5.61262
G1 X80.576 Y129.892 E5.64379
G1 X80.518 Y129.037 E5.67229
G1 X80.509 Y128.717 E5.68294
G1 X80.505 Y128.411 E5.69312
G1 X80.5 Y106.926 E6.40771
G1 X80.501 Y106.751 E6.41354
G1 X80.511 Y106.112 E6.43479
G1 X80.566 Y105.176 E6.46598
G1 X80.7 Y104.247 E6.49719
G1 X80.913 Y103.334 E6.52838
G1 X81.203 Y102.442 E6.55957
G1 X81.568 Y101.578 E6.59077
G1 X82.005 Y100.748 E6.62197
G1 X82.511 Y99.959 E6.65314
G1 X83.082 Y99.215 E6.68434
G1 X83.715 Y98.523 E6.71553
G1 X84.404 Y97.887 E6.74672
G0 F6000 X84.793 Y98.084
G1 F1200 X85.53 Y97.532 E6.77734
G1 X86.312 Y97.046 E6.80796
G1 X87.133 Y96.63 E6.83858
G1 X87.987 Y96.287 E6.86919
G1 X88.868 Y96.019 E6.89981
G1 X89.768 Y95.828 E6.93041
G1 X90.682 Y95.716 E6.96104
G1 X91.206 Y95.688 E6.9785
G1 X91.52 Y95.679 E6.98894
G1 X91.821 Y95.675 E6.99896
G1 X114.943 Y95.669 E7.768
G1 X117.756 Y95.667 E7.86156
G1 X142.833 Y95.662 E8.69562
G1 X142.997 Y95.663 E8.70108
G1 X143.651 Y95.673 E8.72283
G1 X144.57 Y95.727 E8.75345
G1 X145.481 Y95.861 E8.78408
G1 X146.377 Y96.073 E8.8147
G1 X147.251 Y96.362 E8.84532
G1 X148.097 Y96.726 E8.87595
G1 X148.908 Y97.162 E8.90657
G1 X149.678 Y97.666 E8.93718
G1 X150.401 Y98.236 E8.9678
G1 X151.072 Y98.866 E8.99842
G1 X151.686 Y99.552 E9.02904
G1 X152.239 Y100.288 E9.05966
G1 X152.725 Y101.07 E9.09028
G1 X153.141 Y101.891 E9.12089
G1 X153.485 Y102.745 E9.15151
G1 X153.753 Y103.626 E9.18214
G1 X153.944 Y104.527 E9.21278
G1 X154.056 Y105.44 E9.24337
G1 X154.084 Y105.957 E9.26059
G1 X154.094 Y106.293 E9.27177
G1 X154.099 Y106.597 E9.28188
G1 X154.099 Y107.693 E9.31834
G1 X154.088 Y108.417 E9.34242
G1 X154.034 Y109.336 E9.37304
G1 X153.9 Y110.247 E9.40366
G1 X153.688 Y111.143 E9.43429
G1 X153.399 Y112.017 E9.46491
G1 X153.193 Y112.521 E9.48301
G1 X152.812 Y113.304 E9.51198
G1 X152.716 Y113.482 E9.5187
G1 X152.6 Y113.69 E9.52662
G1 X152.423 Y114 E9.5385
G1 X151.194 Y116.106 E9.6196
G1 X150.948 Y116.513 E9.63542
G1 X150.83 Y116.71 E9.64305
G1 X150.826 Y116.708 E9.6432
G1 X150.45 Y117.301 E9.66656
G1 X149.892 Y118.033 E9.69717
G1 X149.272 Y118.714 E9.7278
G1 X148.596 Y119.339 E9.75842
G1 X147.868 Y119.902 E9.78903
G1 X147.093 Y120.4 E9.81967
G1 X146.279 Y120.829 E9.85027
G1 X145.43 Y121.186 E9.88091
G1 X144.554 Y121.468 E9.91152
G1 X143.656 Y121.672 E9.94214
G1 X142.755 Y121.797 E9.9724
G1 X142.134 Y121.856 E9.99315
G1 X139.544 Y122.142 E10.07981
G1 X137.025 Y122.491 E10.1644
G1 X134.542 Y122.907 E10.24813
G1 X132.041 Y123.399 E10.33291
G1 X129.597 Y123.953 E10.41626
G1 X127.136 Y124.584 E10.50076
G1 X124.688 Y125.285 E10.58545
G1 X122.318 Y126.038 E10.66816
G1 X119.903 Y126.88 E10.75323
G1 X117.519 Y127.79 E10.8381
G1 X115.195 Y128.752 E10.92176
G1 X112.93 Y129.765 E11.00428
G1 X110.607 Y130.885 E11.09006
G1 X108.366 Y132.044 E11.17397
G1 X106.184 Y133.25 E11.25689
G1 X104.002 Y134.541 E11.34122
G1 X101.791 Y135.933 E11.42812
G1 X100.434 Y136.833 E11.48227
G1 X99.443 Y137.504 E11.52208
G1 X98.659 Y137.987 E11.55271
G1 X97.836 Y138.4 E11.58333
G1 X96.98 Y138.739 E11.61396
G1 X96.098 Y139.004 E11.64459
G1 X95.197 Y139.19 E11.67519
G1 X93.824 Y139.322 E11.72106
G1 X93.497 Y139.332 E11.73194
G1 X93.184 Y139.337 E11.74236
G1 X92.026 Y139.337 E11.78087
G1 X91.356 Y139.327 E11.80316
G1 X90.437 Y139.273 E11.83378
G1 X89.526 Y139.14 E11.8644
G1 X88.63 Y138.928 E11.89502
G1 X87.756 Y138.639 E11.92564
G1 X86.91 Y138.276 E11.95626
G1 X86.099 Y137.84 E11.98688
G1 X85.328 Y137.336 E12.01752
G1 X84.605 Y136.767 E12.04812
G1 X83.933 Y136.137 E12.07876
G1 X83.319 Y135.451 E12.10938
G1 X82.767 Y134.715 E12.13998
G1 X82.28 Y133.933 E12.17062
G1 X81.863 Y133.112 E12.20125
G1 X81.519 Y132.258 E12.23187
G1 X81.251 Y131.378 E12.26246
G1 X81.059 Y130.477 E12.2931
G1 X80.947 Y129.563 E12.32373
G1 X80.918 Y129.026 E12.34162
G1 X80.909 Y128.706 E12.35226
G1 X80.905 Y128.41 E12.36211
G1 X80.9 Y106.925 E13.0767
G1 X80.901 Y106.757 E13.08229
G1 X80.911 Y106.118 E13.10355
G1 X80.966 Y105.199 E13.13417
G1 X81.1 Y104.288 E13.1648
G1 X81.312 Y103.392 E13.19542
G1 X81.601 Y102.518 E13.22604
G1 X81.966 Y101.673 E13.25665
G1 X82.402 Y100.862 E13.28728
G1 X82.906 Y100.092 E13.31788
G1 X83.476 Y99.369 E13.34851
G1 X84.107 Y98.698 E13.37914
G1 X84.793 Y98.084 E13.40976
G0 F6000 X85.18 Y98.286
G1 F1200 X85.913 Y97.757 E13.43983
G1 X86.689 Y97.295 E13.46987
G1 X87.503 Y96.904 E13.4999
G1 X88.348 Y96.586 E13.52993
G1 X89.218 Y96.345 E13.55996
G1 X90.106 Y96.181 E13.58999
G1 X91.218 Y96.088 E13.62711
G1 X91.532 Y96.079 E13.63755
G1 X91.821 Y96.075 E13.64717
G1 X114.944 Y96.069 E14.41624
G1 X117.756 Y96.067 E14.50977
G1 X142.833 Y96.062 E15.34383
G1 X142.991 Y96.063 E15.34909
G1 X143.645 Y96.073 E15.37084
G1 X144.546 Y96.127 E15.40086
G1 X145.44 Y96.26 E15.43093
G1 X146.318 Y96.472 E15.46097
G1 X147.173 Y96.761 E15.49098
G1 X148 Y97.124 E15.52102
G1 X148.792 Y97.559 E15.55108
G1 X149.542 Y98.062 E15.58111
G1 X150.244 Y98.629 E15.61113
G1 X150.894 Y99.257 E15.64119
G1 X151.485 Y99.939 E15.6712
G1 X152.014 Y100.671 E15.70124
G1 X152.476 Y101.447 E15.73128
G1 X152.867 Y102.261 E15.76131
G1 X153.185 Y103.107 E15.79138
G1 X153.427 Y103.977 E15.82141
G1 X153.591 Y104.865 E15.85144
G1 X153.684 Y105.969 E15.88829
G1 X153.694 Y106.305 E15.89947
G1 X153.699 Y106.597 E15.90919
G1 X153.699 Y107.687 E15.94544
G1 X153.688 Y108.411 E15.96952
G1 X153.634 Y109.312 E15.99955
G1 X153.501 Y110.206 E16.02961
G1 X153.289 Y111.084 E16.05965
G1 X152.834 Y112.344 E16.10421
G1 X152.46 Y113.114 E16.13268
G1 X152.364 Y113.292 E16.1394
G1 X152.252 Y113.493 E16.14706
G1 X152.078 Y113.799 E16.15876
G1 X150.927 Y115.773 E16.23477
G1 X150.564 Y116.376 E16.25817
G1 X150.544 Y116.414 E16.2596
G1 X150.487 Y116.504 E16.26315
G1 X150.486 Y116.503 E16.26319
G1 X150.053 Y117.171 E16.28967
G1 X149.496 Y117.882 E16.31971
G1 X148.878 Y118.542 E16.34978
G1 X148.205 Y119.143 E16.37979
G1 X147.481 Y119.683 E16.40983
G1 X146.712 Y120.157 E16.43988
G1 X145.905 Y120.561 E16.4699
G1 X145.064 Y120.892 E16.49996
G1 X144.198 Y121.147 E16.52998
G1 X143.313 Y121.325 E16.56001
G1 X142.717 Y121.399 E16.57998
G1 X142.118 Y121.456 E16.6
G1 X139.482 Y121.747 E16.6882
G1 X136.941 Y122.099 E16.77352
G1 X134.47 Y122.513 E16.85685
G1 X131.981 Y123.003 E16.94123
G1 X129.481 Y123.569 E17.02648
G1 X127.032 Y124.197 E17.11057
G1 X124.594 Y124.895 E17.19492
G1 X122.17 Y125.665 E17.27951
G1 X119.777 Y126.5 E17.36381
G1 X117.36 Y127.422 E17.44985
G1 X115.045 Y128.381 E17.53319
G1 X112.742 Y129.411 E17.6171
G1 X110.471 Y130.505 E17.70094
G1 X108.153 Y131.705 E17.78776
G1 X105.993 Y132.899 E17.86985
G1 X103.764 Y134.217 E17.95597
G1 X101.618 Y135.568 E18.04032
G1 X100.21 Y136.502 E18.09651
G1 X99.219 Y137.173 E18.13632
G1 X98.449 Y137.646 E18.16637
G1 X97.641 Y138.049 E18.19641
G1 X96.8 Y138.378 E18.22644
G1 X95.934 Y138.632 E18.25646
G1 X95.048 Y138.809 E18.28651
G1 X93.812 Y138.922 E18.32779
G1 X93.485 Y138.932 E18.33867
G1 X93.183 Y138.937 E18.34872
G1 X92.032 Y138.937 E18.387
G1 X91.362 Y138.927 E18.40929
G1 X90.46 Y138.873 E18.43934
G1 X89.567 Y138.74 E18.46937
G1 X88.689 Y138.529 E18.4994
G1 X87.833 Y138.241 E18.52944
G1 X87.006 Y137.878 E18.55948
G1 X86.214 Y137.443 E18.58954
G1 X85.464 Y136.94 E18.61957
G1 X84.762 Y136.373 E18.64958
G1 X84.112 Y135.746 E18.67962
G1 X83.52 Y135.064 E18.70966
G1 X82.991 Y134.332 E18.7397
G1 X82.529 Y133.556 E18.76974
G1 X82.137 Y132.742 E18.79979
G1 X81.819 Y131.897 E18.82981
G1 X81.576 Y131.027 E18.85986
G1 X81.412 Y130.139 E18.88989
G1 X81.318 Y129.015 E18.92741
G1 X81.309 Y128.695 E18.93806
G1 X81.305 Y128.41 E18.94754
G1 X81.3 Y106.925 E19.66213
G1 X81.301 Y106.763 E19.66752
G1 X81.311 Y106.124 E19.68877
G1 X81.365 Y105.223 E19.71879
G1 X81.499 Y104.33 E19.74883
G1 X81.711 Y103.452 E19.77887
G1 X82 Y102.596 E19.80892
G1 X82.363 Y101.77 E19.83893
G1 X82.799 Y100.978 E19.869
G1 X83.302 Y100.228 E19.89903
G1 X83.87 Y99.526 E19.92907
G1 X84.498 Y98.877 E19.95911
G1 X85.18 Y98.286 E19.98912
G1 F2700 E14.98912
;MESH:CE3P_XAxis_Rail_Camera_Shelf.stl
G0 F6000 X117.757 Y105.603
G0 X117.758 Y106.687
G0 X141.806 Y107.832
G0 X142.378 Y108.197
;TYPE:WALL-INNER
G1 F2700 E19.98912
G1 F1200 X142.378 Y108.181 E19.98965
G1 X142.378 Y108.155 E19.99052
G1 X142.388 Y108.181 E19.99056
G1 X142.378 Y108.197 E19.99062
G0 F6000 X142.378 Y107.878
G1 F1200 X142.378 Y107.776 E19.99402
G1 X142.378 Y107.262 E20.01111
G1 X142.499 Y107.262 E20.01514
G1 X142.5 Y107.776 E20.02034
G1 X142.378 Y107.878 E20.02229
G0 F6000 X137.174 Y107.264
G1 F1200 X137.431 Y107.264 E20.03084
G1 X137.674 Y107.264 E20.03892
G1 X137.674 Y107.388 E20.04305
G1 X137.674 Y108.136 E20.06792
G1 X137.302 Y107.487 E20.08079
G1 X137.174 Y107.264 E20.08565
G1 F2700 E15.08565
G0 F6000 X96.042 Y107.833
G0 X92.501 Y110.576
G1 F2700 E20.08565
G1 F1200 X92.5 Y107.274 E20.19547
G1 X95.804 Y107.273 E20.30536
G1 X92.501 Y110.576 E20.46073
G0 F6000 X92.902 Y128.137
G1 F1200 X92.304 Y128.138 E20.48062
G1 X92.105 Y128.138 E20.48723
G1 X92.105 Y127.939 E20.49152
G1 X92.1 Y107.073 E21.18552
G1 X92.1 Y106.874 E21.19214
G1 X92.299 Y106.874 E21.19642
G1 X114.951 Y106.869 E21.94983
G1 X117.758 Y106.867 E22.04319
G1 X138.319 Y106.864 E22.72706
G1 X142.899 Y106.862 E22.87939
G1 X142.9 Y107.963 E22.91601
G1 X142.773 Y108.069 E22.92151
G1 X142.828 Y108.22 E22.92685
G1 X142.35 Y109.04 E22.95842
G1 X141.979 Y109.676 E22.98291
G1 X141.979 Y108.94 E22.99558
G1 X141.979 Y108.939 E22.99561
G1 X141.978 Y107.66 E23.03815
G1 X138.273 Y107.66 E23.16138
G1 X138.074 Y107.66 E23.168
G1 X138.074 Y107.859 E23.17228
G1 X138.075 Y108.89 E23.20657
G1 X138.075 Y108.891 E23.2066
G1 X138.075 Y109.638 E23.23145
G1 X137.703 Y108.99 E23.2443
G1 X136.94 Y107.661 E23.29527
G1 X123.255 Y107.663 E23.75043
G1 X119.182 Y107.665 E23.8859
G1 X110.91 Y107.665 E24.16103
G1 X95.974 Y107.669 E24.6578
G1 X92.898 Y110.745 E24.80249
G1 X92.898 Y115.976 E24.97647
G1 X92.9 Y118.513 E25.06085
G1 X92.902 Y128.137 E25.38095
G0 F6000 X93.302 Y128.537
;TYPE:WALL-OUTER
G1 F1200 X91.705 Y128.538 E25.43406
G1 X91.7 Y106.474 E26.16792
G1 X114.951 Y106.469 E26.94125
G1 X117.758 Y106.467 E27.03461
G1 X138.319 Y106.464 E27.71847
G1 X143.299 Y106.462 E27.88411
G1 X143.3 Y108.15 E27.94025
G1 X143.245 Y108.196 E27.94263
G1 X143.268 Y108.259 E27.94486
G1 X141.638 Y111.055 E28.05251
G1 X141.579 Y111.055 E28.05447
G1 X141.578 Y108.06 E28.15409
G1 X138.474 Y108.06 E28.25732
G1 X138.475 Y111.035 E28.35627
G1 X138.415 Y111.035 E28.35827
G1 X136.708 Y108.061 E28.47232
G1 X123.255 Y108.063 E28.91977
G1 X119.182 Y108.065 E29.05524
G1 X110.91 Y108.065 E29.33037
G1 X96.14 Y108.069 E29.82162
G1 X93.298 Y110.911 E29.9553
G1 X93.298 Y115.976 E30.12376
G1 X93.3 Y118.513 E30.20814
G1 X93.302 Y128.537 E30.54154
G0 F6000 X93.032 Y128.267
G0 X93.088 Y109.833
G0 X92.891 Y109.636
;TYPE:SKIN
G1 F1200 X92.89 Y107.664 E30.60713
G1 X94.864 Y107.663 E30.67278
G1 X92.891 Y109.636 E30.76559
G0 F6000 X93.23 Y109.069
G1 F1200 X93.05 Y108.889 E30.77405
G0 F6000 X93.513 Y108.786
G1 F1200 X93.05 Y108.323 E30.79583
G0 F6000 X93.115 Y107.823
G1 F1200 X93.796 Y108.504 E30.82787
G0 F6000 X94.079 Y108.221
G1 F1200 X93.681 Y107.823 E30.84659
G0 F6000 X94.246 Y107.823
G1 F1200 X94.361 Y107.938 E30.852
G0 F6000 X94.987 Y107.432
;TYPE:SKIN
G1 F1200 X95.203 Y107.648 E30.85708
G0 F6000 X95.344 Y107.507
G1 F1200 X95.27 Y107.432 E30.85883
G0 F6000 X95.271 Y107.383
G0 X95.327 Y107.459
G0 X92.975 Y109.946
G0 X92.828 Y109.798
G1 F1200 X92.939 Y109.91 E30.86145
G0 F6000 X92.798 Y110.051
G1 F1200 X92.66 Y109.914 E30.86468
G0 F6000 X92.6 Y110.702
G1 F1200 X92.722 Y110.824 E30.86755
G0 F6000 X92.499 Y110.883
G1 F1200 X92.499 Y111.166 E30.87809
G1 X92.501 Y119.654 E31.19401
G1 X92.503 Y126.444 E31.44673
G1 X92.503 Y127.575 E31.48882
G1 X92.301 Y127.939 E31.50432
G0 F6000 X92.323 Y127.961
G0 X93.062 Y110.813
G0 X95.896 Y107.492
G0 X95.881 Y107.477
