;FLAVOR:Marlin
;TIME:4677
;Filament used: 1.98328m
;Layer height: 0.1
;MINX:111.665
;MINY:81.665
;MINZ:0.3
;MAXX:148.335
;MAXY:118.335
;MAXZ:71.8
;Generated with Cura_SteamEngine 4.7.1
M140 S70
M105
M190 S70
M104 S215
M105
M109 S215
M82 ;absolute extrusion mode
G28 ;Home
G1 Z15.0 F6000 ;Move the platform down 15mm
;Prime the extruder
G92 E0
G1 F200 E3
G92 E0
G92 E0
G92 E0
G1 F1500 E-6.5
;LAYER_COUNT:716
;LAYER:0
M107
G0 F3600 X115.076 Y89.156 Z0.3
;TYPE:SKIRT
G1 F1500 E0
G1 F1800 X115.561 Y88.533 E0.03939
G1 X116.107 Y87.963 E0.07877
G1 X116.708 Y87.45 E0.11819
G1 X117.142 Y87.15 E0.14451
G1 X117.231 Y87.007 E0.15292
G1 X117.714 Y86.383 E0.19228
G1 X118.258 Y85.811 E0.23167
G1 X119.13 Y85.095 E0.28796
G1 X119.553 Y84.796 E0.3138
G1 X119.883 Y84.575 E0.33361
G1 X120.379 Y84.261 E0.3629
G1 X121.067 Y83.873 E0.40231
G1 X121.79 Y83.556 E0.44169
G1 X122.542 Y83.314 E0.48111
G1 X123.034 Y83.21 E0.50619
G1 X123.167 Y83.114 E0.51438
G1 X123.853 Y82.722 E0.5538
G1 X124.574 Y82.4 E0.59319
G1 X125.665 Y82.068 E0.65009
G1 X126.17 Y81.954 E0.67591
G1 X126.545 Y81.879 E0.69499
G1 X127.123 Y81.778 E0.72427
G1 X127.907 Y81.682 E0.76367
G1 X128.697 Y81.665 E0.8031
G1 X129.484 Y81.729 E0.84249
G1 X129.996 Y81.823 E0.86846
G1 X130.159 Y81.785 E0.87681
G1 X130.943 Y81.685 E0.91624
G1 X131.732 Y81.666 E0.95562
G1 X132.828 Y81.771 E1.01055
G1 X133.339 Y81.857 E1.0364
G1 X133.757 Y81.939 E1.05765
G1 X134.33 Y82.068 E1.08695
G1 X135.091 Y82.281 E1.12638
G1 X135.826 Y82.569 E1.16576
G1 X136.528 Y82.93 E1.20514
G1 X136.95 Y83.204 E1.23025
G1 X137.115 Y83.231 E1.23859
G1 X137.877 Y83.439 E1.27799
G1 X138.614 Y83.722 E1.31738
G1 X139.607 Y84.252 E1.37354
G1 X140.045 Y84.528 E1.39937
G1 X140.363 Y84.739 E1.41841
G1 X140.844 Y85.076 E1.44771
G1 X141.467 Y85.561 E1.4871
G1 X142.037 Y86.107 E1.52648
G1 X142.55 Y86.708 E1.5659
G1 X142.85 Y87.142 E1.59222
G1 X142.993 Y87.231 E1.60062
G1 X143.617 Y87.714 E1.63999
G1 X144.189 Y88.258 E1.67937
G1 X144.905 Y89.13 E1.73566
G1 X145.204 Y89.553 E1.76151
G1 X145.425 Y89.883 E1.78132
G1 X145.739 Y90.379 E1.81061
G1 X146.127 Y91.067 E1.85001
G1 X146.444 Y91.79 E1.8894
G1 X146.686 Y92.542 E1.92881
G1 X146.79 Y93.034 E1.9539
G1 X146.886 Y93.167 E1.96208
G1 X147.278 Y93.853 E2.0015
G1 X147.6 Y94.574 E2.0409
G1 X147.932 Y95.665 E2.09779
G1 X148.046 Y96.17 E2.12362
G1 X148.121 Y96.545 E2.1427
G1 X148.222 Y97.123 E2.17197
G1 X148.318 Y97.907 E2.21138
G1 X148.335 Y98.697 E2.2508
G1 X148.271 Y99.484 E2.2902
G1 X148.177 Y99.996 E2.31617
G1 X148.215 Y100.159 E2.32452
G1 X148.315 Y100.943 E2.36395
G1 X148.334 Y101.732 E2.40332
G1 X148.229 Y102.828 E2.45825
G1 X148.143 Y103.339 E2.4841
G1 X148.061 Y103.757 E2.50536
G1 X147.932 Y104.33 E2.53466
G1 X147.719 Y105.091 E2.57408
G1 X147.431 Y105.826 E2.61347
G1 X147.07 Y106.528 E2.65285
G1 X146.796 Y106.95 E2.67795
G1 X146.769 Y107.115 E2.68629
G1 X146.561 Y107.877 E2.7257
G1 X146.278 Y108.614 E2.76509
G1 X145.748 Y109.607 E2.82124
G1 X145.472 Y110.045 E2.84707
G1 X145.261 Y110.363 E2.86611
G1 X144.924 Y110.844 E2.89541
G1 X144.439 Y111.467 E2.9348
G1 X143.893 Y112.037 E2.97418
G1 X143.292 Y112.55 E3.0136
G1 X142.858 Y112.85 E3.03992
G1 X142.769 Y112.993 E3.04833
G1 X142.286 Y113.617 E3.0877
G1 X141.742 Y114.189 E3.12708
G1 X140.87 Y114.905 E3.18337
G1 X140.447 Y115.204 E3.20921
G1 X140.117 Y115.425 E3.22903
G1 X139.621 Y115.739 E3.25831
G1 X138.933 Y116.127 E3.29772
G1 X138.21 Y116.444 E3.33711
G1 X137.458 Y116.686 E3.37652
G1 X136.966 Y116.79 E3.40161
G1 X136.833 Y116.886 E3.40979
G1 X136.147 Y117.278 E3.44921
G1 X135.426 Y117.6 E3.4886
G1 X134.335 Y117.932 E3.5455
G1 X133.83 Y118.046 E3.57133
G1 X133.455 Y118.121 E3.59041
G1 X132.877 Y118.222 E3.61968
G1 X132.093 Y118.318 E3.65909
G1 X131.303 Y118.335 E3.69851
G1 X130.516 Y118.271 E3.7379
G1 X130.004 Y118.177 E3.76387
G1 X129.841 Y118.215 E3.77222
G1 X129.057 Y118.315 E3.81165
G1 X128.268 Y118.334 E3.85103
G1 X127.172 Y118.229 E3.90596
G1 X126.661 Y118.143 E3.93181
G1 X126.243 Y118.061 E3.95306
G1 X125.67 Y117.932 E3.98236
G1 X124.909 Y117.719 E4.02179
G1 X124.174 Y117.431 E4.06117
G1 X123.472 Y117.07 E4.10056
G1 X123.05 Y116.796 E4.12566
G1 X122.885 Y116.769 E4.134
G1 X122.123 Y116.561 E4.17341
G1 X121.386 Y116.278 E4.21279
G1 X120.393 Y115.748 E4.26895
G1 X119.955 Y115.472 E4.29478
G1 X119.637 Y115.261 E4.31382
G1 X119.156 Y114.924 E4.34312
G1 X118.533 Y114.439 E4.38251
G1 X117.963 Y113.893 E4.42189
G1 X117.45 Y113.292 E4.46131
G1 X117.15 Y112.858 E4.48763
G1 X117.007 Y112.769 E4.49603
G1 X116.383 Y112.286 E4.5354
G1 X115.811 Y111.742 E4.57478
G1 X115.097 Y110.873 E4.6309
G1 X114.797 Y110.449 E4.65681
G1 X114.571 Y110.113 E4.67701
G1 X114.258 Y109.618 E4.70623
G1 X113.871 Y108.93 E4.74561
G1 X113.555 Y108.206 E4.78502
G1 X113.313 Y107.454 E4.82444
G1 X113.209 Y106.966 E4.84933
G1 X113.114 Y106.833 E4.85748
G1 X112.722 Y106.147 E4.8969
G1 X112.4 Y105.426 E4.9363
G1 X112.068 Y104.335 E4.99319
G1 X111.954 Y103.83 E5.01902
G1 X111.879 Y103.455 E5.0381
G1 X111.778 Y102.877 E5.06737
G1 X111.682 Y102.093 E5.10678
G1 X111.665 Y101.303 E5.1462
G1 X111.729 Y100.516 E5.18559
G1 X111.823 Y100.004 E5.21156
G1 X111.785 Y99.841 E5.21991
G1 X111.685 Y99.057 E5.25935
G1 X111.666 Y98.268 E5.29872
G1 X111.771 Y97.172 E5.35365
G1 X111.857 Y96.661 E5.3795
G1 X111.939 Y96.243 E5.40075
G1 X112.068 Y95.67 E5.43006
G1 X112.281 Y94.909 E5.46948
G1 X112.569 Y94.174 E5.50887
G1 X112.93 Y93.472 E5.54825
G1 X113.204 Y93.05 E5.57335
G1 X113.231 Y92.885 E5.58169
G1 X113.439 Y92.123 E5.6211
G1 X113.722 Y91.386 E5.66049
G1 X114.252 Y90.393 E5.71664
G1 X114.528 Y89.955 E5.74247
G1 X114.739 Y89.637 E5.76151
G1 X115.076 Y89.156 E5.79081
G0 F3600 X115.403 Y89.386
G1 F1800 X115.877 Y88.78 E5.82919
G1 X116.411 Y88.226 E5.86758
G1 X116.999 Y87.731 E5.90593
G1 X117.438 Y87.433 E5.9324
G1 X117.628 Y87.138 E5.94991
G1 X118.11 Y86.538 E5.9883
G1 X118.651 Y85.992 E6.02665
G1 X119.361 Y85.421 E6.07211
G1 X119.784 Y85.122 E6.09795
G1 X120.097 Y84.913 E6.11673
G1 X120.593 Y84.599 E6.14601
G1 X121.263 Y84.221 E6.18439
G1 X121.969 Y83.916 E6.22276
G1 X122.703 Y83.685 E6.26115
G1 X123.201 Y83.584 E6.2865
G1 X123.485 Y83.387 E6.30375
G1 X124.159 Y83.016 E6.34213
G1 X124.868 Y82.718 E6.3805
G1 X125.754 Y82.459 E6.42655
G1 X126.259 Y82.345 E6.45238
G1 X126.614 Y82.273 E6.47045
G1 X127.192 Y82.172 E6.49973
G1 X127.956 Y82.08 E6.53812
G1 X128.725 Y82.067 E6.57649
G1 X129.491 Y82.133 E6.61485
G1 X130.005 Y82.232 E6.64096
G1 X130.348 Y82.158 E6.65847
G1 X131.113 Y82.075 E6.69686
G1 X131.882 Y82.071 E6.73522
G1 X132.761 Y82.166 E6.77933
G1 X133.272 Y82.252 E6.80519
G1 X133.669 Y82.33 E6.82537
G1 X134.242 Y82.459 E6.85467
G1 X134.983 Y82.666 E6.89306
G1 X135.698 Y82.95 E6.93144
G1 X136.38 Y83.306 E6.96982
G1 X136.802 Y83.585 E6.99506
G1 X137.147 Y83.648 E7.01256
G1 X137.885 Y83.864 E7.05092
G1 X138.597 Y84.154 E7.08928
G1 X139.394 Y84.59 E7.1346
G1 X139.832 Y84.866 E7.16043
G1 X140.133 Y85.066 E7.17846
G1 X140.614 Y85.403 E7.20776
G1 X141.22 Y85.877 E7.24614
G1 X141.774 Y86.411 E7.28453
G1 X142.269 Y86.999 E7.32288
G1 X142.567 Y87.438 E7.34935
G1 X142.862 Y87.628 E7.36685
G1 X143.462 Y88.11 E7.40525
G1 X144.008 Y88.651 E7.4436
G1 X144.579 Y89.361 E7.48905
G1 X144.878 Y89.784 E7.5149
G1 X145.087 Y90.097 E7.53367
G1 X145.401 Y90.593 E7.56296
G1 X145.779 Y91.263 E7.60134
G1 X146.084 Y91.969 E7.63971
G1 X146.315 Y92.703 E7.6781
G1 X146.416 Y93.201 E7.70345
G1 X146.613 Y93.485 E7.7207
G1 X146.984 Y94.159 E7.75908
G1 X147.282 Y94.868 E7.79745
G1 X147.541 Y95.754 E7.8435
G1 X147.655 Y96.259 E7.86933
G1 X147.727 Y96.614 E7.8874
G1 X147.828 Y97.192 E7.91667
G1 X147.92 Y97.956 E7.95507
G1 X147.933 Y98.725 E7.99344
G1 X147.867 Y99.491 E8.03179
G1 X147.768 Y100.005 E8.05791
G1 X147.842 Y100.348 E8.07542
G1 X147.925 Y101.113 E8.11381
G1 X147.929 Y101.882 E8.15217
G1 X147.834 Y102.761 E8.19628
G1 X147.748 Y103.272 E8.22213
G1 X147.67 Y103.669 E8.24232
G1 X147.541 Y104.242 E8.27162
G1 X147.334 Y104.983 E8.31
G1 X147.05 Y105.698 E8.34839
G1 X146.694 Y106.38 E8.38677
G1 X146.415 Y106.802 E8.41201
G1 X146.352 Y107.147 E8.4295
G1 X146.136 Y107.885 E8.46787
G1 X145.846 Y108.597 E8.50622
G1 X145.41 Y109.394 E8.55155
G1 X145.134 Y109.832 E8.57738
G1 X144.934 Y110.133 E8.59541
G1 X144.597 Y110.614 E8.62471
G1 X144.123 Y111.22 E8.66309
G1 X143.589 Y111.774 E8.70148
G1 X143.001 Y112.269 E8.73982
G1 X142.562 Y112.567 E8.7663
G1 X142.372 Y112.862 E8.7838
G1 X141.89 Y113.462 E8.8222
G1 X141.349 Y114.008 E8.86055
G1 X140.639 Y114.579 E8.906
G1 X140.216 Y114.878 E8.93185
G1 X139.903 Y115.087 E8.95062
G1 X139.407 Y115.401 E8.97991
G1 X138.737 Y115.779 E9.01829
G1 X138.031 Y116.084 E9.05666
G1 X137.297 Y116.315 E9.09505
G1 X136.799 Y116.416 E9.1204
G1 X136.515 Y116.613 E9.13764
G1 X135.841 Y116.984 E9.17603
G1 X135.132 Y117.282 E9.2144
G1 X134.246 Y117.541 E9.26045
G1 X133.741 Y117.655 E9.28628
G1 X133.386 Y117.727 E9.30435
G1 X132.808 Y117.828 E9.33362
G1 X132.044 Y117.92 E9.37201
G1 X131.275 Y117.933 E9.41038
G1 X130.509 Y117.867 E9.44874
G1 X129.995 Y117.768 E9.47486
G1 X129.652 Y117.842 E9.49236
G1 X128.887 Y117.925 E9.53075
G1 X128.118 Y117.929 E9.56912
G1 X127.239 Y117.834 E9.61323
G1 X126.728 Y117.748 E9.63908
G1 X126.331 Y117.67 E9.65927
G1 X125.758 Y117.541 E9.68857
G1 X125.017 Y117.334 E9.72695
G1 X124.302 Y117.05 E9.76533
G1 X123.62 Y116.694 E9.80372
G1 X123.198 Y116.415 E9.82896
G1 X122.853 Y116.352 E9.84645
G1 X122.115 Y116.136 E9.88482
G1 X121.403 Y115.846 E9.92317
G1 X120.606 Y115.41 E9.96849
G1 X120.168 Y115.134 E9.99432
G1 X119.867 Y114.934 E10.01235
G1 X119.386 Y114.597 E10.04165
G1 X118.78 Y114.123 E10.08004
G1 X118.226 Y113.589 E10.11843
G1 X117.731 Y113.001 E10.15677
G1 X117.433 Y112.562 E10.18324
G1 X117.138 Y112.372 E10.20075
G1 X116.538 Y111.89 E10.23915
G1 X115.992 Y111.349 E10.27749
G1 X115.423 Y110.642 E10.32277
G1 X115.123 Y110.218 E10.34868
G1 X114.909 Y109.899 E10.36785
G1 X114.596 Y109.404 E10.39707
G1 X114.22 Y108.733 E10.43544
G1 X113.915 Y108.027 E10.47381
G1 X113.685 Y107.293 E10.51218
G1 X113.585 Y106.801 E10.53723
G1 X113.387 Y106.515 E10.55459
G1 X113.016 Y105.841 E10.59297
G1 X112.718 Y105.132 E10.63134
G1 X112.459 Y104.246 E10.67739
G1 X112.345 Y103.741 E10.70322
G1 X112.273 Y103.386 E10.72129
G1 X112.172 Y102.808 E10.75057
G1 X112.08 Y102.044 E10.78896
G1 X112.067 Y101.275 E10.82733
G1 X112.133 Y100.509 E10.86569
G1 X112.232 Y99.995 E10.8918
G1 X112.158 Y99.652 E10.90931
G1 X112.075 Y98.887 E10.9477
G1 X112.071 Y98.118 E10.98606
G1 X112.166 Y97.239 E11.03017
G1 X112.252 Y96.728 E11.05602
G1 X112.33 Y96.331 E11.07621
G1 X112.459 Y95.758 E11.10551
G1 X112.666 Y95.017 E11.1439
G1 X112.95 Y94.302 E11.18228
G1 X113.306 Y93.62 E11.22066
G1 X113.585 Y93.198 E11.2459
G1 X113.648 Y92.853 E11.2634
G1 X113.864 Y92.115 E11.30176
G1 X114.154 Y91.403 E11.34011
G1 X114.59 Y90.606 E11.38544
G1 X114.866 Y90.168 E11.41127
G1 X115.066 Y89.867 E11.4293
G1 X115.403 Y89.386 E11.4586
G0 F3600 X115.731 Y89.615
G1 F1800 X116.192 Y89.027 E11.49587
G1 X116.714 Y88.49 E11.53324
G1 X117.29 Y88.013 E11.57055
G1 X117.724 Y87.725 E11.59653
G1 X118.026 Y87.273 E11.62365
G1 X118.505 Y86.698 E11.66099
G1 X119.043 Y86.178 E11.69832
G1 X119.592 Y85.748 E11.73311
G1 X120.015 Y85.449 E11.75895
G1 X120.311 Y85.251 E11.77672
G1 X120.807 Y84.937 E11.80601
G1 X121.459 Y84.571 E11.84331
G1 X122.147 Y84.277 E11.88064
G1 X122.862 Y84.058 E11.91795
G1 X123.354 Y83.963 E11.94295
G1 X123.801 Y83.663 E11.9698
G1 X124.463 Y83.315 E12.00712
G1 X125.159 Y83.04 E12.04445
G1 X125.842 Y82.849 E12.07983
G1 X126.347 Y82.735 E12.10566
G1 X126.683 Y82.667 E12.12277
G1 X127.261 Y82.566 E12.15204
G1 X128.004 Y82.477 E12.18937
G1 X128.752 Y82.468 E12.22669
G1 X129.497 Y82.538 E12.26402
G1 X130.001 Y82.641 E12.28969
G1 X130.534 Y82.535 E12.3168
G1 X131.279 Y82.468 E12.35412
G1 X132.027 Y82.48 E12.39144
G1 X132.695 Y82.56 E12.42501
G1 X133.206 Y82.646 E12.45086
G1 X133.581 Y82.72 E12.46993
G1 X134.154 Y82.849 E12.49923
G1 X134.874 Y83.052 E12.53655
G1 X135.569 Y83.331 E12.57392
G1 X136.229 Y83.682 E12.61121
G1 X136.641 Y83.961 E12.63603
G1 X137.175 Y84.067 E12.6632
G1 X137.889 Y84.29 E12.70051
G1 X138.575 Y84.588 E12.73783
G1 X139.181 Y84.929 E12.77252
G1 X139.619 Y85.205 E12.79835
G1 X139.904 Y85.394 E12.81541
G1 X140.385 Y85.731 E12.84471
G1 X140.973 Y86.192 E12.88199
G1 X141.51 Y86.714 E12.91935
G1 X141.987 Y87.29 E12.95666
G1 X142.275 Y87.724 E12.98265
G1 X142.727 Y88.026 E13.00977
G1 X143.302 Y88.505 E13.0471
G1 X143.822 Y89.043 E13.08443
G1 X144.252 Y89.592 E13.11923
G1 X144.551 Y90.015 E13.14507
G1 X144.749 Y90.311 E13.16284
G1 X145.063 Y90.807 E13.19212
G1 X145.429 Y91.459 E13.22943
G1 X145.723 Y92.147 E13.26675
G1 X145.942 Y92.862 E13.30406
G1 X146.037 Y93.354 E13.32906
G1 X146.337 Y93.801 E13.35592
G1 X146.685 Y94.463 E13.39323
G1 X146.96 Y95.159 E13.43057
G1 X147.151 Y95.842 E13.46595
G1 X147.265 Y96.347 E13.49178
G1 X147.333 Y96.683 E13.50888
G1 X147.434 Y97.261 E13.53815
G1 X147.523 Y98.004 E13.57549
G1 X147.532 Y98.752 E13.61281
G1 X147.462 Y99.497 E13.65014
G1 X147.359 Y100 E13.67575
G1 X147.465 Y100.534 E13.70292
G1 X147.532 Y101.279 E13.74023
G1 X147.52 Y102.027 E13.77756
G1 X147.44 Y102.695 E13.81112
G1 X147.354 Y103.206 E13.83697
G1 X147.28 Y103.581 E13.85604
G1 X147.151 Y104.154 E13.88535
G1 X146.948 Y104.874 E13.92267
G1 X146.669 Y105.569 E13.96003
G1 X146.318 Y106.229 E13.99732
G1 X146.039 Y106.641 E14.02215
G1 X145.933 Y107.175 E14.04931
G1 X145.71 Y107.889 E14.08663
G1 X145.412 Y108.575 E14.12394
G1 X145.071 Y109.181 E14.15863
G1 X144.795 Y109.619 E14.18446
G1 X144.606 Y109.904 E14.20152
G1 X144.269 Y110.385 E14.23083
G1 X143.808 Y110.973 E14.2681
G1 X143.286 Y111.51 E14.30546
G1 X142.71 Y111.987 E14.34278
G1 X142.276 Y112.275 E14.36876
G1 X141.974 Y112.727 E14.39588
G1 X141.495 Y113.302 E14.43322
G1 X140.957 Y113.822 E14.47055
G1 X140.408 Y114.252 E14.50534
G1 X139.985 Y114.551 E14.53118
G1 X139.689 Y114.749 E14.54895
G1 X139.193 Y115.063 E14.57824
G1 X138.541 Y115.429 E14.61554
G1 X137.853 Y115.723 E14.65287
G1 X137.138 Y115.942 E14.69017
G1 X136.646 Y116.037 E14.71517
G1 X136.199 Y116.337 E14.74203
G1 X135.537 Y116.685 E14.77934
G1 X134.841 Y116.96 E14.81668
G1 X134.158 Y117.151 E14.85206
G1 X133.653 Y117.265 E14.87789
G1 X133.317 Y117.333 E14.89499
G1 X132.739 Y117.434 E14.92427
G1 X131.996 Y117.523 E14.9616
G1 X131.248 Y117.532 E14.99892
G1 X130.503 Y117.462 E15.03625
G1 X129.999 Y117.359 E15.06192
G1 X129.466 Y117.465 E15.08903
G1 X128.721 Y117.532 E15.12635
G1 X127.973 Y117.52 E15.16367
G1 X127.305 Y117.44 E15.19724
G1 X126.794 Y117.354 E15.22309
G1 X126.419 Y117.28 E15.24216
G1 X125.846 Y117.151 E15.27146
G1 X125.126 Y116.948 E15.30878
G1 X124.431 Y116.669 E15.34614
G1 X123.771 Y116.318 E15.38344
G1 X123.359 Y116.039 E15.40826
G1 X122.825 Y115.933 E15.43542
G1 X122.111 Y115.71 E15.47274
G1 X121.425 Y115.412 E15.51006
G1 X120.819 Y115.071 E15.54475
G1 X120.381 Y114.795 E15.57058
G1 X120.096 Y114.606 E15.58764
G1 X119.615 Y114.269 E15.61694
G1 X119.027 Y113.808 E15.65422
G1 X118.49 Y113.286 E15.69158
G1 X118.013 Y112.71 E15.72889
G1 X117.725 Y112.276 E15.75488
G1 X117.273 Y111.974 E15.782
G1 X116.698 Y111.495 E15.81933
G1 X116.178 Y110.957 E15.85666
G1 X115.75 Y110.411 E15.89127
G1 X115.45 Y109.987 E15.91719
G1 X115.248 Y109.685 E15.93531
G1 X114.935 Y109.19 E15.96453
G1 X114.569 Y108.537 E16.00188
G1 X114.275 Y107.849 E16.03921
G1 X114.057 Y107.134 E16.0765
G1 X113.963 Y106.646 E16.10129
G1 X113.663 Y106.199 E16.12815
G1 X113.315 Y105.537 E16.16546
G1 X113.04 Y104.841 E16.2028
G1 X112.849 Y104.158 E16.23818
G1 X112.735 Y103.653 E16.26401
G1 X112.667 Y103.317 E16.28111
G1 X112.566 Y102.739 E16.31039
G1 X112.477 Y101.996 E16.34772
G1 X112.468 Y101.248 E16.38504
G1 X112.538 Y100.503 E16.42237
G1 X112.641 Y99.999 E16.44804
G1 X112.535 Y99.466 E16.47515
G1 X112.468 Y98.721 E16.51247
G1 X112.48 Y97.973 E16.54979
G1 X112.56 Y97.305 E16.58335
G1 X112.646 Y96.794 E16.60921
G1 X112.72 Y96.419 E16.62828
G1 X112.849 Y95.846 E16.65758
G1 X113.052 Y95.126 E16.6949
G1 X113.331 Y94.431 E16.73226
G1 X113.682 Y93.771 E16.76956
G1 X113.961 Y93.359 E16.79438
G1 X114.067 Y92.825 E16.82154
