;FLAVOR:Marlin
;TIME:4112
;Filament used: 0.517773m
;Layer height: 0.06
;MINX:97.928
;MINY:92.164
;MINZ:0.12
;MAXX:136.992
;MAXY:142.845
;MAXZ:15.96
;Generated with Cura_SteamEngine 4.8.0
M140 S60
M105
M190 S60
M104 S200
M105
M109 S200
M82 ;absolute extrusion mode
; Ender 3 Custom Start G-code
G92 E0 ; Reset Extruder
G28 ; Home all axes
G1 Z2.0 F3000 ; Move Z Axis up little to prevent scratching of Heat Bed
G1 X0.1 Y20 Z0.3 F5000.0 ; Move to start position
G1 X0.1 Y200.0 Z0.3 F1500.0 E15 ; Draw the first line
G1 X0.4 Y200.0 Z0.3 F5000.0 ; Move to side a little
G1 X0.4 Y20 Z0.3 F1500.0 E30 ; Draw the second line
G92 E0 ; Reset Extruder
G1 Z2.0 F3000 ; Move Z Axis up little to prevent scratching of Heat Bed
G1 X5 Y20 Z0.3 F5000.0 ; Move over to prevent blob squish
G92 E0
G92 E0
G1 F2700 E-5
;LAYER_COUNT:265
;LAYER:0
M107
G0 F6000 X103.871 Y102.711 Z0.12
;TYPE:SKIRT
G1 F2700 E0
G1 F1200 X104.084 Y102.498 E0.00601
G1 X104.418 Y102.172 E0.01533
G1 X105.116 Y101.546 E0.03404
G1 X105.601 Y101.17 E0.04628
G1 X106.057 Y100.836 E0.05756
G1 X106.476 Y100.539 E0.06781
G1 X107.078 Y100.145 E0.08217
G1 X108.07 Y99.541 E0.10535
G1 X108.269 Y99.422 E0.10997
G1 X108.662 Y99.196 E0.11902
G1 X109.402 Y98.782 E0.13594
G1 X109.835 Y98.557 E0.14568
G1 X110.338 Y98.309 E0.15687
G1 X112.713 Y97.101 E0.21005
G1 X114.873 Y95.923 E0.25915
G1 X117.186 Y94.576 E0.31256
G1 X117.762 Y94.229 E0.32598
G1 X118.586 Y93.78 E0.34471
G1 X119.445 Y93.403 E0.36343
G1 X120.333 Y93.101 E0.38214
G1 X120.896 Y92.952 E0.39377
G1 X121.529 Y92.803 E0.40674
G1 X122.295 Y92.633 E0.4224
G1 X123.425 Y92.394 E0.44545
G1 X124.35 Y92.239 E0.46417
G1 X125.285 Y92.164 E0.48289
G1 X126.223 Y92.168 E0.50161
G1 X127.157 Y92.253 E0.52032
G1 X128.08 Y92.416 E0.53903
G1 X128.986 Y92.658 E0.55774
G1 X129.869 Y92.976 E0.57647
G1 X130.721 Y93.368 E0.59519
G1 X131.536 Y93.831 E0.61389
G1 X132.309 Y94.362 E0.63261
G1 X133.034 Y94.957 E0.65132
G1 X133.706 Y95.612 E0.67005
G1 X134.32 Y96.321 E0.68877
G1 X134.871 Y97.08 E0.70748
G1 X135.355 Y97.883 E0.72619
G1 X135.769 Y98.725 E0.74492
G1 X136.179 Y99.807 E0.76801
G1 X136.35 Y100.342 E0.77922
G1 X136.432 Y100.611 E0.78483
G1 X136.53 Y100.947 E0.79181
G1 X136.703 Y101.618 E0.80564
G1 X136.873 Y102.54 E0.82435
G1 X136.977 Y103.771 E0.84901
G1 X136.988 Y104.169 E0.85695
G1 X136.992 Y104.532 E0.8642
G1 X136.99 Y104.904 E0.87162
G1 X136.97 Y105.509 E0.8837
G1 X136.914 Y106.166 E0.89686
G1 X136.802 Y107.131 E0.91625
G1 X136.535 Y109.754 E0.96886
G1 X136.355 Y112.214 E1.01808
G1 X136.24 Y114.77 E1.06914
G1 X136.199 Y117.259 E1.11882
G1 X136.228 Y119.782 E1.16917
G1 X136.329 Y122.302 E1.2195
G1 X136.499 Y124.783 E1.26913
G1 X136.74 Y127.276 E1.31911
G1 X136.897 Y128.667 E1.34705
G1 X136.954 Y129.375 E1.36122
G1 X136.974 Y129.798 E1.36967
G1 X136.985 Y130.203 E1.37776
G1 X136.989 Y130.587 E1.38542
G1 X136.984 Y131.053 E1.39472
G1 X136.977 Y131.272 E1.39909
G1 X136.907 Y132.208 E1.41783
G1 X136.758 Y133.134 E1.43654
G1 X136.592 Y133.828 E1.45078
G1 X136.532 Y134.047 E1.45531
G1 X136.421 Y134.426 E1.4632
G1 X136.2 Y135.132 E1.47796
G1 X135.882 Y136.014 E1.49667
G1 X135.49 Y136.866 E1.51539
G1 X135.026 Y137.682 E1.53412
G1 X134.495 Y138.455 E1.55283
G1 X133.9 Y139.18 E1.57155
G1 X133.246 Y139.852 E1.59026
G1 X132.536 Y140.465 E1.60898
G1 X131.777 Y141.016 E1.6277
G1 X130.974 Y141.5 E1.64641
G1 X130.133 Y141.914 E1.66512
G1 X129.259 Y142.255 E1.68384
G1 X128.359 Y142.52 E1.70256
G1 X127.44 Y142.708 E1.72128
G1 X126.509 Y142.816 E1.73998
G1 X125.571 Y142.845 E1.75871
G1 X124.635 Y142.794 E1.77742
G1 X123.306 Y142.582 E1.80428
G1 X122.034 Y142.298 E1.83028
G1 X121.13 Y142.105 E1.84873
G1 X120.222 Y141.87 E1.86745
G1 X119.338 Y141.559 E1.88615
G1 X118.483 Y141.173 E1.90487
G1 X117.825 Y140.813 E1.91984
G1 X115.445 Y139.405 E1.97502
G1 X113.203 Y138.164 E2.02616
G1 X110.954 Y137 E2.0767
G1 X110.109 Y136.588 E2.09546
G1 X109.6 Y136.323 E2.10691
G1 X108.433 Y135.676 E2.13354
G1 X108.208 Y135.548 E2.1387
G1 X107.888 Y135.36 E2.14611
G1 X107.276 Y134.993 E2.16035
G1 X106.507 Y134.487 E2.17872
G1 X105.736 Y133.932 E2.19768
G1 X104.998 Y133.352 E2.21641
G1 X104.514 Y132.91 E2.22949
G1 X103.963 Y132.377 E2.24479
G1 X103.536 Y131.941 E2.25697
G1 X103.326 Y131.714 E2.26314
G1 X102.852 Y131.167 E2.27758
G1 X102.439 Y130.657 E2.29068
G1 X102.262 Y130.432 E2.29639
G1 X101.925 Y129.993 E2.30744
G1 X101.548 Y129.471 E2.32029
G1 X101.012 Y128.681 E2.33934
G1 X100.815 Y128.38 E2.34652
G1 X100.568 Y127.989 E2.35575
G1 X100.102 Y127.175 E2.37446
G1 X99.69 Y126.286 E2.39402
G1 X99.426 Y125.642 E2.40791
G1 X99.32 Y125.375 E2.41364
G1 X99.099 Y124.793 E2.42606
G1 X98.886 Y124.176 E2.43909
G1 X98.595 Y123.251 E2.45844
G1 X98.437 Y122.71 E2.46969
G1 X98.213 Y121.799 E2.48841
G1 X98.04 Y120.613 E2.51233
G1 X98.02 Y120.391 E2.51678
G1 X97.998 Y120.096 E2.52268
G1 X97.983 Y119.858 E2.52744
G1 X97.97 Y119.604 E2.53251
G1 X97.941 Y118.877 E2.54703
G1 X97.933 Y118.582 E2.55292
G1 X97.928 Y118.103 E2.56248
G1 X97.932 Y116.52 E2.59407
G1 X97.935 Y116.288 E2.5987
G1 X97.943 Y115.95 E2.60545
G1 X97.958 Y115.59 E2.61264
G1 X97.975 Y115.295 E2.61854
G1 X98.019 Y114.641 E2.63162
G1 X98.122 Y113.708 E2.65035
G1 X98.395 Y112.438 E2.67627
G1 X98.517 Y112.004 E2.68527
G1 X98.636 Y111.608 E2.69352
G1 X98.709 Y111.375 E2.69839
G1 X98.927 Y110.704 E2.71247
G1 X99.024 Y110.419 E2.71848
G1 X99.099 Y110.208 E2.72295
G1 X99.203 Y109.928 E2.72891
G1 X99.414 Y109.386 E2.74052
G1 X99.664 Y108.773 E2.75373
G1 X100.055 Y107.921 E2.77244
G1 X100.536 Y107.075 E2.79186
G1 X100.935 Y106.44 E2.80682
G1 X101.115 Y106.162 E2.81343
G1 X101.364 Y105.791 E2.82235
G1 X101.751 Y105.251 E2.83561
G1 X102.329 Y104.493 E2.85463
G1 X102.575 Y104.182 E2.86254
G1 X103.007 Y103.656 E2.87613
G1 X103.612 Y102.978 E2.89426
G1 X103.871 Y102.711 E2.90168
G0 F6000 X104.159 Y102.99
G1 F1200 X104.363 Y102.784 E2.90747
G1 X104.697 Y102.458 E2.91678
G1 X105.383 Y101.845 E2.93514
G1 X105.837 Y101.493 E2.94661
G1 X106.464 Y101.036 E2.96209
G1 X106.706 Y100.866 E2.96799
G1 X107.286 Y100.486 E2.98183
G1 X108.278 Y99.882 E3.00501
G1 X108.725 Y99.62 E3.01535
G1 X109.452 Y99.211 E3.03199
G1 X109.64 Y99.108 E3.03627
G1 X110.012 Y98.916 E3.04463
G1 X110.547 Y98.653 E3.05652
G1 X112.864 Y97.473 E3.10841
G1 X115.101 Y96.253 E3.15926
G1 X117.302 Y94.971 E3.21009
G1 X117.968 Y94.571 E3.2256
G1 X118.777 Y94.132 E3.24396
G1 X119.621 Y93.764 E3.26234
G1 X120.494 Y93.471 E3.28071
G1 X120.988 Y93.341 E3.29091
G1 X121.615 Y93.194 E3.30376
G1 X122.378 Y93.024 E3.31936
G1 X123.508 Y92.785 E3.34241
G1 X124.416 Y92.634 E3.36078
G1 X125.334 Y92.562 E3.37915
G1 X126.254 Y92.57 E3.39751
G1 X127.171 Y92.658 E3.4159
G1 X128.076 Y92.825 E3.43426
G1 X128.963 Y93.071 E3.45263
G1 X129.826 Y93.392 E3.47101
G1 X130.658 Y93.786 E3.48938
G1 X131.452 Y94.252 E3.50775
G1 X132.203 Y94.785 E3.52613
G1 X132.905 Y95.38 E3.54449
G1 X133.553 Y96.035 E3.56288
G1 X134.141 Y96.743 E3.58125
G1 X134.666 Y97.499 E3.59961
G1 X135.123 Y98.299 E3.618
G1 X135.509 Y99.135 E3.63638
G1 X135.798 Y99.929 E3.65324
G1 X135.969 Y100.464 E3.66445
G1 X136.048 Y100.723 E3.66985
G1 X136.146 Y101.059 E3.67684
G1 X136.313 Y101.707 E3.69019
G1 X136.48 Y102.613 E3.70857
G1 X136.577 Y103.782 E3.73198
G1 X136.588 Y104.18 E3.73993
G1 X136.592 Y104.53 E3.74691
G1 X136.59 Y104.902 E3.75434
G1 X136.571 Y105.487 E3.76602
G1 X136.516 Y106.12 E3.7787
G1 X136.411 Y107.023 E3.79684
G1 X136.14 Y109.686 E3.85026
G1 X135.953 Y112.237 E3.9013
G1 X135.842 Y114.71 E3.9507
G1 X135.799 Y117.292 E4.00224
G1 X135.828 Y119.768 E4.05165
G1 X135.931 Y122.345 E4.10312
G1 X136.102 Y124.847 E4.15317
G1 X136.343 Y127.328 E4.20291
G1 X136.5 Y128.712 E4.23071
G1 X136.554 Y129.394 E4.24436
G1 X136.574 Y129.817 E4.25281
G1 X136.585 Y130.208 E4.26062
G1 X136.589 Y130.592 E4.26828
G1 X136.585 Y131.041 E4.27724
G1 X136.578 Y131.26 E4.28161
G1 X136.508 Y132.178 E4.29999
G1 X136.36 Y133.086 E4.31834
G1 X136.206 Y133.722 E4.3314
G1 X136.146 Y133.941 E4.33593
G1 X136.039 Y134.307 E4.34354
G1 X135.818 Y135.013 E4.35831
G1 X135.505 Y135.878 E4.37666
G1 X135.118 Y136.714 E4.39505
G1 X134.66 Y137.513 E4.41343
G1 X134.135 Y138.269 E4.4318
G1 X133.546 Y138.976 E4.45016
G1 X132.897 Y139.63 E4.46855
G1 X132.195 Y140.225 E4.48691
G1 X131.443 Y140.757 E4.50529
G1 X130.648 Y141.221 E4.52366
G1 X129.816 Y141.615 E4.54203
G1 X128.953 Y141.935 E4.5604
G1 X128.065 Y142.179 E4.57878
G1 X127.16 Y142.345 E4.59714
G1 X126.243 Y142.432 E4.61552
G1 X125.323 Y142.439 E4.63388
G1 X124.405 Y142.366 E4.65226
G1 X123.393 Y142.191 E4.67276
G1 X122.074 Y141.897 E4.69972
G1 X121.214 Y141.713 E4.71727
G1 X120.323 Y141.482 E4.73564
G1 X119.455 Y141.175 E4.75402
G1 X118.617 Y140.793 E4.7724
G1 X118.028 Y140.469 E4.78581
G1 X115.622 Y139.045 E4.8416
G1 X113.402 Y137.817 E4.89223
G1 X111.134 Y136.644 E4.94319
G1 X110.285 Y136.229 E4.96205
G1 X109.794 Y135.974 E4.97309
G1 X108.627 Y135.327 E4.99972
G1 X108.189 Y135.073 E5.00982
G1 X107.482 Y134.65 E5.02626
G1 X106.74 Y134.162 E5.04398
G1 X105.969 Y133.607 E5.06294
G1 X105.246 Y133.037 E5.08132
G1 X104.792 Y132.623 E5.09358
G1 X104.241 Y132.09 E5.10888
G1 X103.83 Y131.669 E5.12062
G1 X103.62 Y131.442 E5.12679
G1 X103.163 Y130.915 E5.14071
G1 X102.75 Y130.405 E5.1538
G1 X102.58 Y130.189 E5.15929
G1 X102.243 Y129.75 E5.17033
G1 X101.879 Y129.246 E5.18274
G1 X101.343 Y128.456 E5.20179
G1 X101.153 Y128.166 E5.20871
G1 X100.906 Y127.775 E5.21794
G1 X100.449 Y126.976 E5.23631
G1 X100.06 Y126.135 E5.2548
G1 X99.796 Y125.491 E5.26869
G1 X99.694 Y125.233 E5.27423
G1 X99.473 Y124.651 E5.28665
G1 X99.268 Y124.057 E5.29919
G1 X99.139 Y123.646 E5.30779
G1 X99.08 Y123.465 E5.31159
G1 X98.979 Y123.139 E5.3184
G1 X98.821 Y122.598 E5.32964
G1 X98.602 Y121.704 E5.34801
G1 X98.439 Y120.577 E5.37074
G1 X98.419 Y120.355 E5.37519
G1 X98.397 Y120.071 E5.38087
G1 X98.369 Y119.588 E5.39052
G1 X98.34 Y118.861 E5.40504
G1 X98.333 Y118.577 E5.41071
G1 X98.328 Y118.104 E5.42015
G1 X98.332 Y116.521 E5.45174
G1 X98.343 Y115.959 E5.46296
G1 X98.357 Y115.612 E5.46989
G1 X98.374 Y115.321 E5.47571
G1 X98.418 Y114.667 E5.48879
G1 X98.52 Y113.752 E5.50716
G1 X98.78 Y112.544 E5.53182
G1 X98.9 Y112.119 E5.54063
G1 X99.019 Y111.723 E5.54889
G1 X99.308 Y110.828 E5.56765
G1 X99.401 Y110.553 E5.57345
G1 X99.476 Y110.342 E5.57792
G1 X99.576 Y110.072 E5.58366
G1 X99.785 Y109.537 E5.59513
G1 X100.035 Y108.924 E5.60834
G1 X100.419 Y108.088 E5.6267
G1 X100.875 Y107.287 E5.64509
G1 X101.274 Y106.652 E5.66006
G1 X101.448 Y106.385 E5.66641
G1 X101.697 Y106.014 E5.67533
G1 X102.069 Y105.494 E5.68809
G1 X102.647 Y104.736 E5.70711
G1 X102.885 Y104.435 E5.71477
G1 X103.317 Y103.909 E5.72835
G1 X103.9 Y103.257 E5.74581
G1 X104.159 Y102.99 E5.75323
G0 F6000 X104.446 Y103.268
G1 F1200 X104.642 Y103.071 E5.75878
G1 X104.976 Y102.745 E5.76809
G1 X105.65 Y102.143 E5.78613
G1 X106.074 Y101.815 E5.79682
G1 X106.53 Y101.481 E5.8081
G1 X106.936 Y101.194 E5.81803
G1 X107.494 Y100.828 E5.83134
G1 X108.486 Y100.224 E5.85452
G1 X108.926 Y99.966 E5.8647
G1 X109.783 Y99.485 E5.88431
G1 X110.188 Y99.275 E5.89342
G1 X110.697 Y99.025 E5.90473
G1 X113.073 Y97.815 E5.95794
G1 X115.273 Y96.615 E6.00795
G1 X117.557 Y95.285 E6.0607
G1 X118.174 Y94.914 E6.07506
G1 X118.968 Y94.484 E6.09308
G1 X119.797 Y94.125 E6.11111
G1 X121.08 Y93.73 E6.1379
G1 X121.702 Y93.584 E6.15065
G1 X122.46 Y93.416 E6.16614
G1 X123.59 Y93.177 E6.18919
G1 X124.481 Y93.029 E6.20722
G1 X125.382 Y92.961 E6.22525
G1 X126.285 Y92.973 E6.24327
G1 X127.183 Y93.064 E6.26128
G1 X128.07 Y93.235 E6.27931
G1 X128.938 Y93.483 E6.29733
G1 X129.781 Y93.808 E6.31536
G1 X130.592 Y94.205 E6.33338
G1 X131.365 Y94.673 E6.35141
G1 X132.093 Y95.207 E6.36943
G1 X132.771 Y95.804 E6.38745
G1 X133.394 Y96.458 E6.40548
G1 X133.956 Y97.165 E6.4235
G1 X134.453 Y97.918 E6.44151
G1 X134.882 Y98.713 E6.45954
G1 X135.239 Y99.542 E6.47755
G1 X135.417 Y100.051 E6.48831
G1 X135.588 Y100.586 E6.49952
G1 X135.664 Y100.835 E6.50471
G1 X135.762 Y101.171 E6.5117
G1 X135.923 Y101.797 E6.5246
G1 X136.086 Y102.685 E6.54261
G1 X136.177 Y103.793 E6.5648
G1 X136.188 Y104.191 E6.57274
G1 X136.192 Y104.528 E6.57947
G1 X136.19 Y104.9 E6.58689
G1 X136.171 Y105.465 E6.59818
G1 X136.119 Y106.074 E6.61037
G1 X136.008 Y107.031 E6.6296
G1 X135.742 Y109.649 E6.68211
G1 X135.555 Y112.191 E6.73298
G1 X135.442 Y114.721 E6.78352
G1 X135.399 Y117.29 E6.83479
G1 X135.428 Y119.789 E6.88467
G1 X135.531 Y122.354 E6.93589
G1 X135.703 Y124.878 E6.98638
G1 X135.946 Y127.379 E7.03653
G1 X136.102 Y128.757 E7.0642
G1 X136.155 Y129.413 E7.07733
G1 X136.175 Y129.836 E7.08579
G1 X136.185 Y130.212 E7.09329
G1 X136.189 Y130.596 E7.10095
G1 X136.185 Y131.028 E7.10958
G1 X136.178 Y131.247 E7.11395
G1 X136.109 Y132.147 E7.13196
G1 X135.961 Y133.038 E7.14999
G1 X135.82 Y133.616 E7.16186
G1 X135.76 Y133.835 E7.16639
G1 X135.657 Y134.187 E7.17371
G1 X135.436 Y134.893 E7.18847
G1 X135.129 Y135.742 E7.20649
G1 X134.747 Y136.561 E7.22452
G1 X134.294 Y137.342 E7.24254
G1 X133.775 Y138.081 E7.26056
G1 X133.192 Y138.77 E7.27857
G1 X132.55 Y139.406 E7.29661
G1 X131.854 Y139.982 E7.31464
G1 X131.11 Y140.494 E7.33266
G1 X130.324 Y140.939 E7.35069
G1 X129.502 Y141.312 E7.3687
G1 X128.65 Y141.611 E7.38672
G1 X127.774 Y141.833 E7.40475
G1 X126.883 Y141.977 E7.42276
G1 X125.982 Y142.042 E7.44079
G1 X125.079 Y142.027 E7.45881
G1 X124.181 Y141.932 E7.47683
G1 X123.48 Y141.801 E7.49107
G1 X122.146 Y141.503 E7.51834
G1 X121.297 Y141.322 E7.53567
G1 X120.423 Y141.095 E7.55369
G1 X119.573 Y140.791 E7.5717
G1 X118.753 Y140.413 E7.58972
G1 X118.232 Y140.125 E7.6016
G1 X115.828 Y138.702 E7.65735
G1 X113.6 Y137.469 E7.70817
G1 X111.314 Y136.287 E7.75952
G1 X110.46 Y135.87 E7.77849
G1 X109.988 Y135.624 E7.78911
G1 X108.821 Y134.977 E7.81574
G1 X108.391 Y134.728 E7.82566
G1 X107.687 Y134.307 E7.84203
G1 X106.974 Y133.837 E7.85907
G1 X106.203 Y133.282 E7.87803
G1 X105.494 Y132.723 E7.89604
G1 X105.07 Y132.335 E7.90751
G1 X104.519 Y131.802 E7.92281
G1 X104.124 Y131.398 E7.93409
G1 X103.914 Y131.171 E7.94026
G1 X103.474 Y130.663 E7.95367
G1 X103.061 Y130.153 E7.96677
G1 X102.897 Y129.945 E7.97205
G1 X102.56 Y129.506 E7.9831
G1 X102.21 Y129.022 E7.99502
G1 X101.674 Y128.232 E8.01407
G1 X101.492 Y127.953 E8.02071
G1 X101.245 Y127.562 E8.02994
G1 X100.796 Y126.777 E8.04799
G1 X100.43 Y125.983 E8.06544
G1 X100.166 Y125.339 E8.07933
G1 X100.068 Y125.091 E8.08465
G1 X99.847 Y124.509 E8.09707
G1 X99.649 Y123.937 E8.10915
G1 X99.363 Y123.026 E8.12821
G1 X99.205 Y122.485 E8.13945
G1 X98.99 Y121.608 E8.15747
G1 X98.837 Y120.541 E8.17899
G1 X98.817 Y120.319 E8.18343
G1 X98.796 Y120.046 E8.1889
G1 X98.769 Y119.573 E8.19835
G1 X98.74 Y118.846 E8.21287
G1 X98.733 Y118.571 E8.21836
G1 X98.728 Y118.105 E8.22766
G1 X98.732 Y116.522 E8.25925
G1 X98.743 Y115.969 E8.27029
G1 X98.756 Y115.635 E8.27696
G1 X98.773 Y115.348 E8.2827
G1 X98.817 Y114.694 E8.29578
G1 X98.917 Y113.797 E8.31379
G1 X99.165 Y112.651 E8.33719
G1 X99.284 Y112.235 E8.34582
G1 X99.47 Y111.622 E8.35861
G1 X99.688 Y110.951 E8.37269
G1 X99.778 Y110.687 E8.37825
G1 X99.853 Y110.476 E8.38272
G1 X99.949 Y110.216 E8.38825
G1 X100.155 Y109.688 E8.39956
G1 X100.405 Y109.075 E8.41277
G1 X100.783 Y108.255 E8.43079
G1 X101.213 Y107.5 E8.44813
G1 X101.612 Y106.865 E8.4631
G1 X101.78 Y106.608 E8.46923
G1 X102.029 Y106.237 E8.47814
G1 X102.387 Y105.736 E8.49043
G1 X102.965 Y104.978 E8.50945
G1 X103.194 Y104.689 E8.51681
G1 X103.626 Y104.163 E8.5304
G1 X104.187 Y103.535 E8.5472
G1 X104.446 Y103.268 E8.55462
G1 F2700 E3.55462
;MESH:noseclipV.2_upsidedown.stl
G0 F6000 X122.177 Y105.607
G0 X122.947 Y106.475
G0 X123.939 Y105.482
;TYPE:WALL-INNER
G1 F2700 E8.55462
G1 F1200 X124.036 Y105.138 E8.56176
G1 X124.037 Y105.137 E8.56178
G1 X124.212 Y104.527 E8.57445
G1 X124.577 Y104.467 E8.58183
G1 X124.902 Y104.384 E8.58852
G1 X124.996 Y104.359 E8.59047
G1 X125.001 Y104.765 E8.59634
G1 X124.882 Y105.207 E8.60547
G1 X124.877 Y105.214 E8.60565
G1 X124.284 Y105.384 E8.61796
G1 X124.283 Y105.385 E8.61799
G1 X123.939 Y105.482 E8.62201
G0 F6000 X123.355 Y106.066
G1 F1200 X123.452 Y105.722 E8.62914
G1 X123.453 Y105.721 E8.62917
G1 X123.897 Y104.174 E8.66129
G1 X124.494 Y104.075 E8.67336
