;FLAVOR:Marlin
;TIME:4571
;Filament used: 6.35718m
;Layer height: 0.28
;MINX:57
;MINY:58.5
;MINZ:0.28
;MAXX:178
;MAXY:179.5
;MAXZ:2.8
;Generated with Cura_SteamEngine 4.7.1
M140 S50
M105
M190 S50
M104 S200
M105
M109 S200
M82 ;absolute extrusion mode
; Ender 3 Custom Start G-code
G92 E0 ; Reset Extruder
G28 ; Home all axes
G1 Z2.0 F3000 ; Move Z Axis up little to prevent scratching of Heat Bed
G1 X0.1 Y20 Z0.3 F5000.0 ; Move to start position
G1 X0.1 Y200.0 Z0.3 F1500.0 E15 ; Draw the first line
G1 X0.4 Y200.0 Z0.3 F5000.0 ; Move to side a little
G1 X0.4 Y20 Z0.3 F1500.0 E30 ; Draw the second line
G92 E0 ; Reset Extruder
G1 Z2.0 F3000 ; Move Z Axis up little to prevent scratching of Heat Bed
G1 X5 Y20 Z0.3 F5000.0 ; Move over to prevent blob squish
G92 E0
G92 E0
G1 F2700 E-5
;LAYER_COUNT:10
;LAYER:0
M107
G0 F6000 X94.74 Y62.203 Z0.28
;TYPE:SKIRT
G1 F2700 E0
G1 F1200 X94.871 Y62.074 E0.00856
G1 X95.358 Y61.603 E0.04011
G1 X96.059 Y60.98 E0.08378
G1 X96.811 Y60.42 E0.12744
G1 X97.608 Y59.925 E0.17112
G1 X98.444 Y59.5 E0.21479
G1 X99.313 Y59.148 E0.25845
G1 X100.209 Y58.871 E0.30212
G1 X101.126 Y58.672 E0.34581
G1 X102.056 Y58.551 E0.38948
G1 X102.634 Y58.516 E0.41645
G1 X102.782 Y58.511 E0.42334
G1 X103.019 Y58.506 E0.43438
G1 X103.562 Y58.5 E0.45967
G1 X131.45 Y58.501 E1.75825
G1 X132.152 Y58.511 E1.79094
G1 X133.088 Y58.564 E1.83459
G1 X134.016 Y58.697 E1.87825
G1 X134.93 Y58.909 E1.92194
G1 X135.823 Y59.197 E1.96563
G1 X136.687 Y59.561 E2.00928
G1 X137.518 Y59.997 E2.05298
G1 X138.308 Y60.502 E2.09664
G1 X139.052 Y61.072 E2.14028
G1 X139.476 Y61.445 E2.16658
G1 X139.628 Y61.586 E2.17623
G1 X139.829 Y61.777 E2.18914
G1 X139.993 Y61.937 E2.19981
G1 X174.297 Y96.24 E4.45876
G1 X174.871 Y96.83 E4.49708
G1 X175.495 Y97.53 E4.54075
G1 X176.057 Y98.281 E4.58443
G1 X176.553 Y99.077 E4.6281
G1 X176.979 Y99.912 E4.67175
G1 X177.333 Y100.781 E4.71544
G1 X177.611 Y101.677 E4.75913
G1 X177.812 Y102.593 E4.80279
G1 X177.911 Y103.283 E4.83525
G1 X177.929 Y103.446 E4.84289
G1 X177.994 Y104.519 E4.89294
G1 X178 Y105.062 E4.91823
G1 X177.999 Y132.95 E6.21681
G1 X177.989 Y133.652 E6.2495
G1 X177.936 Y134.588 E6.29316
G1 X177.803 Y135.516 E6.33681
G1 X177.591 Y136.43 E6.3805
G1 X177.303 Y137.323 E6.42419
G1 X176.939 Y138.187 E6.46784
G1 X176.503 Y139.018 E6.51154
G1 X175.998 Y139.808 E6.5552
G1 X175.428 Y140.552 E6.59884
G1 X175.055 Y140.976 E6.62514
G1 X174.914 Y141.128 E6.63479
G1 X174.712 Y141.34 E6.64843
G1 X174.531 Y141.525 E6.66048
G1 X140.267 Y175.789 E8.91682
G1 X139.652 Y176.387 E8.95677
G1 X138.952 Y177.011 E9.00043
G1 X138.201 Y177.572 E9.04408
G1 X137.404 Y178.068 E9.08779
G1 X136.569 Y178.494 E9.13144
G1 X135.7 Y178.847 E9.17512
G1 X134.804 Y179.125 E9.2188
G1 X133.888 Y179.326 E9.26247
G1 X132.958 Y179.448 E9.30614
G1 X132.366 Y179.484 E9.33376
G1 X132.218 Y179.489 E9.34066
G1 X131.981 Y179.494 E9.35169
G1 X131.438 Y179.5 E9.37698
G1 X103.55 Y179.499 E10.67556
G1 X102.848 Y179.489 E10.70825
G1 X101.912 Y179.436 E10.75191
G1 X100.984 Y179.303 E10.79556
G1 X100.07 Y179.091 E10.83925
G1 X99.177 Y178.803 E10.88294
G1 X98.313 Y178.439 E10.9266
G1 X97.482 Y178.003 E10.97029
G1 X96.692 Y177.498 E11.01395
G1 X95.948 Y176.928 E11.0576
G1 X95.524 Y176.555 E11.08389
G1 X95.372 Y176.414 E11.09355
G1 X95.156 Y176.207 E11.10748
G1 X94.88 Y175.936 E11.12549
G1 X60.597 Y141.653 E13.38308
G1 X60.127 Y141.17 E13.41446
G1 X59.503 Y140.471 E13.45809
G1 X58.94 Y139.721 E13.50176
G1 X58.443 Y138.925 E13.54546
G1 X58.015 Y138.091 E13.58911
G1 X57.66 Y137.223 E13.63278
G1 X57.381 Y136.327 E13.67647
G1 X57.179 Y135.411 E13.72015
G1 X57.055 Y134.482 E13.76379
G1 X57.02 Y133.933 E13.78941
G1 X57.014 Y133.781 E13.79649
G1 X57.006 Y133.481 E13.81047
G1 X57 Y132.938 E13.83575
G1 X57.001 Y105.05 E15.13433
G1 X57.011 Y104.348 E15.16702
G1 X57.064 Y103.412 E15.21068
G1 X57.197 Y102.484 E15.25433
G1 X57.409 Y101.57 E15.29802
G1 X57.697 Y100.677 E15.34171
G1 X58.061 Y99.813 E15.38537
G1 X58.497 Y98.982 E15.42907
G1 X59.002 Y98.192 E15.47272
G1 X59.572 Y97.448 E15.51637
G1 X59.945 Y97.024 E15.54266
G1 X60.086 Y96.872 E15.55232
G1 X60.288 Y96.66 E15.56595
G1 X60.554 Y96.39 E15.5836
G1 X94.74 Y62.203 E17.83484
G0 F6000 X95.023 Y62.486
G1 F1200 X95.149 Y62.362 E17.84307
G1 X95.636 Y61.891 E17.87462
G1 X96.325 Y61.28 E17.9175
G1 X97.064 Y60.731 E17.96037
G1 X97.848 Y60.249 E18.00322
G1 X98.671 Y59.836 E18.0461
G1 X99.527 Y59.497 E18.08897
G1 X100.409 Y59.233 E18.13184
G1 X101.311 Y59.046 E18.17473
G1 X102.647 Y58.916 E18.23724
G1 X102.795 Y58.911 E18.24413
G1 X103.023 Y58.906 E18.25475
G1 X103.562 Y58.9 E18.27985
G1 X131.293 Y58.9 E19.57112
G1 X132.146 Y58.911 E19.61084
G1 X133.065 Y58.964 E19.65371
G1 X133.976 Y59.097 E19.69658
G1 X134.872 Y59.308 E19.73944
G1 X135.747 Y59.596 E19.78233
G1 X136.593 Y59.959 E19.8252
G1 X137.404 Y60.394 E19.86805
G1 X138.175 Y60.898 E19.91095
G1 X139.204 Y61.739 E19.97283
G1 X139.356 Y61.88 E19.98248
G1 X139.549 Y62.064 E19.9949
G1 X139.806 Y62.316 E20.01166
G1 X174.126 Y96.636 E22.27169
G1 X174.584 Y97.108 E22.30231
G1 X175.196 Y97.796 E22.34519
G1 X175.746 Y98.535 E22.38808
G1 X176.23 Y99.318 E22.43095
G1 X176.644 Y100.14 E22.4738
G1 X176.984 Y100.996 E22.51669
G1 X177.25 Y101.877 E22.55954
G1 X177.438 Y102.778 E22.6024
G1 X177.513 Y103.327 E22.6282
G1 X177.531 Y103.49 E22.63584
G1 X177.594 Y104.523 E22.68403
G1 X177.6 Y105.062 E22.70913
G1 X177.599 Y132.944 E24.00743
G1 X177.589 Y133.646 E24.04012
G1 X177.536 Y134.565 E24.08299
G1 X177.403 Y135.476 E24.12586
G1 X177.192 Y136.372 E24.16872
G1 X176.904 Y137.247 E24.21161
G1 X176.541 Y138.093 E24.25448
G1 X176.106 Y138.904 E24.29733
G1 X175.602 Y139.675 E24.34022
G1 X174.761 Y140.704 E24.40211
G1 X174.62 Y140.856 E24.41176
G1 X174.426 Y141.06 E24.42487
G1 X174.245 Y141.245 E24.43692
G1 X139.868 Y175.621 E26.70067
G1 X139.374 Y176.1 E26.73271
G1 X138.686 Y176.712 E26.77559
G1 X137.947 Y177.261 E26.81846
G1 X137.164 Y177.745 E26.86132
G1 X136.341 Y178.158 E26.9042
G1 X135.486 Y178.499 E26.94706
G1 X134.604 Y178.764 E26.98994
G1 X133.703 Y178.952 E27.0328
G1 X132.353 Y179.084 E27.09596
G1 X132.205 Y179.089 E27.10286
G1 X131.977 Y179.094 E27.11347
G1 X131.438 Y179.1 E27.13857
G1 X103.556 Y179.099 E28.43688
G1 X102.854 Y179.089 E28.46957
G1 X101.935 Y179.036 E28.51243
G1 X101.024 Y178.903 E28.5553
G1 X100.128 Y178.692 E28.59816
G1 X99.253 Y178.404 E28.64106
G1 X98.407 Y178.041 E28.68392
G1 X97.596 Y177.606 E28.72678
G1 X96.825 Y177.102 E28.76967
G1 X95.796 Y176.261 E28.83155
G1 X95.644 Y176.12 E28.8412
G1 X95.436 Y175.922 E28.85458
G1 X95.163 Y175.653 E28.87242
G1 X60.884 Y141.374 E31.12975
G1 X60.414 Y140.891 E31.16113
G1 X59.801 Y140.204 E31.20401
G1 X59.25 Y139.467 E31.24686
G1 X58.766 Y138.684 E31.28972
G1 X58.351 Y137.862 E31.3326
G1 X58.008 Y137.007 E31.37549
G1 X57.742 Y136.126 E31.41835
G1 X57.553 Y135.225 E31.46121
G1 X57.419 Y133.917 E31.52244
G1 X57.413 Y133.765 E31.52952
G1 X57.406 Y133.477 E31.54293
G1 X57.4 Y132.938 E31.56803
G1 X57.401 Y105.056 E32.86634
G1 X57.411 Y104.354 E32.89903
G1 X57.464 Y103.435 E32.94189
G1 X57.597 Y102.524 E32.98476
G1 X57.808 Y101.628 E33.02762
G1 X58.096 Y100.753 E33.07052
G1 X58.459 Y99.907 E33.11339
G1 X58.894 Y99.096 E33.15624
G1 X59.398 Y98.325 E33.19913
G1 X60.239 Y97.296 E33.26101
G1 X60.38 Y97.144 E33.27066
G1 X60.574 Y96.94 E33.28377
G1 X60.837 Y96.673 E33.30122
G1 X95.023 Y62.486 E35.55246
G0 F6000 X95.305 Y62.769
G1 F1200 X95.427 Y62.649 E35.56043
G1 X95.914 Y62.178 E35.59198
G1 X96.59 Y61.58 E35.63401
G1 X97.317 Y61.043 E35.67609
G1 X98.088 Y60.573 E35.71814
G1 X98.898 Y60.173 E35.7602
G1 X99.74 Y59.847 E35.80225
G1 X100.607 Y59.596 E35.84427
G1 X101.494 Y59.423 E35.88636
G1 X102.661 Y59.316 E35.94092
G1 X103.028 Y59.306 E35.95802
G1 X103.562 Y59.3 E35.98289
G1 X131.293 Y59.3 E37.27416
G1 X132.14 Y59.311 E37.3136
G1 X133.042 Y59.364 E37.35567
G1 X133.935 Y59.496 E37.39771
G1 X134.813 Y59.707 E37.43976
G1 X135.669 Y59.995 E37.48181
G1 X136.497 Y60.357 E37.52389
G1 X137.289 Y60.791 E37.56594
G1 X138.039 Y61.294 E37.60799
G1 X138.932 Y62.032 E37.66194
G1 X139.084 Y62.173 E37.67159
G1 X139.27 Y62.35 E37.68355
G1 X139.523 Y62.598 E37.70004
G1 X173.731 Y96.805 E39.95266
G1 X174.297 Y97.387 E39.99047
G1 X174.897 Y98.062 E40.03252
G1 X175.434 Y98.788 E40.07457
G1 X175.906 Y99.558 E40.11662
G1 X176.307 Y100.367 E40.15867
G1 X176.635 Y101.209 E40.20074
G1 X176.887 Y102.076 E40.24279
G1 X177.115 Y103.37 E40.30397
G1 X177.133 Y103.533 E40.3116
G1 X177.194 Y104.528 E40.35802
G1 X177.2 Y105.062 E40.38289
G1 X177.199 Y132.938 E41.68091
G1 X177.189 Y133.64 E41.7136
G1 X177.136 Y134.542 E41.75568
G1 X177.004 Y135.435 E41.79771
G1 X176.793 Y136.313 E41.83976
G1 X176.505 Y137.169 E41.88181
G1 X176.143 Y137.997 E41.92389
G1 X175.709 Y138.789 E41.96594
G1 X175.206 Y139.539 E42.00799
G1 X174.468 Y140.432 E42.06194
G1 X174.327 Y140.584 E42.07159
G1 X174.14 Y140.78 E42.08421
G1 X173.959 Y140.965 E42.09626
G1 X139.589 Y175.334 E44.35955
G1 X139.095 Y175.813 E44.39159
G1 X138.42 Y176.412 E44.43361
G1 X137.694 Y176.949 E44.47566
G1 X136.923 Y177.42 E44.51773
G1 X136.114 Y177.821 E44.55977
G1 X135.273 Y178.149 E44.60181
G1 X134.405 Y178.401 E44.64389
G1 X133.519 Y178.575 E44.68594
G1 X132.339 Y178.684 E44.74112
G1 X131.972 Y178.694 E44.75821
G1 X131.438 Y178.7 E44.78308
G1 X103.562 Y178.699 E46.0811
G1 X102.86 Y178.689 E46.11379
G1 X101.958 Y178.636 E46.15587
G1 X101.065 Y178.504 E46.1979
G1 X100.187 Y178.293 E46.23995
G1 X99.331 Y178.005 E46.282
G1 X98.503 Y177.643 E46.32408
G1 X97.711 Y177.209 E46.36613
G1 X96.961 Y176.706 E46.40818
G1 X96.068 Y175.968 E46.46213
G1 X95.916 Y175.827 E46.47178
G1 X95.716 Y175.636 E46.48466
G1 X95.446 Y175.371 E46.50228
G1 X61.269 Y141.195 E48.75286
G1 X60.701 Y140.612 E48.79076
G1 X60.1 Y139.938 E48.83281
G1 X59.562 Y139.213 E48.87485
G1 X59.089 Y138.443 E48.91693
G1 X58.687 Y137.635 E48.95895
G1 X58.358 Y136.794 E49.001
G1 X58.104 Y135.927 E49.04307
G1 X57.928 Y135.041 E49.08513
G1 X57.819 Y133.901 E49.13845
G1 X57.813 Y133.749 E49.14554
G1 X57.806 Y133.472 E49.15844
G1 X57.8 Y132.938 E49.18331
G1 X57.801 Y105.062 E50.48133
G1 X57.811 Y104.36 E50.51402
G1 X57.864 Y103.458 E50.55609
G1 X57.996 Y102.565 E50.59813
G1 X58.207 Y101.687 E50.64018
G1 X58.495 Y100.831 E50.68223
G1 X58.857 Y100.003 E50.72431
G1 X59.291 Y99.211 E50.76636
G1 X59.794 Y98.461 E50.80841
G1 X60.532 Y97.568 E50.86236
G1 X60.673 Y97.416 E50.87201
G1 X60.86 Y97.22 E50.88462
G1 X61.119 Y96.956 E50.90184
G1 X95.305 Y62.769 E53.15308
G1 F2700 E48.15308
;MESH:Corps1.stl
G0 F6000 X103.665 Y125.762
G0 X102.23 Y125.762
G0 X102.4 Y134.1
;TYPE:WALL-INNER
G1 F2700 E53.15308
G1 F1200 X132.6 Y134.1 E54.55932
G1 X132.6 Y103.9 E55.96556
G1 X102.4 Y103.9 E57.3718
G1 X102.4 Y134.1 E58.77804
G0 F6000 X102.8 Y133.7
;TYPE:WALL-OUTER
G1 F1200 X132.2 Y133.7 E60.14703
G1 X132.2 Y104.3 E61.51601
G1 X102.8 Y104.3 E62.885
G1 X102.8 Y133.7 E64.25399
G1 F2700 E59.25399
G0 F6000 X102.5 Y133.7
G0 X102.564 Y133.905
G0 X131.752 Y134.29
G0 X131.347 Y132.847
G0 X149.451 Y151.989
G0 X148.409 Y150.947
G0 X131.752 Y167.9
;TYPE:WALL-INNER
G1 F2700 E64.25399
G1 F1200 X103.248 Y167.9 E65.58125
G1 X68.6 Y133.252 E67.86288
G1 X68.6 Y104.748 E69.19015
G1 X103.248 Y70.1 E71.47178
G1 X131.752 Y70.1 E72.79904
G1 X166.4 Y104.748 E75.08067
G1 X166.4 Y133.252 E76.40794
G1 X131.752 Y167.9 E78.68957
G0 F6000 X131.918 Y168.3
;TYPE:WALL-OUTER
G1 F1200 X103.082 Y168.3 E80.03229
G1 X68.2 Y133.418 E82.32933
G1 X68.2 Y104.582 E83.67206
G1 X103.082 Y69.7 E85.9691
G1 X131.918 Y69.7 E87.31182
G1 X166.8 Y104.582 E89.60886
G1 X166.8 Y133.418 E90.95159
G1 X131.918 Y168.3 E93.24863
G0 F6000 X131.75 Y167.894
G0 X131.592 Y167.51
;TYPE:SKIN
G1 F1200 X103.408 Y167.51 E94.56099
G1 X68.99 Y133.092 E96.82748
G1 X68.99 Y104.908 E98.13984
G1 X103.408 Y70.49 E100.40632
G1 X131.592 Y70.49 E101.71869
G1 X166.01 Y104.908 E103.98517
G1 X166.01 Y133.092 E105.29754
G1 X131.592 Y167.51 E107.56402
G1 F2700 E102.56402
G0 F6000 X131.789 Y167.707
G0 X148.913 Y150.443
G0 X149.955 Y151.485
G0 X130.673 Y132.835
G0 X130.673 Y134.27
G0 X132.71 Y134.24
G0 X132.99 Y134.49
G1 F2700 E107.56402
G1 F1200 X132.99 Y103.51 E109.00658
G1 X102.01 Y103.51 E110.44914
G1 X102.01 Y134.49 E111.8917
G1 X132.99 Y134.49 E113.33426
G1 F2700 E108.33426
G0 F6000 X132.71 Y134.24
G0 X132.79 Y105.32
G0 X131.347 Y105.153
G0 X150.775 Y87.335
G0 X149.733 Y88.377
G0 X151.377 Y90.017
G0 X166.226 Y104.819
G0 X166.29 Y105.32
G0 X165.849 Y105.32
G1 F2700 E113.33426
G1 F1200 X131.178 Y70.649 E115.6174
G0 F6000 X130.612 Y70.649
G1 F1200 X165.849 Y105.886 E117.93782
G0 F6000 X165.849 Y106.452
G1 F1200 X130.046 Y70.649 E120.29551
G0 F6000 X129.481 Y70.649
G1 F1200 X165.849 Y107.017 E122.6904
G0 F6000 X165.849 Y107.583
G1 F1200 X128.915 Y70.649 E125.12257
G0 F6000 X128.349 Y70.649
G1 F1200 X165.849 Y108.149 E127.59201
G0 F6000 X165.849 Y108.714
G1 F1200 X127.784 Y70.649 E130.09865
G0 F6000 X127.218 Y70.649
G1 F1200 X165.849 Y109.28 E132.64257
G0 F6000 X165.849 Y109.846
G1 F1200 X126.652 Y70.649 E135.22376
G0 F6000 X126.087 Y70.649
G1 F1200 X165.849 Y110.411 E137.84216
G0 F6000 X165.849 Y110.977
G1 F1200 X125.521 Y70.649 E140.49782
G0 F6000 X124.955 Y70.649
G1 F1200 X165.849 Y111.543 E143.19076
G0 F6000 X165.849 Y112.108
G1 F1200 X124.389 Y70.649 E145.92094
G0 F6000 X123.824 Y70.649
G1 F1200 X165.849 Y112.674 E148.68836
G0 F6000 X165.849 Y113.24
G1 F1200 X123.258 Y70.649 E151.49305
G0 F6000 X122.692 Y70.649
G1 F1200 X165.849 Y113.806 E154.33501
G0 F6000 X165.849 Y114.371
G1 F1200 X122.127 Y70.649 E157.21418
G0 F6000 X121.561 Y70.649
G1 F1200 X165.849 Y114.937 E160.13062
G0 F6000 X165.849 Y115.503
G1 F1200 X120.995 Y70.649 E163.08433
G0 F6000 X120.43 Y70.649
G1 F1200 X165.849 Y116.068 E166.07525
G0 F6000 X165.849 Y116.634
G1 F1200 X119.864 Y70.649 E169.10344
G0 F6000 X119.298 Y70.649
G1 F1200 X165.849 Y117.2 E172.16891
G0 F6000 X165.849 Y117.765
G1 F1200 X118.733 Y70.649 E175.27158
G0 F6000 X118.167 Y70.649
G1 F1200 X165.849 Y118.331 E178.41152
G0 F6000 X165.849 Y118.897
G1 F1200 X117.601 Y70.649 E181.58873
G0 F6000 X117.036 Y70.649
G1 F1200 X165.849 Y119.462 E184.80315
G0 F6000 X165.849 Y120.028
G1 F1200 X116.47 Y70.649 E188.05484
G0 F6000 X115.904 Y70.649
G1 F1200 X165.849 Y120.594 E191.3438
G0 F6000 X165.849 Y121.159
G1 F1200 X115.339 Y70.649 E194.66997
G0 F6000 X114.773 Y70.649
G1 F1200 X165.849 Y121.725 E198.03342
G0 F6000 X165.849 Y122.291
G1 F1200 X114.207 Y70.649 E201.43413
G0 F6000 X113.641 Y70.649
G1 F1200 X165.849 Y122.856 E204.87208
G0 F6000 X165.849 Y123.422
G1 F1200 X113.076 Y70.649 E208.34727
G0 F6000 X112.51 Y70.649
G1 F1200 X165.849 Y123.988 E211.85974
G0 F6000 X165.849 Y124.554
G1 F1200 X111.944 Y70.649 E215.40947
G0 F6000 X111.379 Y70.649
G1 F1200 X165.849 Y125.119 E218.99642
G0 F6000 X165.849 Y125.685
G1 F1200 X110.813 Y70.649 E222.62063
G0 F6000 X110.247 Y70.649
G1 F1200 X165.849 Y126.251 E226.28212
G0 F6000 X165.849 Y126.816
G1 F1200 X109.682 Y70.649 E229.98081
G0 F6000 X109.116 Y70.649
G1 F1200 X165.849 Y127.382 E233.71678
G0 F6000 X165.849 Y127.948
G1 F1200 X108.55 Y70.649 E237.49001
G0 F6000 X107.985 Y70.649
G1 F1200 X165.849 Y128.513 E241.30046
G0 F6000 X165.849 Y129.079
G1 F1200 X107.419 Y70.649 E245.14817
G0 F6000 X106.853 Y70.649
G1 F1200 X165.849 Y129.645 E249.03316
G0 F6000 X165.849 Y130.21
G1 F1200 X106.288 Y70.649 E252.95535
G0 F6000 X105.722 Y70.649
G1 F1200 X165.849 Y130.776 E256.91482
G0 F6000 X165.849 Y131.342
G1 F1200 X105.156 Y70.649 E260.91156
G0 F6000 X104.59 Y70.649
G1 F1200 X165.849 Y131.907 E264.94553
G0 F6000 X165.849 Y132.473
G1 F1200 X104.025 Y70.649 E269.01675
G0 F6000 X103.465 Y70.656
G1 F1200 X165.842 Y133.032 E273.12435
G0 F6000 X165.559 Y133.315
G1 F1200 X103.183 Y70.939 E277.23191
G0 F6000 X102.9 Y71.221
G1 F1200 X165.277 Y133.598 E281.33955
G0 F6000 X164.994 Y133.881
G1 F1200 X102.617 Y71.504 E285.44718
G0 F6000 X102.334 Y71.787
G1 F1200 X164.711 Y134.164 E289.55481
G0 F6000 X164.428 Y134.447
G1 F1200 X102.051 Y72.07 E293.66244
G0 F6000 X101.768 Y72.353
G1 F1200 X132.764 Y103.349 E295.70358
G0 F6000 X133.148 Y103.733
G1 F1200 X164.145 Y134.73 E297.74479
G0 F6000 X163.862 Y135.012
