;FLAVOR:Marlin
;TIME:3570
;Filament used: 1.6839m
;Layer height: 0.16
;MINX:89.748
;MINY:89.78
;MINZ:0.2
;MAXX:145.252
;MAXY:145.219
;MAXZ:33.64
;Generated with Cura_SteamEngine 4.8.0
M140 S50
M105
M190 S50
M104 S200
M105
M109 S200
M82 ;absolute extrusion mode
; Ender 3 Custom Start G-code
G92 E0 ; Reset Extruder
G28 ; Home all axes
G1 Z2.0 F3000 ; Move Z Axis up little to prevent scratching of Heat Bed
G1 X0.1 Y20 Z0.3 F5000.0 ; Move to start position
G1 X0.1 Y200.0 Z0.3 F1500.0 E15 ; Draw the first line
G1 X0.4 Y200.0 Z0.3 F5000.0 ; Move to side a little
G1 X0.4 Y20 Z0.3 F1500.0 E30 ; Draw the second line
G92 E0 ; Reset Extruder
G1 Z2.0 F3000 ; Move Z Axis up little to prevent scratching of Heat Bed
G1 X5 Y20 Z0.3 F5000.0 ; Move over to prevent blob squish
G92 E0
G92 E0
G1 F2700 E-5
;LAYER_COUNT:189
;LAYER:0
M107
G0 F6000 X93.531 Y93.956 Z0.2
;TYPE:SKIRT
G1 F2700 E0
G1 F1200 X94.502 Y93.036 E0.04449
G1 X94.7 Y92.87 E0.05308
G1 X95.789 Y92.065 E0.09813
G1 X95.962 Y91.953 E0.10498
G1 X96.281 Y91.755 E0.11747
G1 X96.486 Y91.632 E0.12542
G1 X97.669 Y91.016 E0.16978
G1 X97.898 Y90.914 E0.17812
G1 X99.121 Y90.454 E0.22158
G1 X99.289 Y90.402 E0.22743
G1 X99.643 Y90.299 E0.23969
G1 X99.848 Y90.243 E0.24676
G1 X100.763 Y90.034 E0.27797
G1 X101.466 Y89.929 E0.30162
G1 X101.884 Y89.88 E0.31561
G1 X102.932 Y89.807 E0.35055
G1 X104.066 Y89.783 E0.38828
G1 X104.298 Y89.781 E0.396
G1 X113.227 Y89.78 E0.69298
G1 X114.04 Y89.79 E0.72002
G1 X114.707 Y89.819 E0.74222
G1 X115.056 Y89.845 E0.75386
G1 X115.86 Y89.935 E0.78077
G1 X116.115 Y89.973 E0.78935
G1 X117.036 Y90.151 E0.82055
G1 X117.6 Y90.301 E0.83996
G1 X117.865 Y90.379 E0.84915
G1 X118.838 Y90.715 E0.88338
G1 X119.141 Y90.836 E0.89423
G1 X120.38 Y91.423 E0.93983
G1 X120.581 Y91.534 E0.94747
G1 X121.751 Y92.28 E0.99362
G1 X121.929 Y92.41 E1.00095
G1 X122.206 Y92.619 E1.0125
G1 X122.406 Y92.775 E1.02093
G1 X123.394 Y93.646 E1.06474
G1 X124.031 Y94.309 E1.09532
G1 X124.48 Y94.848 E1.11865
G1 X124.927 Y95.424 E1.1429
G1 X126.197 Y97.104 E1.21295
G1 X127.769 Y99.063 E1.29649
G1 X129.4 Y100.982 E1.38025
G1 X131.107 Y102.879 E1.46513
G1 X132.812 Y104.669 E1.54735
G1 X134.611 Y106.455 E1.63167
G1 X136.433 Y108.165 E1.71478
G1 X138.351 Y109.864 E1.8
G1 X139.849 Y111.125 E1.86513
G1 X140.407 Y111.585 E1.88918
G1 X141.14 Y112.247 E1.92203
G1 X141.303 Y112.408 E1.92965
G1 X141.942 Y113.095 E1.96085
G1 X142.245 Y113.467 E1.97681
G1 X142.419 Y113.69 E1.98622
G1 X142.78 Y114.179 E2.00644
G1 X142.919 Y114.379 E2.01454
G1 X143.547 Y115.398 E2.05435
G1 X143.639 Y115.567 E2.06075
G1 X144.158 Y116.659 E2.10096
G1 X144.246 Y116.874 E2.10869
G1 X144.374 Y117.201 E2.12037
G1 X144.45 Y117.405 E2.12761
G1 X144.74 Y118.297 E2.15881
G1 X144.894 Y118.924 E2.18028
G1 X144.924 Y119.063 E2.18501
G1 X145.008 Y119.491 E2.19952
G1 X145.066 Y119.823 E2.21073
G1 X145.214 Y121.122 E2.25421
G1 X145.226 Y121.344 E2.2616
G1 X145.241 Y121.772 E2.27585
G1 X145.252 Y122.6 E2.30339
G1 X145.251 Y131.136 E2.5873
G1 X145.243 Y131.727 E2.60696
G1 X145.213 Y132.403 E2.62946
G1 X145.175 Y132.908 E2.64631
G1 X145.065 Y133.84 E2.67752
G1 X144.857 Y134.833 E2.71126
G1 X144.747 Y135.259 E2.7259
G1 X144.474 Y136.156 E2.75708
G1 X144.066 Y137.156 E2.79301
G1 X143.832 Y137.658 E2.81143
G1 X143.4 Y138.491 E2.84264
G1 X142.955 Y139.202 E2.87053
G1 X142.827 Y139.39 E2.8781
G1 X142.012 Y140.443 E2.92239
G1 X141.858 Y140.619 E2.93017
G1 X141.608 Y140.895 E2.94255
G1 X141.46 Y141.053 E2.94975
G1 X140.857 Y141.649 E2.97795
G1 X140.81 Y141.692 E2.98007
G1 X140.3 Y142.13 E3.00243
G1 X140.133 Y142.265 E3.00957
G1 X139.176 Y142.958 E3.04887
G1 X139.027 Y143.054 E3.05477
G1 X138.748 Y143.228 E3.0657
G1 X138.534 Y143.357 E3.07401
G1 X137.331 Y143.984 E3.11913
G1 X137.102 Y144.086 E3.12747
G1 X135.892 Y144.542 E3.17048
G1 X135.728 Y144.593 E3.17619
G1 X135.356 Y144.701 E3.18908
G1 X135.147 Y144.758 E3.19628
G1 X134.233 Y144.966 E3.22746
G1 X133.534 Y145.071 E3.25097
G1 X133.116 Y145.12 E3.26497
G1 X132.068 Y145.193 E3.29991
G1 X130.937 Y145.217 E3.33753
G1 X130.704 Y145.219 E3.34528
G1 X103.832 Y145.219 E4.23905
G1 X103.2 Y145.21 E4.26007
G1 X102.54 Y145.181 E4.28204
G1 X102.137 Y145.151 E4.29548
G1 X101.683 Y145.108 E4.31065
G1 X100.417 Y144.897 E4.35334
G1 X100.157 Y144.838 E4.36221
G1 X99.112 Y144.547 E4.39829
G1 X98.995 Y144.508 E4.40239
G1 X98.322 Y144.258 E4.42627
G1 X98.008 Y144.13 E4.43755
G1 X96.896 Y143.603 E4.47847
G1 X96.707 Y143.5 E4.48563
G1 X95.904 Y143.016 E4.51682
G1 X95.463 Y142.709 E4.53469
G1 X95.2 Y142.516 E4.54554
G1 X94.865 Y142.261 E4.55954
G1 X94.152 Y141.651 E4.59075
G1 X93.673 Y141.177 E4.61316
G1 X93.294 Y140.778 E4.63147
G1 X92.677 Y140.071 E4.66268
G1 X92.105 Y139.286 E4.69498
G1 X92.024 Y139.164 E4.69985
G1 X91.752 Y138.733 E4.71681
G1 X91.625 Y138.521 E4.72502
G1 X91.177 Y137.697 E4.75622
G1 X90.895 Y137.068 E4.77915
G1 X90.688 Y136.567 E4.79718
G1 X90.367 Y135.686 E4.82836
G1 X90.126 Y134.796 E4.85903
G1 X90.102 Y134.69 E4.86265
G1 X89.99 Y134.129 E4.88167
G1 X89.929 Y133.775 E4.89362
G1 X89.8 Y132.726 E4.92877
G1 X89.771 Y132.246 E4.94477
G1 X89.759 Y131.921 E4.95558
G1 X89.753 Y131.635 E4.9651
G1 X89.748 Y131.148 E4.9813
G1 X89.749 Y103.864 E5.88877
G1 X89.757 Y103.273 E5.90843
G1 X89.787 Y102.597 E5.93093
G1 X89.825 Y102.092 E5.94777
G1 X89.935 Y101.16 E5.97899
G1 X90.145 Y100.162 E6.01291
G1 X90.256 Y99.733 E6.02765
G1 X90.529 Y98.835 E6.05886
G1 X90.938 Y97.834 E6.09483
G1 X91.171 Y97.335 E6.11315
G1 X91.604 Y96.503 E6.14434
G1 X92.037 Y95.81 E6.17152
G1 X92.166 Y95.62 E6.17916
G1 X93.006 Y94.536 E6.22477
G1 X93.166 Y94.354 E6.23283
G1 X93.389 Y94.108 E6.24388
G1 X93.531 Y93.956 E6.25079
G0 F6000 X93.823 Y94.229
G1 F1200 X94.759 Y93.342 E6.29368
G1 X94.957 Y93.176 E6.30228
G1 X96.006 Y92.401 E6.34566
G1 X96.179 Y92.289 E6.35251
G1 X96.486 Y92.098 E6.36454
G1 X96.691 Y91.975 E6.37249
G1 X97.832 Y91.381 E6.41527
G1 X98.061 Y91.279 E6.42361
G1 X99.24 Y90.836 E6.4655
G1 X99.408 Y90.784 E6.47135
G1 X99.749 Y90.685 E6.48316
G1 X99.954 Y90.629 E6.49023
G1 X100.852 Y90.425 E6.52086
G1 X101.513 Y90.326 E6.54309
G1 X101.931 Y90.277 E6.55708
G1 X102.941 Y90.207 E6.59076
G1 X104.075 Y90.183 E6.62848
G1 X104.298 Y90.181 E6.6359
G1 X113.227 Y90.18 E6.93288
G1 X114.034 Y90.19 E6.95972
G1 X114.678 Y90.218 E6.98116
G1 X115.027 Y90.244 E6.9928
G1 X115.801 Y90.331 E7.01871
G1 X116.056 Y90.369 E7.02728
G1 X116.96 Y90.544 E7.05791
G1 X117.487 Y90.684 E7.07604
G1 X117.752 Y90.762 E7.08523
G1 X118.69 Y91.087 E7.11825
G1 X118.993 Y91.208 E7.1291
G1 X120.186 Y91.773 E7.17301
G1 X120.387 Y91.884 E7.18064
G1 X121.515 Y92.603 E7.22513
G1 X121.693 Y92.733 E7.23247
G1 X121.96 Y92.935 E7.2436
G1 X122.16 Y93.091 E7.25204
G1 X123.112 Y93.929 E7.29422
G1 X123.754 Y94.599 E7.32508
G1 X124.164 Y95.094 E7.34646
G1 X124.608 Y95.665 E7.37052
G1 X125.882 Y97.349 E7.44075
G1 X127.468 Y99.327 E7.52508
G1 X129.099 Y101.244 E7.60879
G1 X130.802 Y103.138 E7.69351
G1 X132.523 Y104.946 E7.77653
G1 X134.339 Y106.748 E7.86162
G1 X136.176 Y108.471 E7.94539
G1 X138.072 Y110.151 E8.02964
G1 X139.627 Y111.461 E8.09727
G1 X140.153 Y111.894 E8.11993
G1 X140.859 Y112.532 E8.15158
G1 X141.022 Y112.693 E8.1592
G1 X141.93 Y113.713 E8.20462
G1 X142.104 Y113.936 E8.21403
G1 X142.451 Y114.408 E8.23351
G1 X142.59 Y114.608 E8.24161
G1 X143.196 Y115.589 E8.27996
G1 X143.288 Y115.758 E8.28636
G1 X143.788 Y116.811 E8.32513
G1 X143.876 Y117.026 E8.33286
G1 X143.999 Y117.34 E8.34408
G1 X144.075 Y117.544 E8.35132
G1 X144.359 Y118.42 E8.38195
G1 X144.503 Y119.009 E8.40211
G1 X144.533 Y119.148 E8.40684
G1 X144.614 Y119.56 E8.42081
G1 X144.672 Y119.892 E8.43202
G1 X144.815 Y121.144 E8.47393
G1 X144.827 Y121.366 E8.48133
G1 X144.841 Y121.778 E8.49504
G1 X144.852 Y122.6 E8.52238
G1 X144.851 Y131.13 E8.80609
G1 X144.843 Y131.721 E8.82575
G1 X144.814 Y132.373 E8.84745
G1 X144.776 Y132.878 E8.8643
G1 X144.667 Y133.793 E8.89495
G1 X144.469 Y134.733 E8.9269
G1 X144.359 Y135.159 E8.94153
G1 X144.091 Y136.04 E8.97216
G1 X143.703 Y136.987 E9.0062
G1 X143.469 Y137.489 E9.02462
G1 X143.045 Y138.306 E9.05523
G1 X142.624 Y138.977 E9.08158
G1 X142.496 Y139.165 E9.08914
G1 X141.711 Y140.179 E9.13179
G1 X141.557 Y140.355 E9.13957
G1 X141.316 Y140.622 E9.15154
G1 X141.168 Y140.78 E9.15874
G1 X140.587 Y141.354 E9.1859
G1 X140.54 Y141.397 E9.18802
G1 X140.049 Y141.819 E9.20955
G1 X139.882 Y141.954 E9.2167
G1 X138.959 Y142.622 E9.25459
G1 X138.81 Y142.718 E9.26049
G1 X138.541 Y142.885 E9.27102
G1 X138.327 Y143.014 E9.27933
G1 X137.168 Y143.619 E9.32281
G1 X136.939 Y143.721 E9.33115
G1 X135.774 Y144.16 E9.37256
G1 X135.61 Y144.211 E9.37827
G1 X135.251 Y144.315 E9.3907
G1 X135.042 Y144.372 E9.39791
G1 X134.144 Y144.576 E9.42854
G1 X133.487 Y144.674 E9.45063
G1 X133.069 Y144.723 E9.46463
G1 X132.06 Y144.793 E9.49827
G1 X130.929 Y144.817 E9.53589
G1 X130.704 Y144.819 E9.54338
G1 X103.838 Y144.819 E10.43694
G1 X103.206 Y144.81 E10.45797
G1 X102.57 Y144.782 E10.47914
G1 X102.167 Y144.752 E10.49258
G1 X101.725 Y144.71 E10.50735
G1 X100.505 Y144.507 E10.54848
G1 X100.245 Y144.448 E10.55735
G1 X99.239 Y144.167 E10.59209
G1 X99.122 Y144.128 E10.59619
G1 X98.473 Y143.888 E10.61921
G1 X98.159 Y143.76 E10.63049
G1 X97.088 Y143.252 E10.66991
G1 X96.899 Y143.149 E10.67707
G1 X96.11 Y142.673 E10.70772
G1 X95.7 Y142.387 E10.72435
G1 X95.437 Y142.194 E10.7352
G1 X95.111 Y141.946 E10.74882
G1 X94.412 Y141.347 E10.77944
G1 X93.963 Y140.901 E10.80049
G1 X93.584 Y140.502 E10.81879
G1 X92.979 Y139.808 E10.84941
G1 X92.438 Y139.065 E10.87998
G1 X92.357 Y138.943 E10.88485
G1 X92.095 Y138.527 E10.9012
G1 X91.968 Y138.315 E10.90942
G1 X91.529 Y137.506 E10.94004
G1 X91.264 Y136.916 E10.96155
G1 X91.057 Y136.415 E10.97958
G1 X90.743 Y135.549 E11.01022
G1 X90.516 Y134.708 E11.03919
G1 X90.492 Y134.602 E11.0428
G1 X90.384 Y134.061 E11.06115
G1 X90.323 Y133.707 E11.0731
G1 X90.198 Y132.696 E11.10698
G1 X90.171 Y132.231 E11.12247
G1 X90.159 Y131.906 E11.13329
G1 X90.153 Y131.631 E11.14244
G1 X90.148 Y131.148 E11.1585
G1 X90.149 Y103.87 E12.06577
G1 X90.157 Y103.279 E12.08543
G1 X90.186 Y102.627 E12.10714
G1 X90.224 Y102.122 E12.12398
G1 X90.333 Y101.207 E12.15463
G1 X90.532 Y100.262 E12.18675
G1 X90.643 Y99.833 E12.20149
G1 X90.912 Y98.952 E12.23213
G1 X91.3 Y98.003 E12.26623
G1 X91.533 Y97.504 E12.28455
G1 X91.959 Y96.688 E12.31516
G1 X92.368 Y96.035 E12.34079
G1 X92.497 Y95.845 E12.34843
G1 X93.306 Y94.8 E12.39238
G1 X93.466 Y94.618 E12.40044
G1 X93.681 Y94.381 E12.41109
G1 X93.823 Y94.229 E12.418
G0 F6000 X94.115 Y94.502
G1 F1200 X95.016 Y93.649 E12.45927
G1 X95.214 Y93.483 E12.46786
G1 X96.224 Y92.737 E12.50963
G1 X96.397 Y92.625 E12.51648
G1 X96.692 Y92.441 E12.52805
G1 X96.897 Y92.318 E12.536
G1 X97.995 Y91.746 E12.57718
G1 X98.224 Y91.644 E12.58551
G1 X99.358 Y91.218 E12.6258
G1 X99.526 Y91.166 E12.63165
G1 X99.854 Y91.071 E12.64301
G1 X100.059 Y91.015 E12.65008
G1 X100.94 Y90.815 E12.68013
G1 X101.559 Y90.723 E12.70094
G1 X101.977 Y90.674 E12.71494
G1 X102.949 Y90.607 E12.74734
G1 X104.083 Y90.583 E12.78507
G1 X104.298 Y90.581 E12.79222
G1 X113.227 Y90.58 E13.0892
G1 X114.029 Y90.59 E13.11588
G1 X114.648 Y90.617 E13.13648
G1 X114.997 Y90.643 E13.14812
G1 X115.742 Y90.726 E13.17306
G1 X115.997 Y90.764 E13.18163
G1 X116.884 Y90.937 E13.21169
G1 X117.374 Y91.068 E13.22856
G1 X117.639 Y91.146 E13.23775
G1 X118.542 Y91.458 E13.26952
G1 X118.845 Y91.579 E13.28037
G1 X119.993 Y92.123 E13.32263
G1 X120.194 Y92.234 E13.33026
G1 X121.279 Y92.926 E13.37307
G1 X121.457 Y93.056 E13.3804
G1 X121.714 Y93.25 E13.39111
G1 X121.914 Y93.406 E13.39954
G1 X122.83 Y94.213 E13.44015
G1 X123.477 Y94.89 E13.47129
G1 X123.849 Y95.34 E13.49071
G1 X124.289 Y95.907 E13.51458
G1 X125.566 Y97.596 E13.58501
G1 X127.153 Y99.573 E13.66933
G1 X128.795 Y101.505 E13.75366
G1 X130.515 Y103.418 E13.83922
G1 X132.234 Y105.223 E13.92213
G1 X134.048 Y107.023 E14.00712
G1 X135.922 Y108.781 E14.09259
G1 X137.809 Y110.453 E14.17644
G1 X139.399 Y111.792 E14.24558
G1 X139.898 Y112.203 E14.26708
G1 X140.578 Y112.816 E14.29753
G1 X140.741 Y112.977 E14.30515
G1 X141.615 Y113.959 E14.34888
G1 X141.789 Y114.182 E14.35828
G1 X142.123 Y114.636 E14.37703
G1 X142.262 Y114.836 E14.38513
G1 X142.845 Y115.78 E14.42203
G1 X142.937 Y115.949 E14.42843
G1 X143.418 Y116.962 E14.46573
G1 X143.506 Y117.177 E14.47346
G1 X143.624 Y117.48 E14.48427
G1 X143.7 Y117.684 E14.49151
G1 X143.978 Y118.544 E14.52157
G1 X144.112 Y119.093 E14.54037
G1 X144.142 Y119.232 E14.5451
G1 X144.22 Y119.629 E14.55856
G1 X144.278 Y119.961 E14.56977
G1 X144.415 Y121.165 E14.61007
G1 X144.427 Y121.387 E14.61746
G1 X144.441 Y121.784 E14.63068
G1 X144.452 Y122.6 E14.65782
G1 X144.451 Y131.125 E14.94136
G1 X144.443 Y131.716 E14.96102
G1 X144.415 Y132.343 E14.98189
G1 X144.377 Y132.848 E14.99874
G1 X144.27 Y133.745 E15.02878
G1 X144.082 Y134.633 E15.05897
G1 X143.972 Y135.059 E15.07361
G1 X143.708 Y135.923 E15.10366
G1 X143.341 Y136.818 E15.13583
G1 X143.107 Y137.32 E15.15425
G1 X142.69 Y138.121 E15.18429
G1 X142.293 Y138.751 E15.20905
G1 X142.165 Y138.939 E15.21662
G1 X141.41 Y139.916 E15.25769
G1 X141.256 Y140.092 E15.26546
G1 X141.024 Y140.348 E15.27695
G1 X140.876 Y140.506 E15.28416
G1 X140.317 Y141.059 E15.31031
G1 X140.27 Y141.102 E15.31243
G1 X139.797 Y141.508 E15.33316
G1 X139.63 Y141.643 E15.3403
G1 X138.742 Y142.285 E15.37675
G1 X138.335 Y142.543 E15.39277
G1 X138.121 Y142.672 E15.40109
G1 X137.005 Y143.254 E15.44295
G1 X136.776 Y143.356 E15.45129
G1 X135.655 Y143.778 E15.49113
G1 X135.491 Y143.829 E15.49684
G1 X135.146 Y143.93 E15.50879
G1 X134.937 Y143.987 E15.516
G1 X134.056 Y144.185 E15.54603
G1 X133.441 Y144.277 E15.56671
G1 X133.023 Y144.326 E15.58071
G1 X132.051 Y144.393 E15.61312
G1 X130.92 Y144.417 E15.65074
G1 X130.704 Y144.419 E15.65793
G1 X103.844 Y144.419 E16.5513
G1 X103.212 Y144.41 E16.57232
G1 X102.6 Y144.383 E16.59269
G1 X102.197 Y144.353 E16.60613
G1 X101.768 Y144.312 E16.62047
G1 X100.594 Y144.117 E16.66005
G1 X100.334 Y144.058 E16.66892
G1 X99.365 Y143.788 E16.70237
G1 X99.248 Y143.749 E16.70648
G1 X98.624 Y143.517 E16.72862
G1 X98.31 Y143.389 E16.7399
G1 X97.279 Y142.9 E16.77785
G1 X97.09 Y142.797 E16.78501
G1 X96.317 Y142.331 E16.81503
G1 X95.936 Y142.064 E16.8305
G1 X95.673 Y141.871 E16.84135
G1 X95.358 Y141.631 E16.85452
G1 X94.672 Y141.043 E16.88458
G1 X94.253 Y140.626 E16.90424
G1 X93.874 Y140.227 E16.92254
G1 X93.281 Y139.545 E16.9526
G1 X92.771 Y138.844 E16.98143
G1 X92.69 Y138.722 E16.9863
G1 X92.438 Y138.322 E17.00203
G1 X92.311 Y138.11 E17.01025
G1 X91.882 Y137.315 E17.04029
G1 X91.634 Y136.763 E17.06042
G1 X91.427 Y136.262 E17.07845
G1 X91.119 Y135.413 E17.10849
G1 X90.906 Y134.619 E17.13583
G1 X90.882 Y134.513 E17.13945
G1 X90.778 Y133.993 E17.15708
G1 X90.717 Y133.639 E17.16903
G1 X90.597 Y132.666 E17.20164
G1 X90.571 Y132.216 E17.21663
G1 X90.559 Y131.891 E17.22745
G1 X90.553 Y131.626 E17.23626
G1 X90.548 Y131.148 E17.25216
G1 X90.549 Y103.875 E18.15927
G1 X90.557 Y103.284 E18.17892
G1 X90.585 Y102.657 E18.1998
G1 X90.623 Y102.152 E18.21664
G1 X90.73 Y101.255 E18.24669
G1 X90.919 Y100.362 E18.27705
G1 X91.03 Y99.933 E18.29179
G1 X91.295 Y99.07 E18.32181
G1 X91.663 Y98.173 E18.35406
G1 X91.896 Y97.674 E18.37238
G1 X92.314 Y96.873 E18.40243
G1 X92.699 Y96.26 E18.4265
G1 X92.828 Y96.07 E18.43414
G1 X93.606 Y95.064 E18.47644
G1 X93.766 Y94.882 E18.4845
G1 X93.973 Y94.654 E18.49474
G1 X94.115 Y94.502 E18.50166
G1 F2700 E13.50166
;MESH:BLTouchMount_Gab.stl
G0 F6000 X103.185 Y100.123
G0 X103.292 Y101.2
G0 X111.264 Y101.979
G0 X110.379 Y104.878
G0 X112.312 Y106.077
G0 X113.295 Y106.393
;TYPE:WALL-INNER
G1 F2700 E18.50166
G1 F1200 X113.818 Y106.287 E18.51941
G1 X114.302 Y106.061 E18.53718
G1 X114.718 Y105.728 E18.5549
G1 X115.045 Y105.308 E18.5726
G1 X115.264 Y104.82 E18.59039
G1 X115.363 Y104.297 E18.6081
G1 X115.336 Y103.764 E18.62585
G1 X115.184 Y103.252 E18.64361
G1 X114.917 Y102.791 E18.66133
G1 X114.548 Y102.406 E18.67907
G1 X114.1 Y102.118 E18.69678
G1 X113.596 Y101.942 E18.71454
G1 X113.066 Y101.892 E18.73224
G1 X112.538 Y101.964 E18.74997
G1 X112.04 Y102.162 E18.76779
G1 X111.604 Y102.47 E18.78555
G1 X111.253 Y102.871 E18.80327
