;FLAVOR:Marlin
;TIME:2034
;Filament used: 0.523554m
;Layer height: 0.12
;MINX:92.194
;MINY:105.281
;MINZ:0.12
;MAXX:142.822
;MAXY:145.577
;MAXZ:15.96
;Generated with Cura_SteamEngine 4.8.0
M82 ;absolute extrusion mode
; Ender 3 Custom Start G-code
M117 Getting the bed up to temp!
M140 S60 ; Set Heat Bed temperature
M190 S60 ; Wait for Heat Bed temperature
M117 Pre-heating the extruder!
M104 S160; start warming extruder to 160
G28 ; Home all axes
M117 Auto bed-level GO!
G29 ; Auto bed-level (BL-Touch)
G92 E0 ; Reset Extruder
M117 Getting the extruder up to temp!
M104 S210 ; Set Extruder temperature
M109 S210 ; Wait for Extruder temperature
G1 Z1.0 F3000 ; move z up little to prevent scratching of surface
G1 X0.1 Y20 Z0.3 F5000.0 ; move to start-line position
M117 LET THE PURGE BEGIN!
G1 X0.1 Y200.0 Z0.3 F1500.0 E15 ; draw 1st line
G1 X0.4 Y200.0 Z0.3 F5000.0 ; move to side a little
G1 X0.4 Y20 Z0.3 F1500.0 E30 ; draw 2nd line
G92 E0 ; reset extruder
G1 Z1.0 F3000 ; move z up little to prevent scratching of surface
M117 Autobots! Roll Out!
; End of custom start GCode
G92 E0
G92 E0
G1 F2700 E-5
;LAYER_COUNT:133
;LAYER:0
M107
G0 F6000 X103.22 Y110.921 Z0.12
;TYPE:SKIRT
G1 F2700 E0
G1 F1200 X103.677 Y110.506 E0.01232
G1 X103.957 Y110.27 E0.01963
G1 X104.52 Y109.812 E0.03411
G1 X104.75 Y109.63 E0.03996
G1 X105.198 Y109.285 E0.05125
G1 X105.743 Y108.891 E0.06467
G1 X106.483 Y108.39 E0.0825
G1 X106.79 Y108.19 E0.08981
G1 X107.211 Y107.925 E0.09974
G1 X108.026 Y107.459 E0.11848
G1 X108.88 Y107.064 E0.13725
G1 X109.557 Y106.785 E0.15187
G1 X109.86 Y106.665 E0.15837
G1 X110.421 Y106.453 E0.17034
G1 X110.732 Y106.341 E0.17693
G1 X110.953 Y106.265 E0.1816
G1 X111.28 Y106.158 E0.18846
G1 X111.849 Y105.984 E0.20034
G1 X112.496 Y105.796 E0.21378
G1 X113.407 Y105.573 E0.2325
G1 X114.689 Y105.394 E0.25833
G1 X115.085 Y105.363 E0.26626
G1 X115.469 Y105.337 E0.27394
G1 X115.779 Y105.321 E0.28013
G1 X116.413 Y105.296 E0.2928
G1 X116.788 Y105.287 E0.30028
G1 X117.926 Y105.281 E0.32299
G1 X118.353 Y105.287 E0.33151
G1 X119.068 Y105.311 E0.34579
G1 X119.392 Y105.327 E0.35226
G1 X119.962 Y105.364 E0.36366
G1 X120.285 Y105.39 E0.37013
G1 X121.215 Y105.506 E0.38883
G1 X122.454 Y105.787 E0.41419
G1 X123.247 Y106.016 E0.43066
G1 X123.582 Y106.118 E0.43765
G1 X124.095 Y106.284 E0.44841
G1 X124.408 Y106.391 E0.45501
G1 X124.87 Y106.559 E0.46482
G1 X125.196 Y106.684 E0.47179
G1 X125.415 Y106.771 E0.47649
G1 X126.074 Y107.04 E0.49069
G1 X126.927 Y107.431 E0.50942
G1 X127.74 Y107.892 E0.52807
G1 X128.115 Y108.126 E0.53689
G1 X128.37 Y108.29 E0.54294
G1 X128.913 Y108.65 E0.55594
G1 X129.507 Y109.072 E0.57048
G1 X130.363 Y109.725 E0.59197
G1 X130.602 Y109.913 E0.59804
G1 X131.023 Y110.253 E0.60884
G1 X131.757 Y110.902 E0.62839
G1 X132.147 Y111.279 E0.63921
G1 X132.566 Y111.697 E0.65102
G1 X133.226 Y112.421 E0.67058
G1 X133.57 Y112.834 E0.6813
G1 X133.776 Y113.089 E0.68784
G1 X133.986 Y113.357 E0.69464
G1 X134.72 Y114.416 E0.72035
G1 X135.348 Y115.449 E0.74448
G1 X135.635 Y115.944 E0.7559
G1 X135.957 Y116.517 E0.76901
G1 X136.088 Y116.758 E0.77449
G1 X136.206 Y116.981 E0.77952
G1 X137.463 Y119.284 E0.83188
G1 X138.722 Y121.444 E0.88177
G1 X140.227 Y123.859 E0.93856
G1 X140.305 Y123.98 E0.94143
G1 X140.779 Y124.789 E0.96014
G1 X141.183 Y125.636 E0.97887
G1 X141.513 Y126.513 E0.99757
G1 X141.775 Y127.45 E1.01699
G1 X141.897 Y128.038 E1.02897
G1 X142.026 Y128.761 E1.04363
G1 X142.171 Y129.628 E1.06117
G1 X142.593 Y132.209 E1.11336
G1 X142.7 Y132.917 E1.12765
G1 X142.801 Y133.85 E1.14638
G1 X142.822 Y134.787 E1.16508
G1 X142.762 Y135.723 E1.1838
G1 X142.624 Y136.651 E1.20252
G1 X142.406 Y137.563 E1.22123
G1 X142.112 Y138.454 E1.23996
G1 X141.743 Y139.316 E1.25867
G1 X141.302 Y140.144 E1.27739
G1 X140.792 Y140.931 E1.2961
G1 X140.217 Y141.672 E1.31482
G1 X139.581 Y142.361 E1.33353
G1 X138.888 Y142.993 E1.35225
G1 X138.144 Y143.564 E1.37097
G1 X137.354 Y144.07 E1.38969
G1 X136.524 Y144.506 E1.4084
G1 X135.66 Y144.871 E1.42712
G1 X134.768 Y145.16 E1.44583
G1 X133.854 Y145.372 E1.46455
G1 X132.926 Y145.506 E1.48326
G1 X132.022 Y145.559 E1.50133
G1 X130.928 Y145.577 E1.52317
G1 X129.144 Y145.575 E1.55877
G1 X128.484 Y145.566 E1.57194
G1 X127.549 Y145.513 E1.59063
G1 X126.468 Y145.406 E1.61231
G1 X123.855 Y145.182 E1.66465
G1 X121.319 Y145.037 E1.71534
G1 X118.841 Y144.966 E1.76481
G1 X116.318 Y144.964 E1.81516
G1 X113.788 Y145.035 E1.86567
G1 X111.268 Y145.176 E1.91604
G1 X108.702 Y145.392 E1.96742
G1 X107.469 Y145.514 E1.99215
G1 X106.55 Y145.566 E2.01052
G1 X105.7 Y145.577 E2.02748
G1 X103.683 Y145.575 E2.06773
G1 X103.055 Y145.566 E2.08027
G1 X102.119 Y145.512 E2.09898
G1 X101.191 Y145.379 E2.11769
G1 X100.277 Y145.168 E2.13641
G1 X99.385 Y144.879 E2.15512
G1 X98.52 Y144.516 E2.17384
G1 X97.69 Y144.08 E2.19255
G1 X96.899 Y143.575 E2.21128
G1 X96.155 Y143.004 E2.22999
G1 X95.462 Y142.372 E2.24871
G1 X94.825 Y141.684 E2.26742
G1 X94.25 Y140.943 E2.28614
G1 X93.781 Y140.226 E2.30323
G1 X93.757 Y140.186 E2.30417
G1 X93.309 Y139.362 E2.32288
G1 X92.933 Y138.503 E2.3416
G1 X92.631 Y137.615 E2.36031
G1 X92.407 Y136.705 E2.37902
G1 X92.26 Y135.778 E2.39775
G1 X92.194 Y134.843 E2.41645
G1 X92.207 Y133.905 E2.43517
G1 X92.302 Y132.954 E2.45424
G1 X92.419 Y132.144 E2.47058
G1 X92.778 Y129.939 E2.51516
G1 X92.989 Y128.673 E2.54077
G1 X93.113 Y127.987 E2.55468
G1 X93.319 Y127.072 E2.5734
G1 X93.603 Y126.178 E2.59212
G1 X93.961 Y125.312 E2.61082
G1 X94.616 Y124.105 E2.63823
G1 X96.06 Y121.799 E2.69252
G1 X97.351 Y119.606 E2.74331
G1 X98.431 Y117.646 E2.78796
G1 X99.53 Y115.664 E2.83319
G1 X99.77 Y115.248 E2.84278
G1 X100.157 Y114.603 E2.85779
G1 X100.902 Y113.518 E2.88405
G1 X101.413 Y112.862 E2.90065
G1 X101.836 Y112.352 E2.91387
G1 X102.072 Y112.084 E2.92099
G1 X102.517 Y111.608 E2.934
G1 X102.818 Y111.308 E2.94248
G1 X103.22 Y110.921 E2.95361
G0 F6000 X103.497 Y111.21
G1 F1200 X103.937 Y110.809 E2.96549
G1 X104.21 Y110.58 E2.97261
G1 X104.773 Y110.122 E2.98709
G1 X104.995 Y109.947 E2.99273
G1 X105.443 Y109.602 E3.00401
G1 X105.967 Y109.222 E3.01693
G1 X106.707 Y108.721 E3.03477
G1 X107.003 Y108.528 E3.04182
G1 X107.424 Y108.263 E3.05174
G1 X108.224 Y107.807 E3.07012
G1 X109.032 Y107.434 E3.08788
G1 X109.709 Y107.155 E3.10249
G1 X110.001 Y107.039 E3.10876
G1 X110.562 Y106.827 E3.12073
G1 X110.862 Y106.719 E3.12709
G1 X111.083 Y106.643 E3.13176
G1 X111.398 Y106.54 E3.13837
G1 X111.96 Y106.368 E3.1501
G1 X112.607 Y106.18 E3.16355
G1 X113.502 Y105.962 E3.18193
G1 X114.721 Y105.793 E3.20649
G1 X115.112 Y105.762 E3.21432
G1 X115.496 Y105.736 E3.222
G1 X115.794 Y105.72 E3.22795
G1 X116.428 Y105.695 E3.24061
G1 X116.79 Y105.687 E3.24784
G1 X117.928 Y105.681 E3.27055
G1 X118.34 Y105.687 E3.27877
G1 X119.055 Y105.711 E3.29305
G1 X119.367 Y105.726 E3.29928
G1 X119.929 Y105.763 E3.31052
G1 X120.252 Y105.789 E3.31699
G1 X121.166 Y105.903 E3.33537
G1 X122.343 Y106.171 E3.35946
G1 X123.136 Y106.4 E3.37593
G1 X123.458 Y106.499 E3.38265
G1 X123.971 Y106.665 E3.39341
G1 X124.273 Y106.768 E3.39978
G1 X124.727 Y106.933 E3.40942
G1 X125.264 Y107.141 E3.42091
G1 X125.923 Y107.41 E3.43512
G1 X126.759 Y107.795 E3.45349
G1 X127.529 Y108.231 E3.47114
G1 X127.904 Y108.465 E3.47997
G1 X128.149 Y108.623 E3.48578
G1 X128.692 Y108.983 E3.49878
G1 X129.264 Y109.39 E3.51279
G1 X130.12 Y110.043 E3.53428
G1 X130.351 Y110.224 E3.54014
G1 X130.772 Y110.564 E3.55094
G1 X131.479 Y111.19 E3.56978
G1 X132.011 Y111.706 E3.58457
G1 X132.283 Y111.979 E3.59226
G1 X132.919 Y112.677 E3.61111
G1 X133.263 Y113.09 E3.62183
G1 X133.462 Y113.336 E3.62815
G1 X133.672 Y113.604 E3.63494
G1 X134.379 Y114.624 E3.65971
G1 X134.896 Y115.472 E3.67953
G1 X135.202 Y115.994 E3.6916
G1 X135.608 Y116.713 E3.70808
G1 X135.824 Y117.115 E3.71719
G1 X137.109 Y119.47 E3.77072
G1 X138.381 Y121.65 E3.82109
G1 X139.912 Y124.109 E3.8789
G1 X139.969 Y124.197 E3.88099
G1 X140.434 Y124.991 E3.89935
G1 X140.828 Y125.823 E3.91772
G1 X141.149 Y126.686 E3.9361
G1 X141.385 Y127.541 E3.9538
G1 X141.504 Y128.109 E3.96538
G1 X141.632 Y128.826 E3.97992
G1 X142.177 Y132.137 E4.04688
G1 X142.305 Y132.977 E4.06384
G1 X142.403 Y133.892 E4.0822
G1 X142.421 Y134.813 E4.10058
G1 X142.359 Y135.731 E4.11895
G1 X142.218 Y136.641 E4.13732
G1 X141.998 Y137.535 E4.15569
G1 X141.702 Y138.407 E4.17407
G1 X141.331 Y139.249 E4.19243
G1 X140.888 Y140.057 E4.21082
G1 X140.377 Y140.823 E4.2292
G1 X139.801 Y141.541 E4.24757
G1 X139.166 Y142.207 E4.26593
G1 X138.474 Y142.815 E4.28431
G1 X137.733 Y143.361 E4.30268
G1 X136.947 Y143.841 E4.32106
G1 X136.123 Y144.25 E4.33942
G1 X135.266 Y144.587 E4.3578
G1 X134.383 Y144.848 E4.37617
G1 X133.481 Y145.031 E4.39454
G1 X132.566 Y145.135 E4.41292
G1 X132.015 Y145.159 E4.42392
G1 X130.929 Y145.177 E4.4456
G1 X129.149 Y145.175 E4.48112
G1 X128.489 Y145.166 E4.49429
G1 X127.588 Y145.115 E4.5123
G1 X126.465 Y145.004 E4.53482
G1 X123.911 Y144.785 E4.58598
G1 X121.354 Y144.639 E4.63709
G1 X118.817 Y144.566 E4.68774
G1 X116.307 Y144.564 E4.73783
G1 X113.753 Y144.635 E4.78881
G1 X111.248 Y144.776 E4.83888
G1 X108.697 Y144.991 E4.88997
G1 X107.429 Y145.116 E4.9154
G1 X106.544 Y145.166 E4.93309
G1 X105.7 Y145.177 E4.94993
G1 X103.689 Y145.175 E4.99006
G1 X103.061 Y145.166 E5.0026
G1 X102.142 Y145.113 E5.02097
G1 X101.231 Y144.98 E5.03934
G1 X100.335 Y144.769 E5.05771
G1 X99.46 Y144.481 E5.07609
G1 X98.614 Y144.118 E5.09446
G1 X97.803 Y143.683 E5.11283
G1 X97.032 Y143.179 E5.13121
G1 X96.309 Y142.61 E5.14957
G1 X95.637 Y141.98 E5.16795
G1 X95.022 Y141.295 E5.18632
G1 X94.469 Y140.559 E5.2047
G1 X94.1 Y139.981 E5.21838
G1 X93.661 Y139.171 E5.23677
G1 X93.294 Y138.327 E5.25513
G1 X93.001 Y137.454 E5.27351
G1 X92.786 Y136.559 E5.29188
G1 X92.649 Y135.649 E5.31024
G1 X92.591 Y134.73 E5.32862
G1 X92.613 Y133.809 E5.347
G1 X92.698 Y133.012 E5.363
G1 X92.845 Y132.004 E5.38333
G1 X93.173 Y130.004 E5.42377
G1 X93.383 Y128.745 E5.44925
G1 X93.507 Y128.059 E5.46316
G1 X93.71 Y127.161 E5.48153
G1 X93.99 Y126.284 E5.4999
G1 X94.345 Y125.434 E5.51828
G1 X94.955 Y124.317 E5.54368
G1 X96.411 Y121.993 E5.59841
G1 X97.688 Y119.822 E5.64867
G1 X98.781 Y117.84 E5.69384
G1 X99.88 Y115.858 E5.73907
G1 X100.115 Y115.449 E5.74848
G1 X100.5 Y114.809 E5.76339
G1 X101.218 Y113.764 E5.78869
G1 X101.729 Y113.108 E5.80528
G1 X102.136 Y112.617 E5.81801
G1 X102.372 Y112.349 E5.82514
G1 X102.801 Y111.89 E5.83768
G1 X103.095 Y111.597 E5.84596
G1 X103.497 Y111.21 E5.85709
G0 F6000 X103.775 Y111.498
G1 F1200 X104.198 Y111.113 E5.86851
G1 X104.462 Y110.891 E5.87539
G1 X105.025 Y110.433 E5.88988
G1 X105.239 Y110.264 E5.89532
G1 X105.687 Y109.919 E5.9066
G1 X106.192 Y109.554 E5.91904
G1 X106.932 Y109.053 E5.93687
G1 X107.216 Y108.867 E5.94364
G1 X107.637 Y108.602 E5.95357
G1 X108.422 Y108.155 E5.9716
G1 X109.185 Y107.803 E5.98837
G1 X109.862 Y107.524 E6.00298
G1 X110.142 Y107.414 E6.00898
G1 X110.703 Y107.202 E6.02095
G1 X110.992 Y107.097 E6.02709
G1 X111.213 Y107.021 E6.03175
G1 X111.516 Y106.922 E6.03811
G1 X112.072 Y106.752 E6.04972
G1 X112.719 Y106.564 E6.06316
G1 X113.596 Y106.351 E6.08117
G1 X114.753 Y106.191 E6.10448
G1 X115.139 Y106.161 E6.11221
G1 X115.523 Y106.135 E6.11989
G1 X115.81 Y106.12 E6.12562
G1 X116.444 Y106.095 E6.13828
G1 X116.792 Y106.087 E6.14523
G1 X117.93 Y106.081 E6.16794
G1 X118.326 Y106.087 E6.17584
G1 X119.041 Y106.111 E6.19012
G1 X119.342 Y106.125 E6.19613
G1 X119.897 Y106.162 E6.20724
G1 X120.22 Y106.188 E6.2137
G1 X121.117 Y106.3 E6.23174
G1 X122.232 Y106.555 E6.25457
G1 X123.025 Y106.784 E6.27104
G1 X123.335 Y106.879 E6.27751
G1 X123.848 Y107.045 E6.28827
G1 X124.139 Y107.144 E6.2944
G1 X124.584 Y107.306 E6.30385
G1 X125.113 Y107.511 E6.31518
G1 X125.772 Y107.78 E6.32938
G1 X126.592 Y108.158 E6.3474
G1 X127.317 Y108.571 E6.36405
G1 X127.692 Y108.805 E6.37287
G1 X127.928 Y108.957 E6.37847
G1 X128.471 Y109.317 E6.39147
G1 X129.021 Y109.708 E6.40494
G1 X129.877 Y110.361 E6.42643
G1 X130.1 Y110.536 E6.43208
G1 X130.521 Y110.876 E6.44288
G1 X131.201 Y111.477 E6.46099
G1 X131.728 Y111.989 E6.47566
G1 X132 Y112.262 E6.48335
G1 X132.611 Y112.933 E6.50146
G1 X132.955 Y113.346 E6.51218
G1 X133.147 Y113.583 E6.51827
G1 X133.357 Y113.851 E6.52506
G1 X134.037 Y114.832 E6.54888
G1 X134.554 Y115.68 E6.5687
G1 X134.856 Y116.195 E6.58062
G1 X135.259 Y116.909 E6.59698
G1 X135.381 Y117.132 E6.60205
G1 X135.496 Y117.349 E6.60695
G1 X136.77 Y119.684 E6.66004
G1 X138.038 Y121.858 E6.71026
G1 X139.524 Y124.244 E6.76636
G1 X139.633 Y124.413 E6.77037
G1 X140.088 Y125.193 E6.78839
G1 X140.473 Y126.01 E6.80641
G1 X140.784 Y126.858 E6.82444
G1 X140.996 Y127.632 E6.84045
G1 X141.11 Y128.18 E6.85162
G1 X141.237 Y128.892 E6.86606
G1 X141.381 Y129.758 E6.88358
G1 X141.802 Y132.329 E6.93557
G1 X141.909 Y133.037 E6.94986
G1 X142.005 Y133.935 E6.96788
G1 X142.02 Y134.838 E6.9859
G1 X141.956 Y135.739 E7.00393
G1 X141.812 Y136.63 E7.02194
G1 X141.59 Y137.506 E7.03997
G1 X141.291 Y138.358 E7.05799
G1 X140.918 Y139.18 E7.076
G1 X140.474 Y139.967 E7.09404
G1 X139.962 Y140.711 E7.11206
G1 X139.386 Y141.406 E7.13007
G1 X138.751 Y142.048 E7.14809
G1 X138.061 Y142.632 E7.16613
G1 X137.323 Y143.152 E7.18415
G1 X136.542 Y143.604 E7.20216
G1 X135.723 Y143.986 E7.22019
G1 X134.874 Y144.294 E7.23822
G1 X134.001 Y144.526 E7.25624
G1 X133.111 Y144.679 E7.27426
G1 X132.008 Y144.759 E7.29633
G1 X130.929 Y144.777 E7.31787
G1 X129.155 Y144.775 E7.35327
G1 X128.495 Y144.766 E7.36644
G1 X127.628 Y144.717 E7.38377
G1 X126.542 Y144.609 E7.40555
G1 X123.897 Y144.383 E7.45853
G1 X121.388 Y144.239 E7.50868
G1 X118.829 Y144.166 E7.55977
G1 X116.296 Y144.164 E7.61032
G1 X113.756 Y144.235 E7.66103
G1 X111.228 Y144.377 E7.71155
G1 X108.622 Y144.596 E7.76374
G1 X107.39 Y144.718 E7.78845
G1 X106.538 Y144.766 E7.80548
G1 X105.701 Y144.777 E7.82218
G1 X103.695 Y144.775 E7.86221
G1 X103.067 Y144.766 E7.87475
G1 X102.165 Y144.713 E7.89278
G1 X101.272 Y144.581 E7.91079
G1 X100.394 Y144.37 E7.92881
G1 X99.538 Y144.082 E7.94684
G1 X98.711 Y143.719 E7.96486
G1 X97.919 Y143.285 E7.98288
G1 X97.168 Y142.783 E8.00091
G1 X96.465 Y142.216 E8.01893
G1 X95.815 Y141.589 E8.03696
G1 X95.223 Y140.907 E8.05498
G1 X94.467 Y139.815 E8.08148
G1 X94.443 Y139.775 E8.08242
G1 X94.013 Y138.981 E8.10044
G1 X93.655 Y138.152 E8.11846
G1 X93.371 Y137.294 E8.13649
G1 X93.165 Y136.415 E8.15451
G1 X93.038 Y135.521 E8.17253
G1 X92.989 Y134.619 E8.19055
G1 X93.021 Y133.716 E8.20859
G1 X93.094 Y133.069 E8.22158
G1 X93.24 Y132.068 E8.24177
G1 X93.568 Y130.069 E8.28219
G1 X93.777 Y128.816 E8.30754
G1 X93.901 Y128.13 E8.32146
G1 X94.1 Y127.249 E8.33948
G1 X94.377 Y126.389 E8.35751
G1 X94.729 Y125.558 E8.37552
G1 X95.294 Y124.529 E8.39895
G1 X96.762 Y122.186 E8.45412
G1 X98.04 Y120.012 E8.50445
G1 X99.131 Y118.034 E8.54953
G1 X100.23 Y116.052 E8.59475
G1 X100.461 Y115.651 E8.60399
G1 X100.843 Y115.015 E8.6188
G1 X101.533 Y114.01 E8.64312
G1 X102.044 Y113.354 E8.65972
G1 X102.436 Y112.881 E8.67198
G1 X102.672 Y112.613 E8.6791
G1 X103.085 Y112.172 E8.69116
G1 X103.373 Y111.885 E8.69927
G1 X103.775 Y111.498 E8.71041
G1 F2700 E3.71041
;MESH:antifognoseclip.stl
G0 F6000 X105.147 Y129.27
G0 X105.149 Y130.254
G0 X106.254 Y130.936
;TYPE:WALL-INNER
G1 F2700 E8.71041
G1 F1200 X106.193 Y131.182 E8.71547
G1 X105.6 Y133.577 E8.76471
G1 X104.577 Y133.576 E8.78512
G1 X104.575 Y133.576 E8.78516
G1 X104.343 Y133.576 E8.78979
G1 X104.38 Y133.346 E8.79267
G1 X104.777 Y130.935 E8.84143
G1 X106 Y130.936 E8.86584
G1 X106.001 Y130.936 E8.86586
G1 X106.254 Y130.936 E8.86892
G0 F6000 X106.765 Y130.536
G1 F1200 X106.704 Y130.782 E8.87398
G1 X105.913 Y133.977 E8.93967
G1 X104.106 Y133.976 E8.97573
G1 X104.104 Y133.976 E8.97577
G1 X103.872 Y133.976 E8.9804
G1 X103.909 Y133.746 E8.98328
G1 X104.222 Y131.836 E9.0219
G1 X104.438 Y130.535 E9.04822
G1 X106.511 Y130.536 E9.08959
G1 X106.512 Y130.536 E9.08961
G1 X106.765 Y130.536 E9.09267
G1 F2700 E4.09267
G0 F6000 X108.785 Y123.551
G0 X109.165 Y122.517
G0 X109.618 Y121.602
G0 X110.164 Y120.764
G0 X111.215 Y119.52
G0 X112.385 Y118.537
G0 X113.656 Y117.81
G0 X115.198 Y117.265
G0 X116.255 Y117.033
G0 X117.496 Y116.986
G0 X118.746 Y117.034
G0 X119.803 Y117.264
G0 X121.299 Y117.794
G0 X122.617 Y118.539
