;FLAVOR:Marlin
;TIME:5153
;Filament used: 3.13266m
;Layer height: 0.2
;MINX:78.94
;MINY:50.687
;MINZ:0.2
;MAXX:154.082
;MAXY:186.306
;MAXZ:20
;Generated with Cura_SteamEngine 4.8.0
M82 ;absolute extrusion mode
; Ender 3 Custom Start G-code
M117 Getting the bed up to temp!
M140 S60 ; Set Heat Bed temperature
M190 S60 ; Wait for Heat Bed temperature
M117 Pre-heating the extruder!
M104 S160; start warming extruder to 160
G28 ; Home all axes
M117 Auto bed-level GO!
G29 ; Auto bed-level (BL-Touch)
G92 E0 ; Reset Extruder
M117 Getting the extruder up to temp!
M104 S200 ; Set Extruder temperature
M109 S200 ; Wait for Extruder temperature
G1 Z1.0 F3000 ; move z up little to prevent scratching of surface
G1 X0.1 Y20 Z0.3 F5000.0 ; move to start-line position
M117 LET THE PURGE BEGIN!
G1 X0.1 Y200.0 Z0.3 F1500.0 E15 ; draw 1st line
G1 X0.4 Y200.0 Z0.3 F5000.0 ; move to side a little
G1 X0.4 Y20 Z0.3 F1500.0 E30 ; draw 2nd line
G92 E0 ; reset extruder
G1 Z1.0 F3000 ; move z up little to prevent scratching of surface
M117 Autobots! Roll Out!
; End of custom start GCode
G92 E0
G92 E0
G1 F2700 E-5
;LAYER_COUNT:101
;LAYER:0
M107
G0 F6000 X119.106 Y60.614 Z0.2
;TYPE:SKIRT
G1 F2700 E0
G1 F1200 X119.541 Y59.784 E0.03117
G1 X120.046 Y58.993 E0.06238
G1 X120.426 Y58.484 E0.08351
G1 X121.136 Y57.588 E0.12153
G1 X121.48 Y57.173 E0.13946
G1 X121.937 Y56.635 E0.16294
G1 X122.574 Y55.946 E0.19415
G1 X123.268 Y55.315 E0.22534
G1 X123.756 Y54.93 E0.24602
G1 X124.447 Y54.416 E0.27466
G1 X124.991 Y54.025 E0.29694
G1 X125.662 Y53.557 E0.32415
G1 X126.454 Y53.056 E0.35532
G1 X127.287 Y52.623 E0.38655
G1 X127.888 Y52.364 E0.40832
G1 X128.875 Y51.975 E0.4436
G1 X129.305 Y51.813 E0.45888
G1 X130.138 Y51.515 E0.48831
G1 X131.034 Y51.239 E0.51949
G1 X131.95 Y51.04 E0.55067
G1 X132.753 Y50.931 E0.57762
G1 X134.725 Y50.738 E0.64352
G1 X135.661 Y50.687 E0.6747
G1 X136.598 Y50.715 E0.70588
G1 X137.437 Y50.809 E0.73396
G1 X138.239 Y50.93 E0.76094
G1 X138.898 Y51.039 E0.78315
G1 X139.072 Y51.069 E0.78903
G1 X139.738 Y51.191 E0.81155
G1 X140.653 Y51.399 E0.84276
G1 X141.546 Y51.685 E0.87394
G1 X142.13 Y51.918 E0.89486
G1 X143.103 Y52.341 E0.93014
G1 X143.639 Y52.586 E0.94975
G1 X144.256 Y52.877 E0.97243
G1 X145.087 Y53.313 E1.00365
G1 X145.877 Y53.818 E1.03483
G1 X146.393 Y54.202 E1.05623
G1 X147.104 Y54.765 E1.08639
G1 X147.554 Y55.133 E1.10572
G1 X147.697 Y55.252 E1.11191
G1 X148.235 Y55.709 E1.13539
G1 X148.924 Y56.346 E1.1666
G1 X149.555 Y57.04 E1.1978
G1 X149.938 Y57.525 E1.21835
G1 X150.43 Y58.186 E1.24576
G1 X150.834 Y58.748 E1.26878
G1 X151.321 Y59.447 E1.29711
G1 X151.822 Y60.239 E1.32828
G1 X152.254 Y61.072 E1.35949
G1 X152.613 Y61.938 E1.39067
G1 X152.816 Y62.546 E1.41199
G1 X153.049 Y63.32 E1.43888
G1 X153.117 Y63.555 E1.44701
G1 X153.415 Y64.637 E1.48434
G1 X153.589 Y65.31 E1.50746
G1 X153.84 Y66.592 E1.55091
G1 X153.882 Y66.912 E1.56164
G1 X153.954 Y67.542 E1.58274
G1 X153.996 Y67.971 E1.59707
G1 X154.045 Y68.563 E1.61683
G1 X154.082 Y69.5 E1.64802
G1 X154.039 Y70.441 E1.67935
G1 X154.007 Y70.802 E1.6914
G1 X153.957 Y71.255 E1.70656
G1 X153.863 Y71.975 E1.73071
G1 X153.702 Y72.899 E1.76191
G1 X153.445 Y73.866 E1.79519
G1 X153.159 Y74.771 E1.82675
G1 X152.665 Y76.267 E1.87915
G1 X152.436 Y76.933 E1.90258
G1 X152.094 Y77.806 E1.93376
G1 X151.678 Y78.647 E1.96497
G1 X151.192 Y79.449 E1.99616
G1 X150.634 Y80.214 E2.02765
G1 X150.042 Y80.955 E2.0592
G1 X149.619 Y81.468 E2.08131
G1 X149.135 Y82.038 E2.10618
G1 X148.734 Y82.485 E2.12616
G1 X148.283 Y82.961 E2.14797
G1 X146.505 Y84.889 E2.2352
G1 X144.869 Y86.768 E2.31806
G1 X143.258 Y88.727 E2.40242
G1 X141.735 Y90.689 E2.48503
G1 X140.232 Y92.745 E2.56974
G1 X138.805 Y94.815 E2.65336
G1 X137.446 Y96.911 E2.73644
G1 X136.116 Y99.097 E2.82155
G1 X134.876 Y101.27 E2.90476
G1 X133.708 Y103.458 E2.98726
G1 X132.317 Y106.272 E3.09166
G1 X131.99 Y106.962 E3.11706
G1 X130.906 Y109.338 E3.20392
G1 X129.917 Y111.679 E3.28845
G1 X128.839 Y114.459 E3.38762
G1 X128.304 Y115.905 E3.4389
G1 X127.449 Y118.334 E3.52454
G1 X127.054 Y119.535 E3.5666
G1 X124.576 Y127.258 E3.83636
G1 X123.816 Y129.747 E3.92292
G1 X123.148 Y132.177 E4.00674
G1 X122.548 Y134.627 E4.09064
G1 X122.022 Y137.09 E4.1744
G1 X121.569 Y139.527 E4.25685
G1 X121.173 Y142.068 E4.34238
G1 X120.859 Y144.525 E4.42476
G1 X120.613 Y147.034 E4.50861
G1 X120.435 Y149.562 E4.5929
G1 X120.33 Y152.053 E4.67583
G1 X120.296 Y154.576 E4.75975
G1 X120.334 Y157.107 E4.84394
G1 X120.441 Y159.614 E4.9274
G1 X120.62 Y162.114 E5.01076
G1 X120.875 Y164.663 E5.09597
G1 X121.136 Y166.738 E5.16553
G1 X121.233 Y167.453 E5.18953
G1 X121.32 Y168.386 E5.22069
G1 X121.327 Y169.324 E5.25189
G1 X121.254 Y170.259 E5.28308
G1 X121.102 Y171.185 E5.31429
G1 X120.871 Y172.094 E5.34549
G1 X120.564 Y172.98 E5.37668
G1 X120.183 Y173.837 E5.40787
G1 X119.729 Y174.658 E5.43907
G1 X119.236 Y175.399 E5.46868
G1 X119.052 Y175.651 E5.47905
G1 X117.65 Y177.53 E5.55703
G1 X116.209 Y179.58 E5.64037
G1 X115.171 Y181.144 E5.7028
G1 X114.887 Y181.557 E5.71948
G1 X114.321 Y182.305 E5.75067
G1 X113.693 Y183.002 E5.78188
G1 X113.008 Y183.642 E5.81306
G1 X112.271 Y184.222 E5.84425
G1 X111.487 Y184.737 E5.87545
G1 X110.663 Y185.184 E5.90663
G1 X109.803 Y185.559 E5.93783
G1 X108.914 Y185.859 E5.96904
G1 X108.003 Y186.082 E6.00023
G1 X107.077 Y186.227 E6.03141
G1 X106.232 Y186.289 E6.05959
G1 X105.868 Y186.299 E6.0717
G1 X105.246 Y186.306 E6.09239
G1 X94.711 Y186.299 E6.44279
G1 X94.054 Y186.289 E6.46464
G1 X93.117 Y186.234 E6.49586
G1 X92.189 Y186.101 E6.52704
G1 X91.276 Y185.888 E6.55822
G1 X90.383 Y185.599 E6.58944
G1 X89.519 Y185.235 E6.62062
G1 X88.689 Y184.798 E6.65182
G1 X87.899 Y184.292 E6.68302
G1 X87.156 Y183.721 E6.71419
G1 X86.463 Y183.088 E6.74541
G1 X85.827 Y182.399 E6.77659
G1 X85.252 Y181.658 E6.80779
G1 X84.94 Y181.194 E6.82639
G1 X84.485 Y180.478 E6.8546
G1 X83.087 Y178.347 E6.93937
G1 X81.294 Y175.788 E7.0433
G1 X81.035 Y175.432 E7.05794
G1 X80.516 Y174.65 E7.08916
G1 X80.066 Y173.827 E7.12035
G1 X79.688 Y172.969 E7.15154
G1 X79.385 Y172.082 E7.18271
G1 X79.158 Y171.172 E7.21391
G1 X79.009 Y170.246 E7.2451
G1 X78.94 Y169.31 E7.27632
G1 X78.951 Y168.372 E7.30752
G1 X79.09 Y167.13 E7.34909
G1 X79.177 Y166.66 E7.36498
G1 X79.716 Y164.078 E7.45271
G1 X80.154 Y161.638 E7.53516
G1 X80.527 Y159.153 E7.61874
G1 X80.833 Y156.631 E7.70324
G1 X81.058 Y154.238 E7.78318
G1 X81.074 Y154.036 E7.78992
G1 X81.196 Y153.059 E7.82267
G1 X81.368 Y152.053 E7.85661
G1 X83.057 Y143.018 E8.16232
G1 X83.19 Y142.351 E8.18495
G1 X83.343 Y141.69 E8.20751
G1 X83.584 Y140.783 E8.23873
G1 X87.225 Y127.726 E8.68957
G1 X87.277 Y127.545 E8.69584
G1 X87.553 Y126.617 E8.72804
G1 X87.756 Y126.003 E8.74955
G1 X88.038 Y125.229 E8.77695
G1 X89.96 Y120.16 E8.95725
G1 X90.265 Y119.387 E8.98489
G1 X90.377 Y119.113 E8.99474
G1 X90.586 Y118.624 E9.01242
G1 X95.955 Y106.352 E9.45795
G1 X96.282 Y105.632 E9.48425
G1 X96.517 Y105.147 E9.50217
G1 X96.622 Y104.943 E9.5098
G1 X96.747 Y104.707 E9.51869
G1 X97.065 Y104.125 E9.54075
G1 X100.344 Y98.281 E9.76362
G1 X100.443 Y98.108 E9.77025
G1 X101.36 Y96.541 E9.83064
G1 X101.587 Y96.145 E9.84582
G1 X106.799 Y87.399 E10.18445
G1 X107.925 Y85.567 E10.25597
G1 X108.587 Y84.506 E10.29757
G1 X109.86 Y82.331 E10.38139
G1 X111.074 Y80.119 E10.46531
G1 X112.205 Y77.907 E10.54794
G1 X113.3 Y75.61 E10.63258
G1 X114.318 Y73.309 E10.71626
G1 X115.286 Y70.949 E10.8011
G1 X116.157 Y68.628 E10.88356
G1 X116.979 Y66.244 E10.96743
G1 X117.607 Y64.259 E11.03668
G1 X117.705 Y63.935 E11.04794
G1 X118.148 Y62.728 E11.0907
G1 X118.547 Y61.816 E11.12381
G1 X118.802 Y61.259 E11.14418
G1 X119.106 Y60.614 E11.1679
G0 F6000 X119.468 Y60.785
G1 F1200 X119.896 Y59.97 E11.19852
G1 X120.393 Y59.195 E11.22914
G1 X120.739 Y58.732 E11.24836
G1 X121.308 Y58.012 E11.27889
G1 X121.684 Y57.553 E11.29862
G1 X122.242 Y56.894 E11.32734
G1 X122.868 Y56.218 E11.35798
G1 X123.55 Y55.6 E11.3886
G1 X123.995 Y55.251 E11.4074
G1 X124.686 Y54.737 E11.43605
G1 X124.849 Y54.618 E11.44276
G1 X125.34 Y54.268 E11.46282
G1 X125.89 Y53.886 E11.48509
G1 X126.668 Y53.394 E11.51571
G1 X127.486 Y52.972 E11.54632
G1 X128.036 Y52.736 E11.56623
G1 X128.852 Y52.413 E11.59541
G1 X129.446 Y52.188 E11.61654
G1 X129.631 Y52.12 E11.6231
G1 X130.272 Y51.892 E11.64572
G1 X131.152 Y51.621 E11.67635
G1 X132.052 Y51.428 E11.70696
G1 X132.792 Y51.329 E11.7318
G1 X134.764 Y51.136 E11.7977
G1 X135.683 Y51.087 E11.82831
G1 X136.603 Y51.117 E11.85892
G1 X137.377 Y51.205 E11.88483
G1 X138.341 Y51.351 E11.91726
G1 X139 Y51.462 E11.93949
G1 X139.666 Y51.584 E11.96201
G1 X140.563 Y51.79 E11.99262
G1 X141.44 Y52.072 E12.02326
G1 X141.971 Y52.285 E12.04229
G1 X142.774 Y52.633 E12.0714
G1 X143.326 Y52.882 E12.09154
G1 X144.086 Y53.239 E12.11947
G1 X144.901 Y53.667 E12.15008
G1 X145.675 Y54.165 E12.18069
G1 X146.144 Y54.516 E12.20018
G1 X146.999 Y55.195 E12.23649
G1 X147.438 Y55.557 E12.25542
G1 X147.976 Y56.014 E12.2789
G1 X148.652 Y56.64 E12.30954
G1 X149.27 Y57.322 E12.34015
G1 X149.617 Y57.764 E12.35884
G1 X150.109 Y58.425 E12.38625
G1 X150.509 Y58.981 E12.40903
G1 X150.992 Y59.675 E12.43715
G1 X151.484 Y60.453 E12.46777
G1 X151.906 Y61.271 E12.49838
G1 X152.255 Y62.123 E12.529
G1 X152.433 Y62.661 E12.54785
G1 X152.666 Y63.435 E12.57474
G1 X152.731 Y63.662 E12.58259
G1 X153.028 Y64.737 E12.61968
G1 X153.202 Y65.41 E12.6428
G1 X153.444 Y66.646 E12.68469
G1 X153.484 Y66.958 E12.69516
G1 X153.556 Y67.582 E12.71605
G1 X153.597 Y68.004 E12.73015
G1 X153.646 Y68.596 E12.74991
G1 X153.682 Y69.516 E12.78053
G1 X153.641 Y70.406 E12.81016
G1 X153.609 Y70.767 E12.82222
G1 X153.561 Y71.203 E12.83681
G1 X153.467 Y71.923 E12.86096
G1 X153.308 Y72.83 E12.89158
G1 X153.063 Y73.745 E12.92309
G1 X152.737 Y74.776 E12.95905
G1 X152.287 Y76.137 E13.00673
G1 X152.058 Y76.803 E13.03015
G1 X151.721 Y77.659 E13.06075
G1 X151.311 Y78.484 E13.09139
G1 X150.831 Y79.269 E13.122
G1 X150.322 Y79.965 E13.15068
G1 X149.733 Y80.701 E13.18203
G1 X149.314 Y81.209 E13.20393
G1 X148.83 Y81.779 E13.2288
G1 X148.443 Y82.21 E13.24807
G1 X148.034 Y82.641 E13.26783
G1 X146.208 Y84.621 E13.35741
G1 X144.559 Y86.515 E13.44094
G1 X142.949 Y88.474 E13.52528
G1 X141.412 Y90.453 E13.60862
G1 X139.895 Y92.527 E13.69408
G1 X138.484 Y94.576 E13.77683
G1 X137.102 Y96.707 E13.86131
G1 X135.785 Y98.87 E13.94553
G1 X134.519 Y101.089 E14.03051
G1 X133.361 Y103.259 E14.11231
G1 X131.955 Y106.102 E14.2178
G1 X131.61 Y106.832 E14.24466
G1 X130.532 Y109.195 E14.33104
G1 X129.551 Y111.515 E14.41482
G1 X128.471 Y114.301 E14.5142
G1 X127.939 Y115.741 E14.56526
G1 X127.062 Y118.233 E14.65313
G1 X126.673 Y119.413 E14.69446
G1 X124.191 Y127.146 E14.96458
G1 X123.43 Y129.639 E15.05127
G1 X122.769 Y132.048 E15.13436
G1 X122.155 Y134.553 E15.22014
G1 X121.631 Y137.005 E15.30354
G1 X121.169 Y139.492 E15.38767
G1 X120.784 Y141.962 E15.47081
G1 X120.46 Y144.502 E15.55598
G1 X120.214 Y147.003 E15.63956
G1 X120.037 Y149.517 E15.72339
G1 X119.93 Y152.071 E15.80841
G1 X119.896 Y154.576 E15.89173
G1 X119.934 Y157.13 E15.97669
G1 X120.041 Y159.626 E16.05978
G1 X120.221 Y162.147 E16.14384
G1 X120.478 Y164.713 E16.22962
G1 X120.733 Y166.742 E16.29763
G1 X120.837 Y167.507 E16.32331
G1 X120.922 Y168.423 E16.35391
G1 X120.926 Y169.344 E16.38454
G1 X120.851 Y170.262 E16.41518
G1 X120.696 Y171.169 E16.44578
G1 X120.464 Y172.06 E16.4764
G1 X120.154 Y172.927 E16.50703
G1 X119.771 Y173.764 E16.53764
G1 X119.317 Y174.565 E16.56827
G1 X118.912 Y175.164 E16.59231
G1 X118.731 Y175.412 E16.60253
G1 X117.334 Y177.284 E16.68022
G1 X115.87 Y179.367 E16.7649
G1 X114.838 Y180.922 E16.82697
G1 X114.558 Y181.33 E16.84343
G1 X114.002 Y182.063 E16.87403
G1 X113.384 Y182.746 E16.90466
G1 X112.709 Y183.372 E16.93528
G1 X111.982 Y183.937 E16.96591
G1 X111.209 Y184.437 E16.99653
G1 X110.396 Y184.868 E17.02713
G1 X109.548 Y185.227 E17.05776
G1 X108.672 Y185.511 E17.08839
G1 X107.775 Y185.718 E17.11901
G1 X106.864 Y185.847 E17.14961
G1 X106.218 Y185.889 E17.17114
G1 X105.863 Y185.899 E17.18295
G1 X105.246 Y185.906 E17.20347
G1 X94.717 Y185.899 E17.55367
G1 X94.06 Y185.889 E17.57553
G1 X93.141 Y185.835 E17.60614
G1 X92.23 Y185.701 E17.63677
G1 X91.334 Y185.489 E17.66739
G1 X90.46 Y185.2 E17.69801
G1 X89.614 Y184.836 E17.72864
G1 X88.803 Y184.401 E17.75925
G1 X88.033 Y183.896 E17.78988
G1 X87.309 Y183.327 E17.82051
G1 X86.638 Y182.697 E17.85112
G1 X86.024 Y182.011 E17.88174
G1 X85.277 Y180.979 E17.92411
G1 X84.834 Y180.282 E17.95158
G1 X83.406 Y178.106 E18.03815
G1 X81.64 Y175.585 E18.14052
G1 X81.358 Y175.197 E18.15648
G1 X80.85 Y174.429 E18.1871
G1 X80.41 Y173.62 E18.21773
G1 X80.043 Y172.776 E18.24834
G1 X79.75 Y171.903 E18.27897
G1 X79.533 Y171.009 E18.30957
G1 X79.395 Y170.098 E18.34022
G1 X79.337 Y169.18 E18.37081
G1 X79.359 Y168.259 E18.40145
G1 X79.484 Y167.197 E18.43702
G1 X79.569 Y166.742 E18.45241
G1 X80.101 Y164.193 E18.53902
G1 X80.548 Y161.702 E18.62319
G1 X80.926 Y159.184 E18.70788
G1 X81.234 Y156.645 E18.79295
G1 X81.454 Y154.308 E18.87102
G1 X81.473 Y154.068 E18.87903
G1 X81.59 Y153.126 E18.9106
G1 X81.761 Y152.127 E18.94431
G1 X83.45 Y143.096 E19.24989
G1 X83.583 Y142.429 E19.27251
G1 X83.73 Y141.792 E19.29425
G1 X83.932 Y141.028 E19.32054
G1 X87.661 Y127.659 E19.78217
G1 X87.937 Y126.731 E19.81437
G1 X88.132 Y126.139 E19.8351
G1 X88.412 Y125.371 E19.86229
G1 X90.332 Y120.306 E20.04245
G1 X90.637 Y119.533 E20.07009
G1 X90.745 Y119.269 E20.07957
G1 X90.952 Y118.784 E20.09711
G1 X96.258 Y106.653 E20.5375
G1 X96.646 Y105.798 E20.56873
G1 X96.872 Y105.33 E20.58601
G1 X96.977 Y105.126 E20.59364
G1 X97.098 Y104.898 E20.60223
G1 X97.414 Y104.321 E20.62411
G1 X100.788 Y98.31 E20.85338
G1 X101.694 Y96.762 E20.91303
G1 X101.931 Y96.35 E20.92884
G1 X107.14 Y87.608 E21.26731
G1 X108.265 Y85.778 E21.33875
G1 X108.925 Y84.72 E21.38023
G1 X110.214 Y82.52 E21.46503
G1 X111.423 Y80.314 E21.5487
G1 X112.579 Y78.054 E21.63313
G1 X113.656 Y75.794 E21.7164
G1 X114.683 Y73.475 E21.80076
G1 X115.662 Y71.086 E21.88663
G1 X116.531 Y68.772 E21.96884
G1 X117.363 Y66.357 E22.0538
G1 X117.96 Y64.471 E22.11959
G1 X118.087 Y64.051 E22.13419
G1 X118.515 Y62.887 E22.17544
G1 X118.911 Y61.982 E22.20829
G1 X119.164 Y61.43 E22.22849
G1 X119.468 Y60.785 E22.2522
G0 F6000 X119.829 Y60.955
G1 F1200 X120.25 Y60.156 E22.28224
G1 X120.74 Y59.398 E22.31226
G1 X121.053 Y58.98 E22.32963
G1 X121.622 Y58.26 E22.36015
G1 X121.993 Y57.807 E22.37963
G1 X122.547 Y57.153 E22.40814
G1 X123.162 Y56.491 E22.43819
G1 X123.832 Y55.886 E22.46821
G1 X124.233 Y55.572 E22.48515
G1 X125.081 Y54.943 E22.52027
G1 X125.568 Y54.596 E22.54016
G1 X126.118 Y54.214 E22.56243
G1 X126.882 Y53.733 E22.59246
G1 X127.686 Y53.32 E22.62252
G1 X128.183 Y53.108 E22.64049
G1 X129.157 Y52.724 E22.67532
G1 X129.765 Y52.497 E22.6969
G1 X130.406 Y52.269 E22.71953
G1 X131.269 Y52.004 E22.74956
G1 X132.153 Y51.817 E22.77961
G1 X132.83 Y51.728 E22.80232
G1 X134.802 Y51.535 E22.86822
G1 X135.704 Y51.486 E22.89827
G1 X136.607 Y51.518 E22.92832
G1 X137.318 Y51.6 E22.95212
G1 X138.275 Y51.746 E22.98432
G1 X138.928 Y51.856 E23.00635
G1 X139.594 Y51.978 E23.02887
G1 X140.474 Y52.18 E23.0589
G1 X141.333 Y52.459 E23.08894
G1 X141.812 Y52.652 E23.10611
G1 X142.773 Y53.07 E23.14097
G1 X143.298 Y53.31 E23.16017
G1 X143.915 Y53.601 E23.18286
G1 X144.714 Y54.022 E23.2129
G1 X145.473 Y54.512 E23.24294
G1 X145.896 Y54.829 E23.26052
G1 X146.607 Y55.392 E23.29069
G1 X147.046 Y55.751 E23.30955
G1 X147.717 Y56.319 E23.33879
G1 X148.379 Y56.934 E23.36884
G1 X148.984 Y57.604 E23.39887
G1 X149.296 Y58.003 E23.41572
G1 X149.899 Y58.816 E23.44938
G1 X150.271 Y59.338 E23.4707
G1 X150.663 Y59.903 E23.49357
G1 X151.145 Y60.667 E23.52362
G1 X151.557 Y61.47 E23.55364
G1 X151.896 Y62.307 E23.58367
G1 X152.05 Y62.777 E23.60012
G1 X152.283 Y63.551 E23.62701
G1 X152.346 Y63.768 E23.63452
G1 X152.595 Y64.667 E23.66555
G1 X152.814 Y65.51 E23.69452
G1 X153.047 Y66.699 E23.73482
G1 X153.087 Y67.005 E23.74508
G1 X153.158 Y67.623 E23.76577
G1 X153.198 Y68.037 E23.7796
G1 X153.247 Y68.629 E23.79936
G1 X153.282 Y69.531 E23.82938
G1 X153.242 Y70.371 E23.85735
G1 X153.21 Y70.732 E23.86941
G1 X153.164 Y71.151 E23.88343
G1 X153.07 Y71.871 E23.90758
