;FLAVOR:Marlin
;TIME:2688
;Filament used: 0.969485m
;Layer height: 0.16
;MINX:93.548
;MINY:90.673
;MINZ:0.2
;MAXX:148.081
;MAXY:144.324
;MAXZ:33.4
;Generated with Cura_SteamEngine 4.7.1
M140 S60
M105
M190 S60
M104 S200
M105
M109 S200
M82 ;absolute extrusion mode
; Ender 3 Custom Start G-code
G92 E0 ; Reset Extruder
G28 ; Home all axes
G1 Z2.0 F3000 ; Move Z Axis up little to prevent scratching of Heat Bed
G1 X0.1 Y20 Z0.3 F5000.0 ; Move to start position
G1 X0.1 Y200.0 Z0.3 F1500.0 E15 ; Draw the first line
G1 X0.4 Y200.0 Z0.3 F5000.0 ; Move to side a little
G1 X0.4 Y20 Z0.3 F1500.0 E30 ; Draw the second line
G92 E0 ; Reset Extruder
G1 Z2.0 F3000 ; Move Z Axis up little to prevent scratching of Heat Bed
G1 X5 Y20 Z0.3 F5000.0 ; Move over to prevent blob squish
G92 E0
G92 E0
G1 F2700 E-5
;LAYER_COUNT:199
;LAYER:0
M107
G0 F6000 X101.245 Y96.01 Z0.2
;TYPE:SKIRT
G1 F2700 E0
G1 F1200 X101.374 Y95.877 E0.00616
G1 X101.81 Y95.452 E0.02641
G1 X102.199 Y95.093 E0.04402
G1 X102.711 Y94.649 E0.06656
G1 X102.927 Y94.473 E0.07583
G1 X103.258 Y94.214 E0.08981
G1 X103.506 Y94.029 E0.1001
G1 X103.716 Y93.877 E0.10872
G1 X104.001 Y93.678 E0.12028
G1 X104.134 Y93.588 E0.12562
G1 X104.437 Y93.39 E0.13766
G1 X104.672 Y93.242 E0.1469
G1 X105.046 Y93.017 E0.16141
G1 X105.251 Y92.899 E0.16928
G1 X105.876 Y92.566 E0.19284
G1 X106.229 Y92.392 E0.20592
G1 X106.709 Y92.169 E0.22353
G1 X106.831 Y92.116 E0.22795
G1 X107.188 Y91.968 E0.24081
G1 X107.633 Y91.793 E0.25671
G1 X108.251 Y91.571 E0.27855
G1 X108.564 Y91.469 E0.2895
G1 X109.254 Y91.269 E0.31339
G1 X109.654 Y91.167 E0.32712
G1 X110.297 Y91.023 E0.34904
G1 X110.625 Y90.96 E0.36015
G1 X111.238 Y90.861 E0.3808
G1 X111.76 Y90.791 E0.39832
G1 X112.283 Y90.733 E0.41582
G1 X112.388 Y90.724 E0.41933
G1 X112.932 Y90.691 E0.43745
G1 X113.238 Y90.68 E0.44764
G1 X113.684 Y90.673 E0.46247
G1 X113.9 Y90.674 E0.46966
G1 X114.432 Y90.689 E0.48736
G1 X114.941 Y90.716 E0.50431
G1 X115.63 Y90.775 E0.52731
G1 X115.965 Y90.814 E0.53853
G1 X116.627 Y90.911 E0.56078
G1 X116.935 Y90.966 E0.57119
G1 X117.617 Y91.11 E0.59437
G1 X118.05 Y91.216 E0.6092
G1 X118.681 Y91.391 E0.63098
G1 X119.105 Y91.522 E0.64574
G1 X119.641 Y91.703 E0.66455
G1 X119.783 Y91.755 E0.66958
G1 X120.522 Y92.056 E0.69612
G1 X121.205 Y92.364 E0.72104
G1 X121.924 Y92.721 E0.74774
G1 X122.079 Y92.805 E0.75361
G1 X122.52 Y93.057 E0.7705
G1 X122.888 Y93.279 E0.7848
G1 X123.501 Y93.677 E0.8091
G1 X123.832 Y93.908 E0.82253
G1 X124.393 Y94.327 E0.84582
G1 X124.669 Y94.547 E0.85756
G1 X125.19 Y94.989 E0.88028
G1 X125.586 Y95.347 E0.89804
G1 X126.075 Y95.818 E0.92062
G1 X126.205 Y95.951 E0.9268
G1 X126.432 Y96.19 E0.93777
G1 X127.105 Y96.921 E0.97082
G1 X143.258 Y114.972 E1.77648
G1 X143.794 Y115.585 E1.80356
G1 X143.975 Y115.797 E1.81283
G1 X144.242 Y116.119 E1.82675
G1 X144.734 Y116.759 E1.8536
G1 X144.828 Y116.891 E1.85899
G1 X144.994 Y117.131 E1.86869
G1 X145.243 Y117.501 E1.88353
G1 X145.557 Y117.996 E1.90302
G1 X145.682 Y118.205 E1.91112
G1 X146.047 Y118.866 E1.93624
G1 X146.318 Y119.399 E1.95612
G1 X146.618 Y120.037 E1.97957
G1 X146.772 Y120.395 E1.99253
G1 X147.027 Y121.045 E2.01576
G1 X147.103 Y121.258 E2.02328
G1 X147.216 Y121.59 E2.03494
G1 X147.325 Y121.943 E2.04723
G1 X147.408 Y122.228 E2.0571
G1 X147.582 Y122.905 E2.08035
G1 X147.74 Y123.612 E2.10445
G1 X147.896 Y124.469 E2.13342
G1 X147.927 Y124.688 E2.14078
G1 X147.967 Y124.997 E2.15114
G1 X147.989 Y125.192 E2.15767
G1 X148.036 Y125.722 E2.17536
G1 X148.049 Y125.925 E2.18213
G1 X148.063 Y126.207 E2.19152
G1 X148.073 Y126.468 E2.20021
G1 X148.081 Y126.883 E2.21401
G1 X148.079 Y127.226 E2.22542
G1 X148.072 Y127.554 E2.23633
G1 X148.039 Y128.202 E2.25791
G1 X148.015 Y128.5 E2.26786
G1 X147.934 Y129.218 E2.29189
G1 X147.831 Y129.918 E2.31542
G1 X147.557 Y131.225 E2.35984
G1 X147.375 Y131.889 E2.38274
G1 X147.171 Y132.549 E2.40571
G1 X147.111 Y132.724 E2.41187
G1 X147.014 Y132.995 E2.42144
G1 X146.941 Y133.191 E2.4284
G1 X146.717 Y133.747 E2.44833
G1 X146.511 Y134.196 E2.46477
G1 X146.175 Y134.888 E2.49035
G1 X145.777 Y135.634 E2.51847
G1 X145.611 Y135.918 E2.52941
G1 X145.301 Y136.417 E2.54895
G1 X145.139 Y136.663 E2.55875
G1 X144.874 Y137.047 E2.57427
G1 X144.755 Y137.212 E2.58103
G1 X144.488 Y137.567 E2.59581
G1 X144.448 Y137.618 E2.59796
G1 X144.194 Y137.93 E2.61135
G1 X143.779 Y138.421 E2.63273
G1 X143.359 Y138.89 E2.65367
G1 X143.23 Y139.026 E2.6599
G1 X142.742 Y139.509 E2.68274
G1 X142.397 Y139.83 E2.69841
G1 X142.117 Y140.082 E2.71094
G1 X141.98 Y140.201 E2.71698
G1 X141.536 Y140.567 E2.73612
G1 X141.267 Y140.777 E2.74747
G1 X140.927 Y141.032 E2.7616
G1 X140.522 Y141.317 E2.77807
G1 X140.328 Y141.447 E2.78584
G1 X140.011 Y141.652 E2.7984
G1 X139.908 Y141.716 E2.80243
G1 X139.403 Y142.011 E2.82188
G1 X138.843 Y142.319 E2.84314
G1 X138.156 Y142.666 E2.86874
G1 X137.879 Y142.794 E2.87889
G1 X137.291 Y143.046 E2.90016
G1 X136.963 Y143.175 E2.91189
G1 X136.644 Y143.295 E2.92322
G1 X136.549 Y143.329 E2.92658
G1 X136.254 Y143.429 E2.93694
G1 X136.018 Y143.506 E2.9452
G1 X135.347 Y143.702 E2.96845
G1 X134.768 Y143.851 E2.98833
G1 X134.363 Y143.947 E3.00217
G1 X133.825 Y144.054 E3.02042
G1 X133.517 Y144.107 E3.03081
G1 X133.152 Y144.163 E3.04309
G1 X133.043 Y144.178 E3.04675
G1 X132.586 Y144.231 E3.06206
G1 X132.292 Y144.259 E3.07188
G1 X131.881 Y144.291 E3.08559
G1 X131.69 Y144.302 E3.09195
G1 X131.147 Y144.32 E3.11002
G1 X130.652 Y144.324 E3.12649
G1 X129.958 Y144.307 E3.14958
G1 X129.577 Y144.286 E3.16227
G1 X128.962 Y144.235 E3.18279
G1 X128.72 Y144.208 E3.19089
G1 X128.03 Y144.109 E3.21408
G1 X127.514 Y144.018 E3.2315
G1 X126.818 Y143.872 E3.25516
G1 X126.535 Y143.803 E3.26485
G1 X125.859 Y143.615 E3.28818
G1 X125.28 Y143.434 E3.30836
G1 X124.603 Y143.198 E3.33221
G1 X124.406 Y143.122 E3.33923
G1 X124.105 Y143.001 E3.35002
G1 X123.905 Y142.917 E3.35723
G1 X123.641 Y142.802 E3.36681
G1 X122.975 Y142.48 E3.39142
G1 X122.492 Y142.226 E3.40957
G1 X121.948 Y141.919 E3.43034
G1 X121.665 Y141.749 E3.44132
G1 X121.023 Y141.333 E3.46677
G1 X120.65 Y141.072 E3.48191
G1 X120.118 Y140.676 E3.50397
G1 X119.808 Y140.43 E3.51713
G1 X119.518 Y140.191 E3.52963
G1 X119.24 Y139.95 E3.54186
G1 X118.782 Y139.54 E3.56231
G1 X116.856 Y137.863 E3.64725
G1 X114.886 Y136.244 E3.73206
G1 X112.903 Y134.706 E3.81553
G1 X110.877 Y133.224 E3.89902
G1 X108.827 Y131.812 E3.98181
G1 X106.676 Y130.418 E4.06706
G1 X104.532 Y129.114 E4.15052
G1 X102.396 Y127.897 E4.23229
G1 X100.06 Y126.663 E4.32016
G1 X99.482 Y126.351 E4.34201
G1 X98.676 Y125.871 E4.37321
G1 X97.915 Y125.323 E4.4044
G1 X97.264 Y124.771 E4.43279
G1 X97.116 Y124.635 E4.43947
G1 X96.453 Y123.971 E4.47068
G1 X95.849 Y123.254 E4.50186
G1 X95.309 Y122.487 E4.53306
G1 X94.835 Y121.678 E4.56425
G1 X94.432 Y120.831 E4.59544
G1 X94.103 Y119.952 E4.62666
G1 X93.85 Y119.049 E4.65785
G1 X93.675 Y118.128 E4.68903
G1 X93.568 Y116.972 E4.72764
G1 X93.562 Y116.821 E4.73267
G1 X93.554 Y116.509 E4.74305
G1 X93.548 Y115.952 E4.76158
G1 X93.548 Y114.541 E4.80851
G1 X93.557 Y113.874 E4.83069
G1 X93.61 Y112.937 E4.86191
G1 X93.82 Y111.627 E4.90604
G1 X94.062 Y110.721 E4.93723
G1 X94.471 Y109.625 E4.97613
G1 X94.925 Y108.581 E5.014
G1 X95.92 Y106.202 E5.09977
G1 X96.794 Y103.937 E5.18052
G1 X97.074 Y103.141 E5.20858
G1 X97.123 Y103.018 E5.21298
G1 X97.366 Y102.345 E5.23678
G1 X97.448 Y102.125 E5.24459
G1 X97.599 Y101.733 E5.25856
G1 X97.722 Y101.427 E5.26953
G1 X97.827 Y101.177 E5.27855
G1 X98.019 Y100.747 E5.29421
G1 X98.167 Y100.433 E5.30576
G1 X98.375 Y100.015 E5.32129
G1 X98.472 Y99.83 E5.32824
G1 X98.612 Y99.572 E5.338
G1 X98.669 Y99.47 E5.34189
G1 X98.922 Y99.04 E5.35848
G1 X99.121 Y98.719 E5.37104
G1 X99.429 Y98.25 E5.3897
G1 X99.587 Y98.022 E5.39893
G1 X99.854 Y97.653 E5.41408
G1 X99.916 Y97.571 E5.4175
G1 X100.273 Y97.123 E5.43655
G1 X100.724 Y96.587 E5.45985
G1 X101.245 Y96.01 E5.48571
G0 F6000 X101.532 Y96.289
G1 F1200 X101.661 Y96.156 E5.49187
G1 X102.081 Y95.746 E5.51139
G1 X102.47 Y95.387 E5.529
G1 X102.963 Y94.96 E5.55069
G1 X103.179 Y94.784 E5.55996
G1 X103.498 Y94.534 E5.57344
G1 X103.741 Y94.353 E5.58351
G1 X103.951 Y94.201 E5.59214
G1 X104.225 Y94.009 E5.60326
G1 X104.358 Y93.919 E5.60861
G1 X104.65 Y93.729 E5.62019
G1 X104.885 Y93.581 E5.62943
G1 X105.246 Y93.363 E5.64346
G1 X105.451 Y93.245 E5.65132
G1 X106.052 Y92.924 E5.67398
G1 X106.405 Y92.75 E5.68707
G1 X106.868 Y92.536 E5.70404
G1 X106.99 Y92.483 E5.70846
G1 X107.335 Y92.34 E5.72088
G1 X107.78 Y92.165 E5.73679
G1 X108.375 Y91.952 E5.75781
G1 X108.688 Y91.85 E5.76876
G1 X109.353 Y91.657 E5.79179
G1 X109.753 Y91.555 E5.80552
G1 X110.373 Y91.416 E5.82665
G1 X110.701 Y91.353 E5.83776
G1 X111.291 Y91.257 E5.85764
G1 X111.813 Y91.187 E5.87516
G1 X112.317 Y91.132 E5.89202
G1 X112.422 Y91.123 E5.89553
G1 X112.946 Y91.091 E5.91299
G1 X113.252 Y91.08 E5.92317
G1 X113.682 Y91.073 E5.93748
G1 X113.898 Y91.074 E5.94466
G1 X114.41 Y91.089 E5.9617
G1 X114.919 Y91.116 E5.97865
G1 X115.584 Y91.172 E6.00085
G1 X115.919 Y91.211 E6.01206
G1 X116.556 Y91.305 E6.03348
G1 X116.864 Y91.36 E6.04389
G1 X117.521 Y91.499 E6.06622
G1 X117.954 Y91.605 E6.08105
G1 X118.563 Y91.773 E6.10206
G1 X118.987 Y91.904 E6.11682
G1 X119.503 Y92.078 E6.13493
G1 X119.645 Y92.13 E6.13996
G1 X120.358 Y92.421 E6.16557
G1 X121.041 Y92.729 E6.19049
G1 X121.734 Y93.073 E6.21623
G1 X121.889 Y93.157 E6.22209
G1 X122.313 Y93.4 E6.23835
G1 X122.681 Y93.622 E6.25264
G1 X123.272 Y94.006 E6.27608
G1 X123.603 Y94.237 E6.28951
G1 X124.144 Y94.64 E6.31194
G1 X124.42 Y94.86 E6.32368
G1 X124.922 Y95.286 E6.34558
G1 X125.318 Y95.644 E6.36334
G1 X125.789 Y96.098 E6.38509
G1 X125.919 Y96.231 E6.39128
G1 X126.137 Y96.46 E6.4018
G1 X126.81 Y97.191 E6.43484
G1 X143.047 Y115.337 E7.24473
G1 X143.493 Y115.848 E7.26728
G1 X143.667 Y116.052 E7.2762
G1 X143.934 Y116.374 E7.29011
G1 X144.408 Y116.991 E7.31599
G1 X144.502 Y117.123 E7.32138
G1 X144.662 Y117.354 E7.33073
G1 X144.911 Y117.724 E7.34556
G1 X145.214 Y118.201 E7.36436
G1 X145.339 Y118.41 E7.37246
G1 X145.691 Y119.047 E7.39666
G1 X145.962 Y119.58 E7.41655
G1 X146.25 Y120.195 E7.43914
G1 X146.404 Y120.553 E7.4521
G1 X146.651 Y121.18 E7.47451
G1 X146.727 Y121.393 E7.48204
G1 X146.836 Y121.714 E7.49331
G1 X146.941 Y122.055 E7.50518
G1 X147.024 Y122.34 E7.51505
G1 X147.192 Y122.992 E7.53745
G1 X147.35 Y123.699 E7.56154
G1 X147.5 Y124.525 E7.58946
G1 X147.531 Y124.744 E7.59682
G1 X147.569 Y125.042 E7.60681
G1 X147.591 Y125.237 E7.61334
G1 X147.636 Y125.748 E7.6304
G1 X147.649 Y125.951 E7.63716
G1 X147.663 Y126.222 E7.64619
G1 X147.673 Y126.483 E7.65488
G1 X147.68 Y126.785 E7.66492
G1 X147.68 Y127.217 E7.67929
G1 X147.673 Y127.545 E7.69021
G1 X147.641 Y128.17 E7.71102
G1 X147.617 Y128.468 E7.72096
G1 X147.538 Y129.16 E7.74413
G1 X147.435 Y129.86 E7.76766
G1 X147.171 Y131.119 E7.81045
G1 X146.989 Y131.783 E7.83335
G1 X146.793 Y132.419 E7.85548
G1 X146.733 Y132.594 E7.86163
G1 X146.639 Y132.856 E7.87089
G1 X146.566 Y133.052 E7.87785
G1 X146.35 Y133.588 E7.89707
G1 X146.151 Y134.021 E7.91292
G1 X145.815 Y134.713 E7.93851
G1 X145.431 Y135.432 E7.96562
G1 X145.265 Y135.716 E7.97656
G1 X144.967 Y136.197 E7.99538
G1 X144.805 Y136.443 E8.00517
G1 X144.549 Y136.813 E8.02014
G1 X144.43 Y136.978 E8.0269
G1 X144.174 Y137.32 E8.04111
G1 X144.134 Y137.371 E8.04327
G1 X143.889 Y137.672 E8.05618
G1 X143.474 Y138.163 E8.07756
G1 X143.069 Y138.615 E8.09775
G1 X142.94 Y138.751 E8.10398
G1 X142.47 Y139.216 E8.12597
G1 X142.125 Y139.537 E8.14164
G1 X141.855 Y139.78 E8.15373
G1 X141.718 Y139.899 E8.15976
G1 X141.29 Y140.251 E8.17819
G1 X141.021 Y140.461 E8.18954
G1 X140.789 Y140.637 E8.19923
G1 X140.69 Y140.71 E8.20332
G1 X140.3 Y140.985 E8.21919
G1 X140.106 Y141.115 E8.22696
G1 X139.799 Y141.312 E8.23909
G1 X139.696 Y141.376 E8.24312
G1 X139.21 Y141.661 E8.26186
G1 X138.65 Y141.969 E8.28312
G1 X137.988 Y142.303 E8.30778
G1 X137.711 Y142.431 E8.31793
G1 X137.145 Y142.674 E8.33842
G1 X136.817 Y142.803 E8.35014
G1 X136.509 Y142.918 E8.36108
G1 X136.414 Y142.952 E8.36443
G1 X136.13 Y143.049 E8.37441
G1 X135.894 Y143.126 E8.38267
G1 X135.248 Y143.315 E8.40506
G1 X134.669 Y143.464 E8.42494
G1 X134.276 Y143.557 E8.43837
G1 X133.758 Y143.659 E8.45593
G1 X133.45 Y143.712 E8.46633
G1 X133.097 Y143.767 E8.47821
G1 X132.988 Y143.782 E8.48187
G1 X132.548 Y143.833 E8.4966
G1 X132.254 Y143.861 E8.50643
G1 X131.858 Y143.891 E8.51963
G1 X131.667 Y143.902 E8.526
G1 X131.144 Y143.92 E8.5434
G1 X130.649 Y143.924 E8.55987
G1 X129.98 Y143.908 E8.58212
G1 X129.599 Y143.887 E8.59482
G1 X129.007 Y143.838 E8.61457
G1 X128.765 Y143.811 E8.62267
G1 X128.099 Y143.715 E8.64505
G1 X127.583 Y143.624 E8.66248
G1 X126.913 Y143.483 E8.68525
G1 X126.63 Y143.414 E8.69494
G1 X125.978 Y143.233 E8.71745
G1 X125.399 Y143.052 E8.73762
G1 X124.747 Y142.825 E8.76058
G1 X124.55 Y142.749 E8.76761
G1 X124.26 Y142.632 E8.77801
G1 X124.06 Y142.548 E8.78522
G1 X123.803 Y142.436 E8.79455
G1 X123.161 Y142.126 E8.81826
G1 X122.678 Y141.872 E8.83641
G1 X122.154 Y141.577 E8.85641
G1 X121.871 Y141.407 E8.86739
G1 X121.252 Y141.005 E8.89194
G1 X120.879 Y140.744 E8.90708
G1 X120.367 Y140.362 E8.92833
G1 X120.057 Y140.116 E8.94149
G1 X119.777 Y139.887 E8.95352
G1 X119.507 Y139.652 E8.96543
G1 X119.069 Y139.26 E8.98498
G1 X117.107 Y137.551 E9.07152
G1 X115.14 Y135.934 E9.15621
G1 X113.139 Y134.383 E9.24041
G1 X111.117 Y132.904 E9.32374
G1 X109.025 Y131.463 E9.40823
G1 X106.921 Y130.099 E9.49162
G1 X104.732 Y128.769 E9.57682
G1 X102.566 Y127.534 E9.65975
G1 X100.25 Y126.311 E9.74686
G1 X99.672 Y125.999 E9.7687
G1 X98.882 Y125.527 E9.79931
G1 X98.135 Y124.988 E9.82995
G1 X97.535 Y124.476 E9.85618
G1 X97.387 Y124.34 E9.86287
G1 X96.737 Y123.688 E9.89349
G1 X96.145 Y122.983 E9.92411
G1 X95.618 Y122.228 E9.95473
G1 X95.157 Y121.431 E9.98536
G1 X94.768 Y120.597 E10.01596
G1 X94.452 Y119.732 E10.04659
G1 X94.213 Y118.843 E10.07721
G1 X94.052 Y117.936 E10.10785
G1 X93.967 Y116.956 E10.14057
G1 X93.961 Y116.805 E10.14559
G1 X93.954 Y116.504 E10.15561
G1 X93.948 Y115.951 E10.174
G1 X93.948 Y114.546 E10.22073
G1 X93.957 Y113.879 E10.24292
G1 X94.009 Y112.96 E10.27353
G1 X94.21 Y111.714 E10.31551
G1 X94.449 Y110.824 E10.34616
G1 X94.838 Y109.784 E10.38309
G1 X95.29 Y108.745 E10.42078
G1 X96.291 Y106.351 E10.50708
G1 X97.165 Y104.087 E10.5878
G1 X97.451 Y103.273 E10.6165
G1 X97.502 Y103.145 E10.62108
G1 X97.742 Y102.481 E10.64456
G1 X97.821 Y102.269 E10.65209
G1 X97.972 Y101.877 E10.66606
G1 X98.091 Y101.582 E10.67664
G1 X98.196 Y101.332 E10.68566
G1 X98.381 Y100.918 E10.70074
G1 X98.529 Y100.604 E10.71229
G1 X98.729 Y100.201 E10.72725
G1 X98.826 Y100.016 E10.7342
G1 X98.961 Y99.767 E10.74362
G1 X99.018 Y99.665 E10.7475
G1 X99.262 Y99.251 E10.76349
G1 X99.461 Y98.93 E10.77605
G1 X99.758 Y98.477 E10.79406
G1 X99.916 Y98.249 E10.80329
G1 X100.173 Y97.894 E10.81787
G1 X100.235 Y97.812 E10.82129
G1 X100.579 Y97.38 E10.83965
G1 X101.03 Y96.844 E10.86295
G1 X101.532 Y96.289 E10.88784
G0 F6000 X101.819 Y96.567
G1 F1200 X101.948 Y96.434 E10.89401
G1 X102.352 Y96.04 E10.91277
G1 X102.741 Y95.681 E10.93038
G1 X103.216 Y95.27 E10.95127
G1 X103.432 Y95.094 E10.96054
G1 X103.739 Y94.853 E10.97352
G1 X103.975 Y94.677 E10.98331
G1 X104.185 Y94.525 E10.99193
G1 X104.45 Y94.34 E11.00268
G1 X104.583 Y94.25 E11.00803
G1 X104.863 Y94.067 E11.01915
G1 X105.098 Y93.919 E11.02839
G1 X105.446 Y93.71 E11.04189
G1 X105.651 Y93.592 E11.04976
G1 X106.229 Y93.283 E11.07156
G1 X106.582 Y93.109 E11.08465
G1 X107.028 Y92.903 E11.10099
G1 X107.15 Y92.85 E11.10541
G1 X107.481 Y92.713 E11.11732
G1 X107.926 Y92.538 E11.13323
G1 X108.499 Y92.332 E11.15348
G1 X108.812 Y92.23 E11.16443
G1 X109.452 Y92.044 E11.1866
G1 X109.852 Y91.942 E11.20033
G1 X110.448 Y91.809 E11.22064
G1 X110.776 Y91.746 E11.23175
G1 X111.344 Y91.653 E11.25089
G1 X111.866 Y91.583 E11.26841
G1 X112.351 Y91.53 E11.28463
G1 X112.456 Y91.521 E11.28814
G1 X112.961 Y91.491 E11.30496
G1 X113.267 Y91.48 E11.31515
G1 X113.68 Y91.473 E11.32889
G1 X113.896 Y91.474 E11.33607
G1 X114.389 Y91.488 E11.35248
G1 X114.898 Y91.515 E11.36943
G1 X115.537 Y91.569 E11.39076
G1 X115.872 Y91.608 E11.40198
G1 X116.486 Y91.699 E11.42262
G1 X116.794 Y91.754 E11.43303
