;FLAVOR:Marlin
;TIME:2246
;Filament used: 1.11549m
;Layer height: 0.2
;MINX:96.45
;MINY:96.448
;MINZ:0.2
;MAXX:138.55
;MAXY:138.55
;MAXZ:16
;Generated with Cura_SteamEngine 4.8.0
M82 ;absolute extrusion mode
; Ender 3 Custom Start G-code
M117 Getting the bed up to temp!
M140 S60 ; Set Heat Bed temperature
M190 S60 ; Wait for Heat Bed temperature
M117 Pre-heating the extruder!
M104 S160; start warming extruder to 160
G28 ; Home all axes
M117 Auto bed-level GO!
G29 ; Auto bed-level (BL-Touch)
G92 E0 ; Reset Extruder
M117 Getting the extruder up to temp!
M104 S200 ; Set Extruder temperature
M109 S200 ; Wait for Extruder temperature
G1 Z1.0 F3000 ; move z up little to prevent scratching of surface
G1 X0.1 Y20 Z0.3 F5000.0 ; move to start-line position
M117 LET THE PURGE BEGIN!
G1 X0.1 Y200.0 Z0.3 F1500.0 E15 ; draw 1st line
G1 X0.4 Y200.0 Z0.3 F5000.0 ; move to side a little
G1 X0.4 Y20 Z0.3 F1500.0 E30 ; draw 2nd line
G92 E0 ; reset extruder
G1 Z1.0 F3000 ; move z up little to prevent scratching of surface
M117 Autobots! Roll Out!
; End of custom start GCode
G92 E0
G92 E0
G1 F2700 E-5
;LAYER_COUNT:80
;LAYER:0
M107
G0 F6000 X99.648 Y99.714 Z0.2
;TYPE:SKIRT
G1 F2700 E0
G1 F1200 X100.336 Y99.077 E0.03119
G1 X101.076 Y98.501 E0.06237
G1 X101.862 Y97.989 E0.09357
G1 X102.689 Y97.547 E0.12476
G1 X103.551 Y97.177 E0.15596
G1 X104.441 Y96.881 E0.18716
G1 X105.353 Y96.663 E0.21835
G1 X106.28 Y96.522 E0.24953
G1 X107.151 Y96.463 E0.27857
G1 X107.472 Y96.454 E0.28925
G1 X107.775 Y96.45 E0.29933
G1 X112.614 Y96.448 E0.46027
G1 X113.785 Y96.451 E0.49922
G1 X121.099 Y96.459 E0.74249
G1 X121.911 Y96.456 E0.76949
G1 X122.692 Y96.45 E0.79547
G1 X127.001 Y96.451 E0.93879
G1 X127.699 Y96.461 E0.96201
G1 X128.635 Y96.515 E0.99319
G1 X129.563 Y96.647 E1.02437
G1 X130.477 Y96.859 E1.05557
G1 X131.369 Y97.148 E1.08676
G1 X132.234 Y97.511 E1.11796
G1 X133.064 Y97.947 E1.14914
G1 X133.855 Y98.452 E1.18036
G1 X134.599 Y99.023 E1.21155
G1 X135.292 Y99.655 E1.24274
G1 X135.929 Y100.343 E1.27393
G1 X136.504 Y101.084 E1.30512
G1 X137.015 Y101.87 E1.33631
G1 X137.457 Y102.698 E1.36752
G1 X137.826 Y103.56 E1.39871
G1 X138.121 Y104.45 E1.4299
G1 X138.339 Y105.362 E1.46108
G1 X138.479 Y106.29 E1.4923
G1 X138.537 Y107.151 E1.521
G1 X138.546 Y107.471 E1.53165
G1 X138.55 Y107.78 E1.54193
G1 X138.549 Y126.95 E2.17952
G1 X138.54 Y127.677 E2.2037
G1 X138.489 Y128.614 E2.23492
G1 X138.357 Y129.542 E2.26609
G1 X138.148 Y130.456 E2.29728
G1 X137.861 Y131.349 E2.32847
G1 X137.499 Y132.215 E2.35969
G1 X137.065 Y133.046 E2.39087
G1 X136.561 Y133.837 E2.42207
G1 X135.992 Y134.582 E2.45325
G1 X135.361 Y135.277 E2.48447
G1 X134.674 Y135.915 E2.51565
G1 X133.935 Y136.492 E2.54684
G1 X133.149 Y137.004 E2.57804
G1 X132.323 Y137.447 E2.60921
G1 X131.461 Y137.819 E2.64044
G1 X130.572 Y138.115 E2.6716
G1 X129.66 Y138.335 E2.70281
G1 X128.733 Y138.476 E2.73399
G1 X127.849 Y138.537 E2.76346
G1 X127.528 Y138.546 E2.77414
G1 X127.22 Y138.55 E2.78439
G1 X108.015 Y138.549 E3.42315
G1 X107.317 Y138.54 E3.44637
G1 X106.381 Y138.488 E3.47755
G1 X105.452 Y138.356 E3.50876
G1 X104.538 Y138.146 E3.53995
G1 X103.645 Y137.859 E3.57115
G1 X102.78 Y137.496 E3.60235
G1 X101.949 Y137.062 E3.63353
G1 X101.158 Y136.558 E3.66472
G1 X100.413 Y135.988 E3.69592
G1 X99.719 Y135.357 E3.72712
G1 X99.082 Y134.67 E3.75828
G1 X98.505 Y133.93 E3.78949
G1 X97.993 Y133.144 E3.82069
G1 X97.55 Y132.317 E3.85189
G1 X97.179 Y131.456 E3.88308
G1 X96.883 Y130.566 E3.91427
G1 X96.664 Y129.654 E3.94547
G1 X96.523 Y128.727 E3.97665
G1 X96.463 Y127.838 E4.00629
G1 X96.454 Y127.505 E4.01737
G1 X96.45 Y127.208 E4.02725
G1 X96.451 Y107.975 E4.66694
G1 X96.46 Y107.31 E4.68906
G1 X96.513 Y106.374 E4.72024
G1 X96.645 Y105.445 E4.75145
G1 X96.856 Y104.531 E4.78265
G1 X97.144 Y103.639 E4.81383
G1 X97.507 Y102.774 E4.84503
G1 X97.942 Y101.943 E4.87622
G1 X98.446 Y101.153 E4.90739
G1 X99.016 Y100.408 E4.93859
G1 X99.648 Y99.714 E4.96981
G0 F6000 X100.039 Y99.889
G1 F1200 X100.724 Y99.273 E5.00045
G1 X101.46 Y98.72 E5.03107
G1 X102.241 Y98.232 E5.0617
G1 X103.061 Y97.814 E5.09231
G1 X103.915 Y97.469 E5.12295
G1 X104.795 Y97.199 E5.15356
G1 X105.695 Y97.007 E5.18417
G1 X106.609 Y96.893 E5.21481
G1 X107.162 Y96.863 E5.23323
G1 X107.483 Y96.854 E5.24391
G1 X107.776 Y96.85 E5.25365
G1 X112.613 Y96.848 E5.41453
G1 X113.784 Y96.851 E5.45348
G1 X121.1 Y96.859 E5.69681
G1 X121.915 Y96.856 E5.72392
G1 X122.696 Y96.85 E5.7499
G1 X126.995 Y96.851 E5.89288
G1 X127.693 Y96.861 E5.9161
G1 X128.612 Y96.914 E5.94672
G1 X129.523 Y97.047 E5.97734
G1 X130.419 Y97.258 E6.00795
G1 X131.293 Y97.546 E6.03856
G1 X132.14 Y97.909 E6.06921
G1 X132.951 Y98.344 E6.09982
G1 X133.721 Y98.848 E6.13043
G1 X134.445 Y99.417 E6.16105
G1 X135.117 Y100.047 E6.19169
G1 X135.732 Y100.732 E6.22231
G1 X136.285 Y101.468 E6.25293
G1 X136.772 Y102.249 E6.28354
G1 X137.189 Y103.07 E6.31417
G1 X137.534 Y103.924 E6.3448
G1 X137.803 Y104.804 E6.37541
G1 X137.995 Y105.705 E6.40605
G1 X138.108 Y106.618 E6.43665
G1 X138.137 Y107.162 E6.45477
G1 X138.146 Y107.482 E6.46541
G1 X138.15 Y107.78 E6.47533
G1 X138.149 Y126.945 E7.11276
G1 X138.14 Y127.672 E7.13694
G1 X138.089 Y128.591 E7.16755
G1 X137.958 Y129.503 E7.1982
G1 X137.748 Y130.399 E7.22881
G1 X137.462 Y131.274 E7.25942
G1 X137.101 Y132.121 E7.29005
G1 X136.667 Y132.933 E7.32067
G1 X136.165 Y133.705 E7.3513
G1 X135.597 Y134.43 E7.38193
G1 X134.969 Y135.103 E7.41255
G1 X134.285 Y135.719 E7.44316
G1 X133.55 Y136.273 E7.47377
G1 X132.77 Y136.762 E7.50439
G1 X131.95 Y137.181 E7.53502
G1 X131.097 Y137.527 E7.56564
G1 X130.217 Y137.798 E7.59626
G1 X129.317 Y137.991 E7.62688
G1 X128.403 Y138.106 E7.65752
G1 X127.838 Y138.137 E7.67634
G1 X127.517 Y138.146 E7.68702
G1 X127.22 Y138.15 E7.6969
G1 X108.02 Y138.149 E8.33549
G1 X107.322 Y138.14 E8.35871
G1 X106.403 Y138.088 E8.38932
G1 X105.492 Y137.957 E8.41994
G1 X104.596 Y137.747 E8.45054
G1 X103.721 Y137.46 E8.48117
G1 X102.874 Y137.098 E8.51181
G1 X102.062 Y136.664 E8.54243
G1 X101.291 Y136.162 E8.57303
G1 X100.566 Y135.594 E8.60366
G1 X99.893 Y134.965 E8.6343
G1 X99.278 Y134.281 E8.6649
G1 X98.724 Y133.546 E8.69551
G1 X98.236 Y132.765 E8.72614
G1 X97.817 Y131.945 E8.75677
G1 X97.471 Y131.092 E8.78738
G1 X97.201 Y130.212 E8.818
G1 X97.008 Y129.311 E8.84865
G1 X96.894 Y128.398 E8.87925
G1 X96.863 Y127.827 E8.89827
G1 X96.854 Y127.494 E8.90935
G1 X96.85 Y127.208 E8.91886
G1 X96.851 Y107.981 E9.55835
G1 X96.86 Y107.316 E9.58047
G1 X96.912 Y106.396 E9.61112
G1 X97.044 Y105.485 E9.64174
G1 X97.255 Y104.589 E9.67235
G1 X97.542 Y103.714 E9.70298
G1 X97.905 Y102.868 E9.7336
G1 X98.339 Y102.056 E9.76422
G1 X98.842 Y101.285 E9.79484
G1 X99.411 Y100.561 E9.82547
G1 X100.039 Y99.889 E9.85606
G0 F6000 X100.431 Y100.067
G1 F1200 X101.112 Y99.474 E9.88609
G1 X101.844 Y98.944 E9.91615
G1 X102.619 Y98.481 E9.94618
G1 X103.432 Y98.088 E9.97621
G1 X104.277 Y97.768 E10.00627
G1 X105.146 Y97.525 E10.03628
G1 X106.034 Y97.359 E10.06632
G1 X107.173 Y97.263 E10.10434
G1 X107.494 Y97.254 E10.11502
G1 X107.776 Y97.25 E10.1244
G1 X112.612 Y97.248 E10.28525
G1 X113.783 Y97.251 E10.3242
G1 X121.101 Y97.259 E10.56759
G1 X121.918 Y97.256 E10.59477
G1 X122.699 Y97.25 E10.62075
G1 X126.989 Y97.251 E10.76343
G1 X127.687 Y97.261 E10.78665
G1 X128.589 Y97.314 E10.8167
G1 X129.482 Y97.446 E10.84673
G1 X130.36 Y97.657 E10.87676
G1 X131.216 Y97.945 E10.9068
G1 X132.043 Y98.307 E10.93682
G1 X132.835 Y98.742 E10.96688
G1 X133.586 Y99.244 E10.99692
G1 X134.289 Y99.811 E11.02696
G1 X134.939 Y100.438 E11.057
G1 X135.531 Y101.12 E11.08704
G1 X136.061 Y101.851 E11.11707
G1 X136.523 Y102.627 E11.14711
G1 X136.916 Y103.44 E11.17714
G1 X137.234 Y104.285 E11.20717
G1 X137.477 Y105.155 E11.23721
G1 X137.642 Y106.043 E11.26725
G1 X137.737 Y107.173 E11.30497
G1 X137.746 Y107.493 E11.31562
G1 X137.75 Y107.78 E11.32516
G1 X137.749 Y126.94 E11.96243
G1 X137.74 Y127.667 E11.98661
G1 X137.689 Y128.569 E12.01666
G1 X137.558 Y129.463 E12.04671
G1 X137.349 Y130.341 E12.07673
G1 X137.063 Y131.198 E12.10678
G1 X136.702 Y132.026 E12.13682
G1 X136.27 Y132.818 E12.16683
G1 X135.769 Y133.57 E12.19688
G1 X135.203 Y134.274 E12.22693
G1 X134.578 Y134.925 E12.25694
G1 X133.897 Y135.519 E12.287
G1 X133.166 Y136.05 E12.31705
G1 X132.392 Y136.514 E12.34706
G1 X131.579 Y136.908 E12.37711
G1 X130.735 Y137.228 E12.40713
G1 X129.865 Y137.473 E12.43719
G1 X128.978 Y137.639 E12.46721
G1 X127.827 Y137.737 E12.50563
G1 X127.506 Y137.746 E12.51631
G1 X127.22 Y137.75 E12.52582
G1 X108.025 Y137.749 E13.16425
G1 X107.327 Y137.74 E13.18747
G1 X106.426 Y137.689 E13.21749
G1 X105.532 Y137.557 E13.24754
G1 X104.654 Y137.348 E13.27756
G1 X103.797 Y137.061 E13.30762
G1 X102.97 Y136.7 E13.33763
G1 X102.177 Y136.267 E13.36768
G1 X101.426 Y135.766 E13.39771
G1 X100.722 Y135.2 E13.42775
G1 X100.071 Y134.574 E13.45779
G1 X99.478 Y133.893 E13.48783
G1 X98.948 Y133.162 E13.51786
G1 X98.484 Y132.387 E13.5479
G1 X98.09 Y131.574 E13.57795
G1 X97.77 Y130.73 E13.60797
G1 X97.526 Y129.86 E13.63802
G1 X97.36 Y128.972 E13.66807
G1 X97.263 Y127.817 E13.70662
G1 X97.254 Y127.484 E13.7177
G1 X97.25 Y127.208 E13.72688
G1 X97.251 Y107.986 E14.36621
G1 X97.26 Y107.321 E14.38833
G1 X97.312 Y106.419 E14.41838
G1 X97.444 Y105.526 E14.4484
G1 X97.654 Y104.648 E14.47843
G1 X97.941 Y103.791 E14.50849
G1 X98.303 Y102.964 E14.53851
G1 X98.736 Y102.172 E14.56854
G1 X99.238 Y101.421 E14.59858
G1 X99.805 Y100.717 E14.62865
G1 X100.431 Y100.067 E14.65866
G1 F2700 E9.65866
G0 F6000 X112.743 Y106.789
G0 X117.187 Y111.255
G1 F2700 E14.65866
G1 F1200 X117.8 Y111.255 E14.67905
G1 X117.799 Y119.671 E14.95897
G1 X117.189 Y119.672 E14.97926
G1 X117.187 Y111.255 E15.25921
G0 F6000 X116.787 Y110.854
G1 F1200 X118.2 Y110.856 E15.3062
G1 X118.199 Y120.071 E15.6127
G1 X116.789 Y120.072 E15.65959
G1 X116.787 Y110.854 E15.96618
G0 F6000 X116.387 Y110.454
G1 F1200 X118.6 Y110.456 E16.03979
G1 X118.599 Y120.471 E16.37289
G1 X116.389 Y120.472 E16.44639
G1 X116.387 Y110.454 E16.77959
G0 F6000 X115.987 Y110.054
G1 F1200 X119 Y110.056 E16.87981
G1 X118.999 Y120.871 E17.23952
G1 X115.989 Y120.872 E17.33963
G1 X115.987 Y110.054 E17.69944
G0 F6000 X115.587 Y109.653
G1 F1200 X119.4 Y109.657 E17.82626
G1 X119.399 Y121.271 E18.21254
G1 X115.589 Y121.272 E18.33926
G1 X115.587 Y109.653 E18.72571
G0 F6000 X115.186 Y109.253
G1 F1200 X119.8 Y109.257 E18.87917
G1 X119.799 Y121.671 E19.29206
G1 X115.19 Y121.672 E19.44536
G1 X115.186 Y109.253 E19.85842
G0 F6000 X114.786 Y108.852
G1 F1200 X120.2 Y108.858 E20.03849
G1 X120.199 Y122.071 E20.47795
G1 X114.79 Y122.072 E20.65786
G1 X114.786 Y108.852 E21.09756
G0 F6000 X114.386 Y108.452
G1 F1200 X120.6 Y108.458 E21.30424
G1 X120.599 Y122.47 E21.77028
G1 X114.39 Y122.473 E21.97679
G1 X114.386 Y108.452 E22.44313
G0 F6000 X113.986 Y108.052
G1 F1200 X121 Y108.058 E22.67642
G1 X120.999 Y122.87 E23.16907
G1 X113.99 Y122.873 E23.40219
G1 X113.986 Y108.052 E23.89513
G0 F6000 X113.586 Y107.651
G1 F1200 X121.4 Y107.659 E24.15503
G1 X121.399 Y123.27 E24.67425
G1 X113.59 Y123.273 E24.93398
G1 X113.586 Y107.651 E25.45357
G1 F2700 E20.45357
;MESH:End_Clip.STL
G0 F6000 X121.734 Y107.864
G0 X122.814 Y107.864
G0 X126.768 Y108.232
G0 X126.95 Y126.95
;TYPE:WALL-INNER
G1 F2700 E25.45357
G1 F1200 X108.05 Y126.95 E26.08219
G1 X108.05 Y108.05 E26.7108
G1 X111.986 Y108.05 E26.84172
G1 X111.99 Y124.674 E27.39463
G1 X111.99 Y124.873 E27.40125
G1 X112.189 Y124.873 E27.40553
G1 X122.999 Y124.87 E27.76508
G1 X123 Y108.05 E28.32451
G1 X126.95 Y108.05 E28.45589
G1 X126.95 Y126.95 E29.08451
G0 F6000 X127.35 Y127.35
;TYPE:WALL-OUTER
G1 F1200 X107.65 Y127.35 E29.73973
G1 X107.65 Y107.65 E30.39496
G1 X112.386 Y107.65 E30.55248
G1 X112.39 Y124.473 E31.11201
G1 X122.599 Y124.47 E31.45156
G1 X122.6 Y107.65 E32.011
G1 X127.35 Y107.65 E32.16898
G1 X127.35 Y127.35 E32.82421
G0 F6000 X127.08 Y127.08
G0 X126.84 Y126.56
G0 X126.56 Y126.56
;TYPE:SKIN
G1 F1200 X108.44 Y126.56 E33.42688
G1 X108.44 Y108.44 E34.02956
G1 X111.596 Y108.44 E34.13453
G1 X111.6 Y125.263 E34.69406
G1 X123.389 Y125.26 E35.08616
G1 X123.39 Y108.44 E35.6456
G1 X126.56 Y108.44 E35.75103
G1 X126.56 Y126.56 E36.35371
G0 F6000 X126.84 Y126.56
G0 X126.84 Y108.863
G0 X126.399 Y108.863
G1 F1200 X126.136 Y108.6 E36.36608
G0 F6000 X125.57 Y108.6
G1 F1200 X126.399 Y109.429 E36.40507
G0 F6000 X126.399 Y109.994
G1 F1200 X125.005 Y108.6 E36.47064
G0 F6000 X124.439 Y108.6
G1 F1200 X126.399 Y110.56 E36.56283
G0 F6000 X126.399 Y111.126
G1 F1200 X123.873 Y108.6 E36.68165
G0 F6000 X123.549 Y108.841
G1 F1200 X126.399 Y111.691 E36.8157
G0 F6000 X126.399 Y112.257
G1 F1200 X123.549 Y109.407 E36.94976
G0 F6000 X123.549 Y109.972
G1 F1200 X126.399 Y112.823 E37.08384
G0 F6000 X126.399 Y113.388
G1 F1200 X123.549 Y110.538 E37.21789
G0 F6000 X123.549 Y111.104
G1 F1200 X126.399 Y113.954 E37.35195
G0 F6000 X126.399 Y114.52
G1 F1200 X123.549 Y111.669 E37.48603
G0 F6000 X123.549 Y112.235
G1 F1200 X126.399 Y115.085 E37.62008
G0 F6000 X126.399 Y115.651
G1 F1200 X123.549 Y112.801 E37.75414
G0 F6000 X123.549 Y113.366
G1 F1200 X126.399 Y116.217 E37.88822
G0 F6000 X126.399 Y116.782
G1 F1200 X123.549 Y113.932 E38.02227
G0 F6000 X123.549 Y114.498
G1 F1200 X126.399 Y117.348 E38.15633
G0 F6000 X126.399 Y117.914
G1 F1200 X123.549 Y115.063 E38.29041
G0 F6000 X123.549 Y115.629
G1 F1200 X126.399 Y118.479 E38.42446
G0 F6000 X126.399 Y119.045
G1 F1200 X123.549 Y116.195 E38.55852
G0 F6000 X123.549 Y116.761
G1 F1200 X126.399 Y119.611 E38.69257
G0 F6000 X126.399 Y120.177
G1 F1200 X123.549 Y117.326 E38.82665
G0 F6000 X123.549 Y117.892
G1 F1200 X126.399 Y120.742 E38.96071
G0 F6000 X126.399 Y121.308
G1 F1200 X123.549 Y118.458 E39.09476
G0 F6000 X123.549 Y119.023
G1 F1200 X126.399 Y121.874 E39.22884
G0 F6000 X126.399 Y122.439
G1 F1200 X123.549 Y119.589 E39.3629
G0 F6000 X123.549 Y120.155
G1 F1200 X126.399 Y123.005 E39.49695
G0 F6000 X126.399 Y123.571
G1 F1200 X123.549 Y120.72 E39.63103
G0 F6000 X123.549 Y121.286
G1 F1200 X126.399 Y124.136 E39.76509
G0 F6000 X126.399 Y124.702
G1 F1200 X123.549 Y121.852 E39.89914
G0 F6000 X123.549 Y122.417
G1 F1200 X126.399 Y125.268 E40.03322
G0 F6000 X126.399 Y125.833
G1 F1200 X123.549 Y122.983 E40.16727
G0 F6000 X123.549 Y123.549
G1 F1200 X126.399 Y126.399 E40.30133
G0 F6000 X125.833 Y126.399
G1 F1200 X123.549 Y124.114 E40.40879
G0 F6000 X123.549 Y124.68
G1 F1200 X125.268 Y126.399 E40.48964
G0 F6000 X124.702 Y126.399
G1 F1200 X123.549 Y125.246 E40.54388
G0 F6000 X123.156 Y125.419
G1 F1200 X124.136 Y126.399 E40.58997
G0 F6000 X123.571 Y126.399
G1 F1200 X122.591 Y125.419 E40.63607
G0 F6000 X122.025 Y125.419
G1 F1200 X123.005 Y126.399 E40.68216
G0 F6000 X122.439 Y126.399
G1 F1200 X121.459 Y125.419 E40.72826
G0 F6000 X120.894 Y125.42
G1 F1200 X121.874 Y126.399 E40.77433
G0 F6000 X121.308 Y126.399
G1 F1200 X120.329 Y125.42 E40.82038
G0 F6000 X119.763 Y125.42
G1 F1200 X120.742 Y126.399 E40.86643
G0 F6000 X120.177 Y126.399
G1 F1200 X119.197 Y125.42 E40.9125
G0 F6000 X118.632 Y125.42
G1 F1200 X119.611 Y126.399 E40.95855
G0 F6000 X119.045 Y126.399
G1 F1200 X118.067 Y125.42 E41.00458
G0 F6000 X117.501 Y125.42
G1 F1200 X118.479 Y126.399 E41.0506
G0 F6000 X117.914 Y126.399
G1 F1200 X116.935 Y125.42 E41.09665
G0 F6000 X116.369 Y125.42
G1 F1200 X117.348 Y126.399 E41.1427
G0 F6000 X116.782 Y126.399
G1 F1200 X115.804 Y125.421 E41.18871
G0 F6000 X115.239 Y125.421
G1 F1200 X116.217 Y126.399 E41.23471
G0 F6000 X115.651 Y126.399
G1 F1200 X114.673 Y125.421 E41.28071
G0 F6000 X114.107 Y125.421
G1 F1200 X115.085 Y126.399 E41.32671
G0 F6000 X114.52 Y126.399
G1 F1200 X113.542 Y125.422 E41.37269
G0 F6000 X112.977 Y125.422
G1 F1200 X113.954 Y126.399 E41.41865
G0 F6000 X113.388 Y126.399
G1 F1200 X112.411 Y125.422 E41.4646
G0 F6000 X111.845 Y125.422
G1 F1200 X112.823 Y126.399 E41.51058
G0 F6000 X112.257 Y126.399
G1 F1200 X108.599 Y122.741 E41.68264
G0 F6000 X108.599 Y122.176
G1 F1200 X111.44 Y125.016 E41.81625
G0 F6000 X111.44 Y124.45
G1 F1200 X108.599 Y121.61 E41.94986
G0 F6000 X108.599 Y121.044
G1 F1200 X111.44 Y123.885 E42.08349
G0 F6000 X111.44 Y123.319
G1 F1200 X108.599 Y120.478 E42.21712
G0 F6000 X108.599 Y119.913
G1 F1200 X111.439 Y122.753 E42.35071
G0 F6000 X111.439 Y122.187
