;FLAVOR:Marlin
;TIME:2982
;Filament used: 1.64928m
;Layer height: 0.2
;MINX:87.339
;MINY:87.741
;MINZ:0.2
;MAXX:147.666
;MAXY:148.044
;MAXZ:20
;Generated with Cura_SteamEngine 4.8.0
M82 ;absolute extrusion mode
; Ender 3 Custom Start G-code
M117 Getting the bed up to temp!
M140 S60 ; Set Heat Bed temperature
M190 S60 ; Wait for Heat Bed temperature
M117 Pre-heating the extruder!
M104 S160; start warming extruder to 160
G28 ; Home all axes
M117 Auto bed-level GO!
G29 ; Auto bed-level (BL-Touch)
G92 E0 ; Reset Extruder
M117 Getting the extruder up to temp!
M104 S200 ; Set Extruder temperature
M109 S200 ; Wait for Extruder temperature
G1 Z1.0 F3000 ; move z up little to prevent scratching of surface
G1 X0.1 Y20 Z0.3 F5000.0 ; move to start-line position
M117 LET THE PURGE BEGIN!
G1 X0.1 Y200.0 Z0.3 F1500.0 E15 ; draw 1st line
G1 X0.4 Y200.0 Z0.3 F5000.0 ; move to side a little
G1 X0.4 Y20 Z0.3 F1500.0 E30 ; draw 2nd line
G92 E0 ; reset extruder
G1 Z1.0 F3000 ; move z up little to prevent scratching of surface
M117 Autobots! Roll Out!
; End of custom start GCode
G92 E0
G92 E0
G1 F2700 E-5
;LAYER_COUNT:100
;LAYER:0
M107
G0 F6000 X96.119 Y96.188 Z0.2
;TYPE:SKIRT
G1 F2700 E0
G1 F1200 X96.28 Y96.031 E0.00748
G1 X96.494 Y95.828 E0.01729
G1 X97.021 Y95.343 E0.04111
G1 X97.511 Y94.906 E0.06295
G1 X98.503 Y94.119 E0.10506
G1 X98.719 Y93.967 E0.11385
G1 X99.32 Y93.573 E0.13775
G1 X99.479 Y93.476 E0.14395
G1 X99.918 Y93.222 E0.16082
G1 X100.943 Y92.66 E0.19969
G1 X103.179 Y91.393 E0.28517
G1 X103.939 Y90.935 E0.31469
G1 X105.153 Y90.214 E0.36165
G1 X105.893 Y89.812 E0.38966
G1 X106.17 Y89.675 E0.39994
G1 X107.244 Y89.213 E0.43882
G1 X107.339 Y89.178 E0.44219
G1 X107.789 Y89.023 E0.45802
G1 X108.414 Y88.824 E0.47984
G1 X108.759 Y88.719 E0.49183
G1 X109.366 Y88.54 E0.51288
G1 X109.709 Y88.445 E0.52472
G1 X110.208 Y88.318 E0.54184
G1 X110.558 Y88.237 E0.55379
G1 X111.019 Y88.134 E0.5695
G1 X111.558 Y88.02 E0.58783
G1 X112.241 Y87.898 E0.6109
G1 X112.446 Y87.868 E0.61779
G1 X113.012 Y87.8 E0.63675
G1 X113.677 Y87.755 E0.65892
G1 X113.895 Y87.747 E0.66618
G1 X114.464 Y87.741 E0.6851
G1 X115.192 Y87.752 E0.70932
G1 X115.727 Y87.769 E0.72712
G1 X118.275 Y87.786 E0.81187
G1 X120.488 Y87.744 E0.88549
G1 X121.035 Y87.747 E0.90368
G1 X121.165 Y87.751 E0.90801
G1 X121.59 Y87.773 E0.92216
G1 X121.82 Y87.789 E0.92983
G1 X122.752 Y87.893 E0.96102
G1 X123.318 Y87.997 E0.98016
G1 X124.056 Y88.152 E1.00525
G1 X124.361 Y88.22 E1.01564
G1 X125.128 Y88.404 E1.04187
G1 X125.487 Y88.497 E1.05421
G1 X125.825 Y88.592 E1.06589
G1 X126.187 Y88.699 E1.07844
G1 X126.419 Y88.771 E1.08652
G1 X127.279 Y89.046 E1.11655
G1 X128.586 Y89.557 E1.16323
G1 X128.693 Y89.607 E1.16715
G1 X129.089 Y89.802 E1.18184
G1 X129.323 Y89.923 E1.1906
G1 X129.871 Y90.227 E1.21144
G1 X130.929 Y90.853 E1.25233
G1 X132.057 Y91.534 E1.29615
G1 X134.262 Y92.781 E1.38041
G1 X134.902 Y93.123 E1.40454
G1 X135.285 Y93.338 E1.41915
G1 X135.51 Y93.47 E1.42783
G1 X136.046 Y93.805 E1.44885
G1 X136.232 Y93.929 E1.45628
G1 X137.224 Y94.675 E1.49757
G1 X137.52 Y94.931 E1.51058
G1 X138.013 Y95.372 E1.53258
G1 X138.254 Y95.594 E1.54348
G1 X138.745 Y96.056 E1.56591
G1 X139.012 Y96.316 E1.5783
G1 X139.157 Y96.462 E1.58514
G1 X139.336 Y96.647 E1.59371
G1 X139.869 Y97.212 E1.61954
G1 X140.342 Y97.732 E1.64292
G1 X141.105 Y98.669 E1.68311
G1 X141.182 Y98.775 E1.68747
G1 X141.566 Y99.339 E1.71016
G1 X141.716 Y99.575 E1.71946
G1 X142.011 Y100.069 E1.7386
G1 X142.497 Y100.932 E1.77154
G1 X142.869 Y101.615 E1.79741
G1 X144.774 Y104.844 E1.9221
G1 X145.066 Y105.315 E1.94054
G1 X145.398 Y105.89 E1.96262
G1 X145.447 Y105.981 E1.96606
G1 X145.672 Y106.423 E1.98255
G1 X145.777 Y106.641 E1.9906
G1 X146.254 Y107.794 E2.0321
G1 X146.411 Y108.253 E2.04824
G1 X146.563 Y108.727 E2.06479
G1 X146.637 Y108.968 E2.07318
G1 X146.744 Y109.33 E2.08573
G1 X146.841 Y109.678 E2.09775
G1 X147.16 Y110.904 E2.13988
G1 X147.25 Y111.277 E2.15265
G1 X147.348 Y111.716 E2.16761
G1 X147.513 Y112.64 E2.19882
G1 X147.574 Y113.199 E2.21753
G1 X147.59 Y113.391 E2.22394
G1 X147.627 Y114.462 E2.25958
G1 X147.606 Y115.929 E2.30838
G1 X147.606 Y118.556 E2.39575
G1 X147.641 Y120.103 E2.44722
G1 X147.663 Y120.804 E2.47054
G1 X147.666 Y121.347 E2.4886
G1 X147.664 Y121.458 E2.4923
G1 X147.638 Y122.041 E2.51171
G1 X147.619 Y122.308 E2.52061
G1 X147.478 Y123.446 E2.55875
G1 X147.394 Y123.887 E2.57368
G1 X147.277 Y124.439 E2.59245
G1 X147.208 Y124.741 E2.60275
G1 X147.122 Y125.097 E2.61493
G1 X147.027 Y125.464 E2.62754
G1 X146.693 Y126.664 E2.66897
G1 X146.582 Y127.038 E2.68195
G1 X146.446 Y127.467 E2.69691
G1 X145.984 Y128.672 E2.73984
G1 X145.923 Y128.807 E2.74477
G1 X145.685 Y129.302 E2.76303
G1 X145.57 Y129.526 E2.77141
G1 X145.277 Y130.059 E2.79164
G1 X144.989 Y130.549 E2.81054
G1 X144.075 Y132.061 E2.86931
G1 X142.222 Y135.382 E2.99579
G1 X142.153 Y135.511 E3.00066
G1 X141.827 Y136.082 E3.02253
G1 X141.761 Y136.19 E3.02674
G1 X141.521 Y136.566 E3.04157
G1 X141.384 Y136.771 E3.04977
G1 X140.881 Y137.463 E3.07823
G1 X140.377 Y138.064 E3.10432
G1 X139.967 Y138.518 E3.12466
G1 X139.769 Y138.731 E3.13433
G1 X139.489 Y139.025 E3.14784
G1 X139.231 Y139.287 E3.16007
G1 X138.448 Y140.056 E3.19657
G1 X138.18 Y140.31 E3.20885
G1 X137.837 Y140.625 E3.22434
G1 X137.12 Y141.229 E3.25552
G1 X136.558 Y141.636 E3.2786
G1 X136.24 Y141.851 E3.29137
G1 X135.461 Y142.331 E3.3218
G1 X134.592 Y142.818 E3.35493
G1 X133.577 Y143.37 E3.39336
G1 X131.405 Y144.633 E3.47693
G1 X129.903 Y145.553 E3.53551
G1 X129.467 Y145.807 E3.5523
G1 X129.36 Y145.866 E3.55636
G1 X128.8 Y146.154 E3.5773
G1 X128.539 Y146.279 E3.58693
G1 X127.677 Y146.648 E3.61812
G1 X127.136 Y146.836 E3.63716
G1 X126.532 Y147.029 E3.65825
G1 X126.251 Y147.115 E3.66803
G1 X125.848 Y147.232 E3.68199
G1 X125.496 Y147.328 E3.69412
G1 X124.53 Y147.574 E3.72728
G1 X124.163 Y147.66 E3.73981
G1 X123.687 Y147.764 E3.75602
G1 X122.763 Y147.925 E3.78721
G1 X122.155 Y147.988 E3.80754
G1 X121.886 Y148.008 E3.81652
G1 X121.539 Y148.028 E3.82808
G1 X121.375 Y148.035 E3.83354
G1 X120.763 Y148.044 E3.85389
G1 X120.047 Y148.033 E3.87771
G1 X118.842 Y147.998 E3.91781
G1 X116.277 Y147.994 E4.00312
G1 X114.576 Y148.032 E4.05971
G1 X114.398 Y148.038 E4.06563
G1 X113.795 Y148.041 E4.08569
G1 X113.708 Y148.039 E4.08858
G1 X113.14 Y148.011 E4.1075
G1 X112.913 Y147.994 E4.11507
G1 X111.981 Y147.884 E4.14628
G1 X111.427 Y147.78 E4.16503
G1 X110.569 Y147.596 E4.19422
G1 X110.248 Y147.523 E4.20516
G1 X110.061 Y147.477 E4.21157
G1 X109.668 Y147.372 E4.2251
G1 X108.614 Y147.071 E4.26156
G1 X108.241 Y146.957 E4.27453
G1 X107.834 Y146.825 E4.28876
G1 X106.76 Y146.414 E4.32701
G1 X106.571 Y146.33 E4.33389
G1 X105.842 Y145.973 E4.36088
G1 X105.62 Y145.854 E4.36926
G1 X105.122 Y145.57 E4.38833
G1 X104.099 Y144.95 E4.42812
G1 X103.666 Y144.68 E4.44509
G1 X101.507 Y143.416 E4.5283
G1 X100.115 Y142.653 E4.5811
G1 X99.463 Y142.283 E4.60603
G1 X98.901 Y141.942 E4.62789
G1 X98.618 Y141.755 E4.63918
G1 X98.442 Y141.635 E4.64626
G1 X97.691 Y141.074 E4.67744
G1 X97.224 Y140.671 E4.69795
G1 X96.641 Y140.139 E4.72421
G1 X96.379 Y139.892 E4.73618
G1 X96.143 Y139.662 E4.74714
G1 X95.901 Y139.419 E4.75855
G1 X95.176 Y138.667 E4.79329
G1 X94.928 Y138.401 E4.80539
G1 X94.642 Y138.084 E4.81959
G1 X94.044 Y137.361 E4.85079
G1 X93.682 Y136.855 E4.87149
G1 X93.421 Y136.467 E4.88704
G1 X92.93 Y135.665 E4.91832
G1 X92.501 Y134.89 E4.94778
G1 X91.972 Y133.903 E4.98502
G1 X90.456 Y131.277 E5.08588
G1 X89.86 Y130.285 E5.12437
G1 X89.51 Y129.654 E5.14837
G1 X89.257 Y129.162 E5.16677
G1 X88.864 Y128.311 E5.19794
G1 X88.554 Y127.458 E5.22813
G1 X88.344 Y126.796 E5.25123
G1 X88.249 Y126.481 E5.26217
G1 X88.062 Y125.824 E5.28489
G1 X87.981 Y125.525 E5.2952
G1 X87.908 Y125.238 E5.30505
G1 X87.833 Y124.923 E5.31581
G1 X87.736 Y124.484 E5.33077
G1 X87.621 Y123.938 E5.34933
G1 X87.496 Y123.232 E5.37317
G1 X87.452 Y122.925 E5.38349
G1 X87.352 Y121.85 E5.4194
G1 X87.347 Y121.737 E5.42316
G1 X87.339 Y120.979 E5.44837
G1 X87.376 Y119.485 E5.49808
G1 X87.402 Y116.945 E5.58256
G1 X87.385 Y115.526 E5.62976
G1 X87.372 Y114.883 E5.65115
G1 X87.38 Y114.204 E5.67374
G1 X87.403 Y113.651 E5.69215
G1 X87.481 Y112.716 E5.72335
G1 X87.655 Y111.72 E5.75698
G1 X87.812 Y111.014 E5.78104
G1 X87.879 Y110.73 E5.79074
G1 X88.042 Y110.079 E5.81306
G1 X88.133 Y109.74 E5.82474
G1 X88.203 Y109.494 E5.83325
G1 X88.284 Y109.223 E5.84265
G1 X88.48 Y108.601 E5.86434
G1 X88.704 Y107.927 E5.88797
G1 X89.086 Y106.94 E5.92317
G1 X89.121 Y106.861 E5.92604
G1 X89.436 Y106.21 E5.95009
G1 X89.555 Y105.983 E5.95862
G1 X89.871 Y105.421 E5.98006
G1 X90.584 Y104.235 E6.02609
G1 X91.187 Y103.249 E6.06453
G1 X92.43 Y101.079 E6.14771
G1 X92.637 Y100.699 E6.1621
G1 X92.954 Y100.137 E6.18356
G1 X93.294 Y99.575 E6.20541
G1 X93.56 Y99.163 E6.22172
G1 X94.102 Y98.397 E6.25293
G1 X94.519 Y97.89 E6.27476
G1 X94.63 Y97.763 E6.28037
G1 X94.844 Y97.525 E6.29102
G1 X95.398 Y96.929 E6.31808
G1 X95.868 Y96.44 E6.34064
G1 X96.119 Y96.188 E6.35247
G0 F6000 X96.399 Y96.474
G1 F1200 X96.56 Y96.317 E6.35995
G1 X96.765 Y96.122 E6.36936
G1 X97.288 Y95.641 E6.39299
G1 X97.778 Y95.204 E6.41483
G1 X98.733 Y94.446 E6.45538
G1 X98.949 Y94.294 E6.46417
G1 X99.529 Y93.914 E6.48723
G1 X99.688 Y93.817 E6.49343
G1 X100.11 Y93.572 E6.50965
G1 X101.181 Y92.984 E6.55029
G1 X103.404 Y91.725 E6.63526
G1 X104.143 Y91.279 E6.66397
G1 X105.357 Y90.558 E6.71093
G1 X106.071 Y90.171 E6.73795
G1 X106.348 Y90.034 E6.74822
G1 X107.383 Y89.589 E6.7857
G1 X107.478 Y89.554 E6.78906
G1 X107.911 Y89.404 E6.8043
G1 X108.531 Y89.207 E6.82594
G1 X108.872 Y89.103 E6.8378
G1 X109.479 Y88.924 E6.85885
G1 X109.81 Y88.832 E6.87027
G1 X110.06 Y88.767 E6.87887
G1 X110.537 Y88.652 E6.89518
G1 X111.102 Y88.525 E6.91445
G1 X111.641 Y88.411 E6.93277
G1 X112.299 Y88.294 E6.955
G1 X112.504 Y88.264 E6.96189
G1 X113.051 Y88.198 E6.98021
G1 X113.691 Y88.155 E7.00155
G1 X113.909 Y88.147 E7.0088
G1 X114.458 Y88.141 E7.02707
G1 X115.186 Y88.152 E7.05128
G1 X115.71 Y88.169 E7.06872
G1 X118.279 Y88.186 E7.15417
G1 X120.495 Y88.144 E7.22788
G1 X121.023 Y88.147 E7.24545
G1 X121.153 Y88.151 E7.24977
G1 X121.563 Y88.172 E7.26343
G1 X121.793 Y88.188 E7.27109
G1 X122.707 Y88.291 E7.30169
G1 X123.236 Y88.388 E7.31957
G1 X123.974 Y88.543 E7.34466
G1 X124.268 Y88.609 E7.35468
G1 X125.035 Y88.793 E7.38091
G1 X125.381 Y88.883 E7.3928
G1 X125.712 Y88.976 E7.40424
G1 X126.074 Y89.083 E7.41679
G1 X126.297 Y89.152 E7.42456
G1 X127.157 Y89.427 E7.45459
G1 X128.416 Y89.92 E7.49956
G1 X128.523 Y89.97 E7.50349
G1 X128.905 Y90.157 E7.51763
G1 X129.139 Y90.278 E7.52639
G1 X129.667 Y90.571 E7.54648
G1 X130.723 Y91.196 E7.58729
G1 X131.849 Y91.875 E7.63102
G1 X134.088 Y93.142 E7.71659
G1 X134.713 Y93.476 E7.74016
G1 X135.083 Y93.683 E7.75426
G1 X135.308 Y93.815 E7.76294
G1 X135.824 Y94.138 E7.78319
G1 X136.01 Y94.262 E7.79062
G1 X136.966 Y94.981 E7.83041
G1 X137.254 Y95.229 E7.84305
G1 X137.743 Y95.667 E7.86488
G1 X137.98 Y95.885 E7.87559
G1 X138.471 Y96.347 E7.89802
G1 X138.728 Y96.597 E7.90994
G1 X139.046 Y96.922 E7.92506
G1 X139.426 Y97.323 E7.94344
G1 X139.573 Y97.481 E7.95062
G1 X140.046 Y98.001 E7.974
G1 X140.781 Y98.904 E8.01272
G1 X140.858 Y99.01 E8.01708
G1 X141.228 Y99.554 E8.03896
G1 X141.378 Y99.79 E8.04826
G1 X141.663 Y100.265 E8.06669
G1 X142.146 Y101.123 E8.09943
G1 X142.519 Y101.807 E8.12535
G1 X144.457 Y105.093 E8.25223
G1 X144.725 Y105.525 E8.26914
G1 X145.046 Y106.08 E8.29046
G1 X145.095 Y106.171 E8.2939
G1 X145.312 Y106.596 E8.30977
G1 X145.417 Y106.814 E8.31782
G1 X145.877 Y107.926 E8.35785
G1 X145.946 Y108.124 E8.36482
G1 X146.03 Y108.375 E8.37362
G1 X146.182 Y108.849 E8.39018
G1 X146.253 Y109.081 E8.39825
G1 X146.36 Y109.443 E8.4108
G1 X146.453 Y109.779 E8.4224
G1 X146.772 Y111.005 E8.46454
G1 X146.859 Y111.365 E8.47685
G1 X146.957 Y111.804 E8.49181
G1 X147.119 Y112.71 E8.52243
G1 X147.175 Y113.233 E8.53992
G1 X147.191 Y113.425 E8.54633
G1 X147.227 Y114.457 E8.58067
G1 X147.206 Y115.924 E8.62947
G1 X147.206 Y118.565 E8.71731
G1 X147.241 Y120.115 E8.76888
G1 X147.263 Y120.816 E8.7922
G1 X147.266 Y121.34 E8.80963
G1 X147.264 Y121.451 E8.81333
G1 X147.239 Y122.012 E8.832
G1 X147.22 Y122.279 E8.84091
G1 X147.084 Y123.377 E8.8777
G1 X147.003 Y123.804 E8.89216
G1 X146.886 Y124.356 E8.91093
G1 X146.82 Y124.647 E8.92085
G1 X146.734 Y125.003 E8.93303
G1 X146.642 Y125.356 E8.94517
G1 X146.308 Y126.556 E8.9866
G1 X146.2 Y126.917 E8.99913
G1 X146.064 Y127.346 E9.0141
G1 X145.62 Y128.508 E9.05547
G1 X145.559 Y128.643 E9.0604
G1 X145.329 Y129.119 E9.07798
G1 X145.214 Y129.343 E9.08636
G1 X144.932 Y129.857 E9.10585
G1 X144.647 Y130.342 E9.12456
G1 X143.729 Y131.86 E9.18357
G1 X141.869 Y135.193 E9.31052
G1 X141.8 Y135.323 E9.31541
G1 X141.486 Y135.873 E9.33648
G1 X141.42 Y135.981 E9.34069
G1 X141.188 Y136.344 E9.35502
G1 X141.051 Y136.549 E9.36322
G1 X140.591 Y137.185 E9.38932
G1 X140.08 Y137.795 E9.41579
G1 X139.67 Y138.249 E9.43614
G1 X139.479 Y138.455 E9.44548
G1 X139.199 Y138.749 E9.45898
G1 X138.95 Y139.002 E9.47079
G1 X138.167 Y139.771 E9.50729
G1 X137.91 Y140.015 E9.51908
G1 X137.567 Y140.33 E9.53457
G1 X136.862 Y140.923 E9.56521
G1 X136.334 Y141.304 E9.58686
G1 X136.016 Y141.519 E9.59963
G1 X135.266 Y141.982 E9.62895
G1 X134.401 Y142.467 E9.66193
G1 X133.391 Y143.016 E9.70017
G1 X131.175 Y144.305 E9.78543
G1 X129.694 Y145.212 E9.84319
G1 X129.274 Y145.456 E9.85935
G1 X129.167 Y145.515 E9.86341
G1 X128.628 Y145.793 E9.88358
G1 X128.367 Y145.918 E9.89321
G1 X127.52 Y146.279 E9.92383
G1 X127.014 Y146.455 E9.94165
G1 X126.41 Y146.648 E9.96274
G1 X126.139 Y146.731 E9.97217
G1 X125.736 Y146.848 E9.98613
G1 X125.397 Y146.94 E9.99781
G1 X124.431 Y147.186 E10.03096
G1 X124.078 Y147.27 E10.04303
G1 X123.602 Y147.374 E10.05924
G1 X122.694 Y147.531 E10.08989
G1 X122.125 Y147.589 E10.10891
G1 X121.856 Y147.609 E10.11788
G1 X121.522 Y147.628 E10.12901
G1 X121.358 Y147.635 E10.13447
G1 X120.768 Y147.644 E10.15409
G1 X120.058 Y147.633 E10.17771
G1 X118.854 Y147.598 E10.21777
G1 X116.268 Y147.594 E10.30378
G1 X114.637 Y147.631 E10.35804
G1 X114.386 Y147.639 E10.3664
G1 X113.804 Y147.641 E10.38575
G1 X113.717 Y147.639 E10.38865
G1 X113.169 Y147.612 E10.4069
G1 X112.942 Y147.595 E10.41447
G1 X112.028 Y147.487 E10.44508
G1 X111.511 Y147.389 E10.46258
G1 X110.653 Y147.205 E10.49177
G1 X110.344 Y147.134 E10.50231
G1 X110.157 Y147.088 E10.50872
G1 X109.778 Y146.988 E10.52175
G1 X108.724 Y146.687 E10.55821
G1 X108.365 Y146.577 E10.5707
G1 X107.958 Y146.445 E10.58493
G1 X106.923 Y146.048 E10.6218
G1 X106.734 Y145.964 E10.62868
G1 X106.031 Y145.62 E10.65471
G1 X105.809 Y145.501 E10.66309
G1 X105.329 Y145.228 E10.68146
G1 X104.31 Y144.61 E10.72109
G1 X103.884 Y144.344 E10.7378
G1 X101.695 Y143.063 E10.82215
G1 X100.312 Y142.305 E10.87461
G1 X99.66 Y141.935 E10.89954
G1 X99.119 Y141.606 E10.9206
G1 X98.844 Y141.424 E10.93157
G1 X98.668 Y141.304 E10.93866
G1 X97.93 Y140.753 E10.96929
G1 X97.494 Y140.376 E10.98846
G1 X96.911 Y139.844 E11.01471
G1 X96.658 Y139.605 E11.02629
G1 X96.422 Y139.375 E11.03725
G1 X96.189 Y139.141 E11.04823
G1 X95.464 Y138.389 E11.08297
G1 X95.225 Y138.133 E11.09462
G1 X94.939 Y137.816 E11.10882
G1 X94.352 Y137.106 E11.13946
G1 X94.014 Y136.631 E11.15885
G1 X93.753 Y136.243 E11.1744
G1 X93.28 Y135.471 E11.20452
G1 X92.854 Y134.701 E11.23379
G1 X92.333 Y133.73 E11.27044
G1 X90.786 Y131.051 E11.37333
G1 X90.203 Y130.079 E11.41103
G1 X89.865 Y129.471 E11.43417
G1 X89.612 Y128.979 E11.45257
G1 X89.227 Y128.143 E11.48318
G1 X88.935 Y127.337 E11.51169
G1 X88.725 Y126.675 E11.53479
G1 X88.634 Y126.372 E11.54531
G1 X88.447 Y125.715 E11.56803
G1 X88.369 Y125.426 E11.57799
G1 X88.296 Y125.139 E11.58784
G1 X88.224 Y124.836 E11.5982
G1 X88.128 Y124.402 E11.61298
G1 X88.013 Y123.856 E11.63154
G1 X87.892 Y123.175 E11.65454
G1 X87.848 Y122.868 E11.66486
G1 X87.751 Y121.833 E11.69943
G1 X87.746 Y121.72 E11.7032
G1 X87.739 Y120.989 E11.72751
G1 X87.776 Y119.495 E11.77722
G1 X87.802 Y116.929 E11.86257
G1 X87.785 Y115.518 E11.9095
G1 X87.772 Y114.875 E11.93089
G1 X87.779 Y114.221 E11.95264
G1 X87.802 Y113.668 E11.97105
G1 X87.88 Y112.75 E12.0017
G1 X88.046 Y111.807 E12.03354
