;FLAVOR:Marlin
;TIME:4279
;Filament used: 1.15989m
;Layer height: 0.12
;MINX:83.5
;MINY:97.178
;MINZ:0.12
;MAXX:138.63
;MAXY:159.757
;MAXZ:36
;Generated with Cura_SteamEngine 4.8.0
M82 ;absolute extrusion mode
; Ender 3 Custom Start G-code
M117 Getting the bed up to temp!
M140 S60 ; Set Heat Bed temperature
M190 S60 ; Wait for Heat Bed temperature
M117 Pre-heating the extruder!
M104 S160; start warming extruder to 160
G28 ; Home all axes
M117 Auto bed-level GO!
G29 ; Auto bed-level (BL-Touch)
G92 E0 ; Reset Extruder
M117 Getting the extruder up to temp!
M104 S190 ; Set Extruder temperature
M109 S190 ; Wait for Extruder temperature
G1 Z1.0 F3000 ; move z up little to prevent scratching of surface
G1 X0.1 Y20 Z0.3 F5000.0 ; move to start-line position
M117 LET THE PURGE BEGIN!
G1 X0.1 Y200.0 Z0.3 F1500.0 E15 ; draw 1st line
G1 X0.4 Y200.0 Z0.3 F5000.0 ; move to side a little
G1 X0.4 Y20 Z0.3 F1500.0 E30 ; draw 2nd line
G92 E0 ; reset extruder
G1 Z1.0 F3000 ; move z up little to prevent scratching of surface
M117 Autobots! Roll Out!
; End of custom start GCode
G92 E0
G92 E0
G1 F3000 E-10
;LAYER_COUNT:300
;LAYER:0
M107
G0 F6000 X103.218 Y103.05 Z0.12
;TYPE:SKIRT
G1 F3000 E0
G1 F1200 X103.637 Y102.647 E0.0116
G1 X104.313 Y102.043 E0.02969
G1 X104.738 Y101.689 E0.04073
G1 X105.453 Y101.136 E0.05877
G1 X105.926 Y100.798 E0.07037
G1 X106.701 Y100.286 E0.08891
G1 X107.173 Y99.997 E0.09995
G1 X107.958 Y99.555 E0.11793
G1 X108.482 Y99.286 E0.12968
G1 X109.312 Y98.898 E0.14797
G1 X109.84 Y98.674 E0.15941
G1 X110.691 Y98.35 E0.17759
G1 X111.222 Y98.17 E0.18877
G1 X112.101 Y97.906 E0.20709
G1 X112.647 Y97.763 E0.21835
G1 X113.53 Y97.566 E0.23641
G1 X114.092 Y97.462 E0.24781
G1 X115.009 Y97.327 E0.26631
G1 X115.567 Y97.265 E0.27751
G1 X116.455 Y97.199 E0.29528
G1 X117.033 Y97.178 E0.30683
G1 X117.967 Y97.178 E0.32547
G1 X118.549 Y97.2 E0.33709
G1 X119.445 Y97.267 E0.35502
G1 X119.999 Y97.328 E0.36614
G1 X120.916 Y97.463 E0.38464
G1 X121.479 Y97.567 E0.39606
G1 X122.357 Y97.763 E0.41402
G1 X122.909 Y97.908 E0.42541
G1 X123.795 Y98.175 E0.44387
G1 X124.328 Y98.357 E0.45511
G1 X125.176 Y98.681 E0.47323
G1 X125.702 Y98.904 E0.48463
G1 X126.53 Y99.292 E0.50288
G1 X127.05 Y99.56 E0.51455
G1 X127.836 Y100.003 E0.53256
G1 X128.311 Y100.294 E0.54367
G1 X129.086 Y100.807 E0.56222
G1 X129.552 Y101.14 E0.57365
G1 X130.266 Y101.692 E0.59166
G1 X130.701 Y102.055 E0.60297
G1 X131.376 Y102.66 E0.62106
G1 X131.786 Y103.055 E0.63242
G1 X132.423 Y103.716 E0.65074
G1 X132.799 Y104.136 E0.66199
G1 X133.389 Y104.844 E0.68038
G1 X133.744 Y105.303 E0.69196
G1 X134.269 Y106.038 E0.70998
G1 X134.583 Y106.513 E0.72135
G1 X135.062 Y107.299 E0.73971
G1 X135.341 Y107.798 E0.75112
G1 X135.759 Y108.613 E0.7694
G1 X135.998 Y109.123 E0.78064
G1 X136.351 Y109.954 E0.79866
G1 X136.553 Y110.481 E0.80992
G1 X136.846 Y111.338 E0.828
G1 X137.013 Y111.896 E0.83962
G1 X137.247 Y112.795 E0.85816
G1 X137.37 Y113.347 E0.86944
G1 X137.535 Y114.243 E0.88763
G1 X137.618 Y114.811 E0.89908
G1 X137.717 Y115.719 E0.91731
G1 X137.758 Y116.28 E0.92853
G1 X137.791 Y117.185 E0.94661
G1 X137.79 Y117.762 E0.95812
G1 X137.756 Y118.666 E0.97617
G1 X137.716 Y119.218 E0.98722
G1 X137.617 Y120.126 E1.00545
G1 X137.534 Y120.692 E1.01686
G1 X137.369 Y121.589 E1.03506
G1 X137.242 Y122.161 E1.04676
G1 X137.006 Y123.059 E1.06529
G1 X136.844 Y123.594 E1.07644
G1 X136.551 Y124.453 E1.09455
G1 X136.347 Y124.988 E1.10598
G1 X135.994 Y125.818 E1.12398
G1 X135.868 Y126.085 E1.12987
G1 X135.952 Y126.193 E1.1326
G1 X136.441 Y126.782 E1.14788
G1 X136.915 Y127.414 E1.16364
G1 X137.35 Y128.146 E1.18064
G1 X137.372 Y128.188 E1.18158
G1 X137.703 Y128.905 E1.19734
G1 X137.973 Y129.699 E1.21408
G1 X138.088 Y130.109 E1.22257
G1 X138.278 Y130.723 E1.2354
G1 X138.473 Y131.488 E1.25116
G1 X138.591 Y132.288 E1.26729
G1 X138.595 Y132.33 E1.26814
G1 X138.63 Y133.119 E1.2839
G1 X138.577 Y133.975 E1.30101
G1 X138.502 Y134.62 E1.31397
G1 X138.456 Y135.114 E1.32387
G1 X138.344 Y135.896 E1.33964
G1 X138.175 Y136.588 E1.35385
G1 X138.163 Y136.629 E1.3547
G1 X137.903 Y137.375 E1.37047
G1 X137.472 Y138.267 E1.39024
G1 X137.069 Y138.982 E1.40662
G1 X136.936 Y139.238 E1.41237
G1 X136.536 Y139.919 E1.42814
G1 X136.052 Y140.579 E1.44447
G1 X136.025 Y140.612 E1.44532
G1 X135.495 Y141.197 E1.46107
G1 X134.815 Y141.8 E1.47921
G1 X133.66 Y142.71 E1.50855
G1 X133.016 Y143.167 E1.52431
G1 X132.329 Y143.556 E1.54007
G1 X131.606 Y143.873 E1.55582
G1 X130.963 Y144.087 E1.56935
G1 X129.543 Y144.49 E1.5988
G1 X128.773 Y144.667 E1.61457
G1 X127.969 Y144.766 E1.63073
G1 X127.927 Y144.769 E1.63158
G1 X127.137 Y144.785 E1.64734
G1 X126.458 Y144.735 E1.66093
G1 X125.737 Y144.65 E1.67542
G1 X124.958 Y144.518 E1.69119
G1 X124.535 Y144.412 E1.69989
G1 X123.793 Y144.203 E1.71527
G1 X123.543 Y144.119 E1.72054
G1 X123.53 Y144.177 E1.72172
G1 X123.3 Y145.054 E1.73981
G1 X123.139 Y145.588 E1.75095
G1 X122.848 Y146.443 E1.76897
G1 X122.64 Y146.988 E1.78061
G1 X122.282 Y147.828 E1.79883
G1 X122.046 Y148.33 E1.8099
G1 X121.629 Y149.143 E1.82814
G1 X121.341 Y149.656 E1.83988
G1 X120.861 Y150.44 E1.85822
G1 X120.555 Y150.902 E1.86928
G1 X120.029 Y151.638 E1.88733
G1 X119.683 Y152.086 E1.89863
G1 X119.095 Y152.794 E1.917
G1 X118.707 Y153.228 E1.92861
G1 X118.069 Y153.889 E1.94695
G1 X117.654 Y154.288 E1.95843
G1 X116.977 Y154.893 E1.97655
G1 X116.547 Y155.251 E1.98772
G1 X115.832 Y155.803 E2.00575
G1 X115.37 Y156.133 E2.01708
G1 X114.598 Y156.644 E2.03555
G1 X114.122 Y156.936 E2.04669
G1 X113.334 Y157.38 E2.06474
G1 X112.793 Y157.657 E2.07687
G1 X111.969 Y158.04 E2.09501
G1 X111.477 Y158.249 E2.10567
G1 X110.615 Y158.58 E2.1241
G1 X110.069 Y158.766 E2.13561
G1 X109.196 Y159.029 E2.15381
G1 X108.635 Y159.176 E2.16538
G1 X107.747 Y159.373 E2.18353
G1 X107.189 Y159.476 E2.19486
G1 X106.275 Y159.61 E2.21329
G1 X105.715 Y159.671 E2.22453
G1 X104.829 Y159.736 E2.24226
G1 X104.258 Y159.757 E2.25366
G1 X103.323 Y159.757 E2.27232
G1 X102.749 Y159.736 E2.28379
G1 X101.855 Y159.67 E2.30167
G1 X101.295 Y159.608 E2.31292
G1 X100.376 Y159.473 E2.33145
G1 X99.809 Y159.368 E2.34296
G1 X98.932 Y159.172 E2.3609
G1 X98.383 Y159.028 E2.37222
G1 X97.5 Y158.762 E2.39063
G1 X96.957 Y158.577 E2.40207
G1 X96.099 Y158.248 E2.42041
G1 X95.587 Y158.03 E2.43152
G1 X94.764 Y157.645 E2.44965
G1 X94.236 Y157.373 E2.4615
G1 X93.449 Y156.929 E2.47953
G1 X92.981 Y156.643 E2.49048
G1 X92.208 Y156.132 E2.50897
G1 X91.737 Y155.795 E2.52053
G1 X91.022 Y155.242 E2.53857
G1 X90.587 Y154.88 E2.54986
G1 X89.911 Y154.274 E2.56798
G1 X89.501 Y153.878 E2.57935
G1 X88.865 Y153.218 E2.59764
G1 X88.486 Y152.795 E2.60898
G1 X87.896 Y152.086 E2.62738
G1 X87.542 Y151.627 E2.63895
G1 X87.017 Y150.891 E2.65699
G1 X86.709 Y150.424 E2.66816
G1 X86.236 Y149.649 E2.68628
G1 X85.957 Y149.152 E2.69765
G1 X85.534 Y148.329 E2.71612
G1 X85.292 Y147.814 E2.72747
G1 X84.938 Y146.981 E2.74553
G1 X84.735 Y146.45 E2.75688
G1 X84.439 Y145.583 E2.77516
G1 X84.273 Y145.028 E2.78672
G1 X84.046 Y144.156 E2.8047
G1 X83.921 Y143.593 E2.81621
G1 X83.754 Y142.679 E2.83475
G1 X83.674 Y142.131 E2.84581
G1 X83.574 Y141.223 E2.86404
G1 X83.532 Y140.646 E2.87558
G1 X83.5 Y139.744 E2.89359
G1 X83.5 Y139.182 E2.90481
G1 X83.533 Y138.278 E2.92286
G1 X83.575 Y137.709 E2.93425
G1 X83.675 Y136.801 E2.95248
G1 X83.755 Y136.252 E2.96355
G1 X83.922 Y135.339 E2.98207
G1 X84.051 Y134.761 E2.99389
G1 X84.28 Y133.889 E3.01188
G1 X84.442 Y133.35 E3.02311
G1 X84.738 Y132.483 E3.04139
G1 X84.943 Y131.949 E3.05281
G1 X85.297 Y131.117 E3.07085
G1 X85.538 Y130.602 E3.0822
G1 X85.963 Y129.776 E3.10074
G1 X86.244 Y129.276 E3.11218
G1 X86.716 Y128.504 E3.13024
G1 X87.022 Y128.042 E3.1413
G1 X87.543 Y127.312 E3.1592
G1 X87.899 Y126.85 E3.17084
G1 X88.493 Y126.137 E3.18936
G1 X88.866 Y125.722 E3.20049
G1 X89.504 Y125.059 E3.21885
G1 X89.927 Y124.651 E3.23058
G1 X90.603 Y124.047 E3.24867
G1 X91.033 Y123.689 E3.25984
G1 X91.748 Y123.137 E3.27786
G1 X92.214 Y122.804 E3.28929
G1 X92.99 Y122.291 E3.30786
G1 X93.464 Y122.001 E3.31895
G1 X94.249 Y121.559 E3.33693
G1 X94.791 Y121.282 E3.34907
G1 X95.62 Y120.897 E3.36731
G1 X96.114 Y120.688 E3.37802
G1 X96.962 Y120.363 E3.39614
G1 X97.396 Y120.215 E3.40529
G1 X97.382 Y120.119 E3.40723
G1 X97.283 Y119.212 E3.42543
G1 X97.242 Y118.651 E3.43666
G1 X97.209 Y117.748 E3.45469
G1 X97.209 Y117.17 E3.46623
G1 X97.243 Y116.265 E3.4843
G1 X97.284 Y115.713 E3.49535
G1 X97.383 Y114.805 E3.51357
G1 X97.466 Y114.239 E3.52499
G1 X97.631 Y113.342 E3.54319
G1 X97.758 Y112.77 E3.55488
G1 X97.994 Y111.872 E3.57341
G1 X98.154 Y111.342 E3.58446
G1 X98.446 Y110.484 E3.60255
G1 X98.654 Y109.94 E3.61417
G1 X99.008 Y109.109 E3.6322
G1 X99.244 Y108.606 E3.64328
G1 X99.661 Y107.793 E3.66152
G1 X99.946 Y107.284 E3.67316
G1 X100.426 Y106.499 E3.69152
G1 X100.732 Y106.037 E3.70258
G1 X101.253 Y105.307 E3.72048
G1 X101.609 Y104.845 E3.73212
G1 X102.203 Y104.132 E3.75064
G1 X102.58 Y103.712 E3.7619
G1 X103.218 Y103.05 E3.78025
G0 F6000 X103.506 Y103.328
G1 F1200 X103.904 Y102.945 E3.79127
G1 X104.58 Y102.341 E3.80936
G1 X104.983 Y102.005 E3.81983
G1 X105.698 Y101.452 E3.83787
G1 X106.146 Y101.132 E3.84886
G1 X106.921 Y100.62 E3.86739
G1 X107.369 Y100.346 E3.87787
G1 X108.154 Y99.904 E3.89585
G1 X108.651 Y99.648 E3.90701
G1 X109.481 Y99.26 E3.92529
G1 X109.982 Y99.048 E3.93615
G1 X110.833 Y98.724 E3.95432
G1 X111.337 Y98.553 E3.96494
G1 X112.216 Y98.289 E3.98325
G1 X112.734 Y98.154 E3.99394
G1 X113.617 Y97.957 E4.01199
G1 X114.15 Y97.858 E4.02281
G1 X115.067 Y97.723 E4.04131
G1 X115.597 Y97.664 E4.05195
G1 X116.485 Y97.598 E4.06972
G1 X117.033 Y97.578 E4.08066
G1 X117.967 Y97.578 E4.0993
G1 X118.519 Y97.599 E4.11033
G1 X119.415 Y97.666 E4.12826
G1 X119.941 Y97.724 E4.13882
G1 X120.858 Y97.859 E4.15731
G1 X121.392 Y97.958 E4.16815
G1 X122.27 Y98.154 E4.1861
G1 X122.793 Y98.291 E4.19689
G1 X123.679 Y98.558 E4.21536
G1 X124.185 Y98.73 E4.22603
G1 X125.033 Y99.054 E4.24414
G1 X125.532 Y99.266 E4.25496
G1 X126.36 Y99.654 E4.27321
G1 X126.853 Y99.908 E4.28428
G1 X127.639 Y100.351 E4.30228
G1 X128.091 Y100.627 E4.31285
G1 X128.866 Y101.14 E4.3314
G1 X129.307 Y101.457 E4.34224
G1 X130.021 Y102.009 E4.36025
G1 X130.434 Y102.352 E4.37096
G1 X131.109 Y102.957 E4.38905
G1 X131.498 Y103.333 E4.39985
G1 X132.135 Y103.994 E4.41816
G1 X132.492 Y104.392 E4.42883
G1 X133.082 Y105.1 E4.44723
G1 X133.419 Y105.536 E4.45822
G1 X133.944 Y106.271 E4.47625
G1 X134.241 Y106.721 E4.48701
G1 X134.72 Y107.507 E4.50538
G1 X134.985 Y107.981 E4.51621
G1 X135.403 Y108.796 E4.53449
G1 X135.63 Y109.28 E4.54516
G1 X135.983 Y110.111 E4.56318
G1 X136.174 Y110.61 E4.57384
G1 X136.467 Y111.467 E4.59191
G1 X136.626 Y111.997 E4.60296
G1 X136.86 Y112.896 E4.6215
G1 X136.977 Y113.42 E4.63221
G1 X137.142 Y114.316 E4.65039
G1 X137.22 Y114.854 E4.66124
G1 X137.319 Y115.762 E4.67947
G1 X137.358 Y116.294 E4.69011
G1 X137.391 Y117.199 E4.70818
G1 X137.391 Y117.747 E4.71912
G1 X137.357 Y118.651 E4.73717
G1 X137.318 Y119.175 E4.74766
G1 X137.219 Y120.083 E4.76589
G1 X137.141 Y120.62 E4.77672
G1 X136.976 Y121.517 E4.79492
G1 X136.855 Y122.059 E4.806
G1 X136.619 Y122.957 E4.82453
G1 X136.466 Y123.465 E4.83512
G1 X136.173 Y124.324 E4.85323
G1 X135.979 Y124.831 E4.86406
G1 X135.626 Y125.661 E4.88206
G1 X135.398 Y126.147 E4.89277
G1 X136.134 Y127.037 E4.91582
G1 X136.594 Y127.654 E4.93118
G1 X136.996 Y128.331 E4.94689
G1 X137.018 Y128.373 E4.94784
G1 X137.339 Y129.072 E4.96319
G1 X137.588 Y129.807 E4.97867
G1 X137.704 Y130.221 E4.98725
G1 X137.896 Y130.841 E5.00021
G1 X138.084 Y131.587 E5.01556
G1 X138.193 Y132.326 E5.03047
G1 X138.197 Y132.368 E5.03131
G1 X138.23 Y133.137 E5.04667
G1 X138.18 Y133.929 E5.06251
G1 X138.104 Y134.576 E5.07551
G1 X138.058 Y135.077 E5.08555
G1 X137.947 Y135.839 E5.10091
G1 X137.791 Y136.476 E5.114
G1 X137.779 Y136.517 E5.11485
G1 X137.525 Y137.243 E5.1302
G1 X137.124 Y138.071 E5.14856
G1 X136.705 Y138.815 E5.1656
G1 X136.581 Y139.053 E5.17096
G1 X136.191 Y139.717 E5.18632
G1 X135.742 Y140.326 E5.20142
G1 X135.715 Y140.359 E5.20227
G1 X135.198 Y140.928 E5.21762
G1 X134.568 Y141.486 E5.23441
G1 X133.413 Y142.396 E5.26376
G1 X132.785 Y142.84 E5.2791
G1 X132.114 Y143.216 E5.29445
G1 X131.408 Y143.521 E5.3098
G1 X130.853 Y143.702 E5.32145
G1 X129.433 Y144.105 E5.35091
G1 X128.684 Y144.276 E5.36624
G1 X127.94 Y144.367 E5.3812
G1 X127.898 Y144.37 E5.38204
G1 X127.129 Y144.385 E5.39739
G1 X126.505 Y144.338 E5.40987
G1 X125.784 Y144.253 E5.42436
G1 X125.025 Y144.123 E5.43973
G1 X124.644 Y144.027 E5.44757
G1 X123.902 Y143.818 E5.46295
G1 X123.25 Y143.597 E5.47669
G1 X123.143 Y144.075 E5.48647
G1 X122.913 Y144.952 E5.50456
G1 X122.76 Y145.459 E5.51513
G1 X122.469 Y146.314 E5.53315
G1 X122.272 Y146.831 E5.54419
G1 X121.914 Y147.671 E5.56242
G1 X121.69 Y148.147 E5.57291
G1 X121.273 Y148.96 E5.59115
G1 X121 Y149.447 E5.60229
G1 X120.52 Y150.231 E5.62063
G1 X120.23 Y150.67 E5.63113
G1 X119.704 Y151.406 E5.64919
G1 X119.376 Y151.831 E5.6599
G1 X118.788 Y152.539 E5.67827
G1 X118.419 Y152.95 E5.68929
G1 X117.781 Y153.611 E5.70762
G1 X117.388 Y153.99 E5.71852
G1 X116.711 Y154.595 E5.73664
G1 X116.302 Y154.934 E5.74724
G1 X115.587 Y155.486 E5.76526
G1 X115.149 Y155.8 E5.77602
G1 X114.377 Y156.311 E5.79449
G1 X113.926 Y156.587 E5.80505
G1 X113.138 Y157.031 E5.8231
G1 X112.624 Y157.295 E5.83463
G1 X111.8 Y157.678 E5.85276
G1 X111.334 Y157.875 E5.86286
G1 X110.472 Y158.206 E5.88128
G1 X109.954 Y158.383 E5.89221
G1 X109.081 Y158.646 E5.9104
G1 X108.549 Y158.785 E5.92138
G1 X107.661 Y158.982 E5.93953
G1 X107.131 Y159.08 E5.95028
G1 X106.217 Y159.214 E5.96872
G1 X105.685 Y159.272 E5.9794
G1 X104.799 Y159.337 E5.99713
G1 X104.258 Y159.357 E6.00793
G1 X103.323 Y159.357 E6.02659
G1 X102.778 Y159.337 E6.03747
G1 X101.884 Y159.271 E6.05536
G1 X101.353 Y159.212 E6.06602
G1 X100.434 Y159.077 E6.08456
G1 X99.896 Y158.978 E6.09548
G1 X99.019 Y158.782 E6.11341
G1 X98.499 Y158.645 E6.12414
G1 X97.616 Y158.379 E6.14255
G1 X97.101 Y158.203 E6.15341
G1 X96.243 Y157.874 E6.17174
G1 X95.756 Y157.668 E6.1823
G1 X94.933 Y157.283 E6.20043
G1 X94.433 Y157.025 E6.21166
G1 X93.646 Y156.581 E6.22969
G1 X93.201 Y156.309 E6.2401
G1 X92.428 Y155.798 E6.25859
G1 X91.982 Y155.479 E6.26953
G1 X91.267 Y154.926 E6.28757
G1 X90.854 Y154.582 E6.2983
G1 X90.178 Y153.976 E6.31641
G1 X89.789 Y153.601 E6.3272
G1 X89.153 Y152.941 E6.34549
G1 X88.794 Y152.539 E6.35624
G1 X88.204 Y151.83 E6.37465
G1 X87.868 Y151.394 E6.38564
G1 X87.343 Y150.658 E6.40368
G1 X87.05 Y150.216 E6.41426
G1 X86.577 Y149.441 E6.43238
G1 X86.312 Y148.969 E6.44318
G1 X85.889 Y148.146 E6.46165
G1 X85.66 Y147.657 E6.47242
G1 X85.306 Y146.824 E6.49048
G1 X85.114 Y146.321 E6.50123
G1 X84.818 Y145.454 E6.51951
G1 X84.66 Y144.927 E6.53049
G1 X84.433 Y144.055 E6.54847
G1 X84.315 Y143.521 E6.55939
G1 X84.148 Y142.607 E6.57793
G1 X84.071 Y142.087 E6.58842
G1 X83.971 Y141.179 E6.60665
G1 X83.932 Y140.631 E6.61761
G1 X83.9 Y139.729 E6.63562
G1 X83.9 Y139.197 E6.64624
G1 X83.933 Y138.293 E6.66429
G1 X83.972 Y137.753 E6.6751
G1 X84.072 Y136.845 E6.69333
G1 X84.149 Y136.324 E6.70384
G1 X84.316 Y135.411 E6.72236
G1 X84.438 Y134.862 E6.73358
G1 X84.667 Y133.99 E6.75157
G1 X84.821 Y133.479 E6.76222
G1 X85.117 Y132.612 E6.78051
G1 X85.311 Y132.106 E6.79132
G1 X85.665 Y131.274 E6.80936
G1 X85.894 Y130.785 E6.82014
G1 X86.319 Y129.959 E6.83868
G1 X86.586 Y129.485 E6.84953
G1 X87.058 Y128.713 E6.86759
G1 X87.348 Y128.274 E6.87809
G1 X87.869 Y127.544 E6.89599
G1 X88.207 Y127.106 E6.90703
G1 X88.801 Y126.393 E6.92555
G1 X89.154 Y125.999 E6.93611
G1 X89.792 Y125.336 E6.95447
G1 X90.194 Y124.949 E6.9656
G1 X90.87 Y124.345 E6.98369
G1 X91.278 Y124.006 E6.99428
G1 X91.993 Y123.454 E7.01231
G1 X92.434 Y123.138 E7.02313
G1 X93.21 Y122.625 E7.0417
G1 X93.66 Y122.35 E7.05222
G1 X94.445 Y121.908 E7.0702
G1 X94.959 Y121.644 E7.08173
G1 X95.788 Y121.259 E7.09997
G1 X96.257 Y121.061 E7.11013
G1 X97.105 Y120.736 E7.12825
G1 X97.627 Y120.558 E7.13926
G1 X97.841 Y120.494 E7.14372
G1 X97.78 Y120.076 E7.15215
G1 X97.681 Y119.169 E7.17036
G1 X97.642 Y118.636 E7.18102
G1 X97.609 Y117.733 E7.19905
G1 X97.609 Y117.185 E7.20999
G1 X97.643 Y116.28 E7.22806
G1 X97.682 Y115.756 E7.23855
