;FLAVOR:Marlin
;TIME:6773
;Filament used: 4.71237m
;Layer height: 0.2
;MINX:22.204
;MINY:57.355
;MINZ:0.2
;MAXX:210.245
;MAXY:170.926
;MAXZ:1.4
;Generated with Cura_SteamEngine 4.6.0
M82 ;absolute extrusion mode
; Ender 3 Custom Start G-code
M140 S50 ; Set Heat Bed temperature
M190 S50 ; Wait for Heat Bed temperature
M104 S160; start warming extruder to 160
G28 ; Home all axes
M117 Nivellement Auto GO !
G29 ; Auto bed-level (BL-Touch)
G92 E0 ; Reset Extruder
M104 S200 ; Set Extruder temperature
M109 S200 ; Wait for Extruder temperature
G1 Z1.0 F3000 ; move z up little to prevent scratching of surface
G1 X0.1 Y20 Z0.3 F5000.0 ; move to start-line position
G1 X0.1 Y200.0 Z0.3 F1500.0 E15 ; draw 1st line
G1 X0.4 Y200.0 Z0.3 F5000.0 ; move to side a little
G1 X0.4 Y20 Z0.3 F1500.0 E30 ; draw 2nd line
G92 E0 ; reset extruder
G1 Z1.0 F3000 ; move z up little to prevent scratching of surface
M117 Allez Printe ma belle !
; End of custom start GCode
G92 E0
G92 E0
G1 F2700 E-5
;LAYER_COUNT:7
;LAYER:0
M107
G0 F6000 X199.053 Y58.289 Z0.2
;TYPE:SKIRT
G1 F2700 E0
G1 F1200 X199.936 Y58.475 E0.03001
G1 X200.8 Y58.739 E0.06006
G1 X201.637 Y59.078 E0.0901
G1 X202.441 Y59.49 E0.12014
G1 X203.205 Y59.971 E0.15017
G1 X203.924 Y60.518 E0.18022
G1 X204.591 Y61.126 E0.21024
G1 X205.202 Y61.791 E0.24027
G1 X205.752 Y62.508 E0.27033
G1 X206.236 Y63.27 E0.30035
G1 X206.651 Y64.072 E0.33039
G1 X206.994 Y64.908 E0.36044
G1 X207.261 Y65.77 E0.39046
G1 X207.486 Y66.882 E0.42819
G1 X207.557 Y67.383 E0.44502
G1 X207.571 Y67.498 E0.44888
G1 X209.131 Y80.871 E0.89668
G1 X209.297 Y82.527 E0.95203
G1 X209.382 Y83.706 E0.99135
G1 X209.416 Y84.461 E1.01649
G1 X209.445 Y85.703 E1.05781
G1 X209.441 Y86.493 E1.08408
G1 X209.414 Y87.556 E1.11945
G1 X209.368 Y88.435 E1.14873
G1 X209.282 Y89.584 E1.18705
G1 X209.209 Y90.307 E1.21122
G1 X209.059 Y91.533 E1.2523
G1 X208.952 Y92.242 E1.27615
G1 X208.74 Y93.478 E1.31786
G1 X208.635 Y94.004 E1.3357
G1 X208.447 Y94.873 E1.36527
G1 X208.435 Y94.87 E1.36568
G1 X208.388 Y95.136 E1.37466
G1 X208.162 Y96.038 E1.40559
G1 X207.853 Y97.175 E1.44478
G1 X207.66 Y97.815 E1.46701
G1 X207.412 Y98.593 E1.49417
G1 X207.31 Y98.896 E1.50481
G1 X206.972 Y99.842 E1.53822
G1 X206.465 Y101.155 E1.58503
G1 X206.282 Y101.592 E1.60079
G1 X205.817 Y102.654 E1.63935
G1 X205.488 Y103.353 E1.66504
G1 X205.03 Y104.284 E1.69955
G1 X204.87 Y104.596 E1.71122
G1 X204.661 Y104.987 E1.72596
G1 X204.268 Y105.703 E1.75313
G1 X204.109 Y105.982 E1.76381
G1 X203.64 Y106.771 E1.79434
G1 X203.004 Y107.793 E1.83437
G1 X202.686 Y108.275 E1.85358
G1 X202.685 Y108.274 E1.85363
G1 X202.573 Y108.445 E1.86043
G1 X202.077 Y109.165 E1.8895
G1 X201.896 Y109.418 E1.89985
G1 X201.47 Y109.996 E1.92373
G1 X200.631 Y111.087 E1.96951
G1 X200.372 Y111.405 E1.98315
G1 X199.623 Y112.296 E2.02186
G1 X198.961 Y113.036 E2.05489
G1 X198.237 Y113.812 E2.09019
G1 X197.645 Y114.414 E2.11827
G1 X197.001 Y115.045 E2.14826
G1 X196.763 Y115.27 E2.15915
G1 X196.227 Y115.761 E2.18333
G1 X195.346 Y116.539 E2.22242
G1 X194.937 Y116.881 E2.24015
G1 X194.787 Y116.995 E2.24642
G1 X194.791 Y117 E2.24663
G1 X194.047 Y117.599 E2.2784
G1 X193.804 Y117.788 E2.28864
G1 X193.197 Y118.246 E2.31393
G1 X192.506 Y118.749 E2.34236
G1 X192.503 Y118.744 E2.34255
G1 X192.259 Y118.925 E2.35266
G1 X191.632 Y119.351 E2.37787
G1 X190.839 Y119.873 E2.40944
G1 X190.558 Y120.051 E2.42051
G1 X190.035 Y120.371 E2.4409
G1 X188.899 Y121.047 E2.48487
G1 X118.682 Y161.776 E5.18474
G1 X118.678 Y161.778 E5.18489
G1 X113.941 Y164.522 E5.36697
G1 X112.696 Y165.221 E5.41445
G1 X111.802 Y165.696 E5.44813
G1 X111.523 Y165.838 E5.45854
G1 X110.955 Y166.116 E5.47957
G1 X109.85 Y166.632 E5.52013
G1 X109.148 Y166.936 E5.54558
G1 X108.117 Y167.359 E5.58264
G1 X107.835 Y167.465 E5.59266
G1 X107.836 Y167.466 E5.59271
G1 X107.4 Y167.629 E5.60819
G1 X106.292 Y168.023 E5.6473
G1 X105.59 Y168.25 E5.67184
G1 X104.456 Y168.592 E5.71124
G1 X103.759 Y168.782 E5.73527
G1 X102.587 Y169.076 E5.77545
G1 X101.906 Y169.228 E5.79866
G1 X100.954 Y169.423 E5.83098
G1 X100.605 Y169.488 E5.84279
G1 X100.014 Y169.587 E5.86272
G1 X99.066 Y169.734 E5.89463
G1 X98.753 Y169.777 E5.90514
G1 X98.031 Y169.864 E5.92932
G1 X96.615 Y170.003 E5.97665
G1 X96.156 Y170.035 E5.99195
G1 X94.967 Y170.098 E6.03155
G1 X94.303 Y170.116 E6.05364
G1 X93.093 Y170.126 E6.09389
G1 X92.37 Y170.11 E6.11794
G1 X91.117 Y170.058 E6.15965
G1 X90.421 Y170.011 E6.18286
G1 X89.189 Y169.901 E6.224
G1 X88.483 Y169.816 E6.24765
G1 X87.334 Y169.657 E6.28623
G1 X86.584 Y169.533 E6.31151
G1 X85.415 Y169.314 E6.35107
G1 X84.693 Y169.157 E6.37564
G1 X83.802 Y168.948 E6.40608
G1 X83.803 Y168.945 E6.40619
G1 X83.519 Y168.879 E6.41589
G1 X82.837 Y168.696 E6.43937
G1 X81.71 Y168.371 E6.47838
G1 X80.977 Y168.139 E6.50395
G1 X79.942 Y167.786 E6.54033
G1 X79.067 Y167.459 E6.57139
G1 X78.148 Y167.096 E6.60426
G1 X77.858 Y166.976 E6.6147
G1 X77.346 Y166.755 E6.63325
G1 X76.138 Y166.218 E6.67721
G1 X35.289 Y147.477 E8.17202
G1 X34.258 Y146.983 E8.21005
G1 X33.945 Y146.821 E8.22177
G1 X33.469 Y146.565 E8.23974
G1 X33.473 Y146.558 E8.24001
G1 X32.958 Y146.273 E8.25959
G1 X32.35 Y145.895 E8.2834
G1 X31.983 Y145.656 E8.29797
G1 X31.613 Y145.404 E8.31286
G1 X31.388 Y145.243 E8.32206
G1 X31.072 Y145.007 E8.33518
G1 X30.733 Y144.744 E8.34945
G1 X30.284 Y144.375 E8.36878
G1 X29.802 Y143.955 E8.39004
G1 X29.326 Y143.52 E8.41149
G1 X28.981 Y143.186 E8.42746
G1 X28.542 Y142.732 E8.44846
G1 X28.277 Y142.445 E8.46146
G1 X27.869 Y141.962 E8.48249
G1 X27.864 Y141.966 E8.4827
G1 X27.438 Y141.443 E8.50513
G1 X27.224 Y141.171 E8.51665
G1 X27.028 Y140.913 E8.52742
G1 X26.657 Y140.399 E8.54851
G1 X26.397 Y140.014 E8.56396
G1 X26.162 Y139.648 E8.57842
G1 X25.857 Y139.141 E8.5981
G1 X25.388 Y138.298 E8.63019
G1 X25.066 Y137.668 E8.65372
G1 X24.746 Y136.962 E8.6795
G1 X24.588 Y136.589 E8.69297
G1 X24.372 Y136.034 E8.71278
G1 X24.064 Y135.155 E8.74376
G1 X23.961 Y134.835 E8.75494
G1 X23.794 Y134.261 E8.77483
G1 X23.608 Y133.527 E8.80001
G1 X23.52 Y133.147 E8.81298
G1 X23.411 Y132.61 E8.83121
G1 X23.306 Y131.988 E8.85219
G1 X23.196 Y131.228 E8.87773
G1 X23.144 Y130.81 E8.89174
G1 X23.089 Y130.275 E8.90963
G1 X23.062 Y129.954 E8.92034
G1 X23.026 Y129.447 E8.93725
G1 X23.004 Y129.018 E8.95153
G1 X23.008 Y128.138 E8.9808
G1 X23.036 Y127.549 E9.00042
G1 X23.069 Y127.081 E9.01602
G1 X23.072 Y127.049 E9.01709
G1 X23.173 Y126.279 E9.04292
G1 X23.271 Y125.707 E9.06222
G1 X23.397 Y125.087 E9.08326
G1 X23.567 Y124.427 E9.10593
G1 X23.625 Y124.23 E9.11276
G1 X23.74 Y123.865 E9.12549
G1 X23.837 Y123.576 E9.13563
G1 X24.183 Y122.687 E9.16736
G1 X24.426 Y122.139 E9.1873
G1 X24.433 Y122.142 E9.18755
G1 X24.706 Y121.554 E9.20911
G1 X25.012 Y121.007 E9.22996
G1 X25.418 Y120.334 E9.2561
G1 X25.435 Y120.307 E9.25716
G1 X26.02 Y119.474 E9.29102
G1 X26.39 Y118.999 E9.31104
G1 X26.801 Y118.505 E9.33242
G1 X27.524 Y117.69 E9.36865
G1 X63.134 Y78.785 E11.12284
G1 X63.149 Y78.77 E11.12355
G1 X65.353 Y76.364 E11.23207
G1 X65.819 Y75.869 E11.25469
G1 X66.467 Y75.24 E11.28472
G1 X67.167 Y74.67 E11.31475
G1 X67.916 Y74.165 E11.34479
G1 X68.706 Y73.727 E11.37483
G1 X69.532 Y73.361 E11.40488
G1 X70.386 Y73.07 E11.43489
G1 X71.264 Y72.855 E11.46496
G1 X71.892 Y72.751 E11.48613
G1 X72.876 Y72.621 E11.51914
G1 X187.864 Y59.188 E15.36967
G1 X187.934 Y59.18 E15.37201
G1 X187.982 Y59.175 E15.37361
G1 X195.67 Y58.276 E15.63106
G1 X196.352 Y58.206 E15.65386
G1 X197.253 Y58.154 E15.68388
G1 X198.156 Y58.182 E15.71393
G1 X199.053 Y58.289 E15.74397
G0 F6000 X196.311 Y57.808
G1 F1200 X197.23 Y57.754 E15.77459
G1 X198.15 Y57.78 E15.80521
G1 X199.065 Y57.886 E15.83584
G1 X199.967 Y58.07 E15.86646
G1 X200.849 Y58.332 E15.89706
G1 X201.706 Y58.67 E15.9277
G1 X202.53 Y59.081 E15.95833
G1 X203.315 Y59.561 E15.98893
G1 X204.055 Y60.108 E16.01954
G1 X204.746 Y60.718 E16.0502
G1 X205.38 Y61.384 E16.08078
G1 X205.955 Y62.104 E16.11143
G1 X206.465 Y62.87 E16.14203
G1 X206.906 Y63.678 E16.17265
G1 X207.276 Y64.521 E16.20327
G1 X207.571 Y65.393 E16.23389
G1 X207.79 Y66.288 E16.26453
G1 X207.882 Y66.824 E16.28262
G1 X207.954 Y67.333 E16.29972
G1 X207.969 Y67.451 E16.30368
G1 X209.529 Y80.83 E16.75168
G1 X209.696 Y82.497 E16.8074
G1 X209.782 Y83.685 E16.84702
G1 X209.816 Y84.45 E16.87249
G1 X209.845 Y85.704 E16.91421
G1 X209.84 Y86.502 E16.94075
G1 X209.814 Y87.574 E16.97641
G1 X209.766 Y88.465 E17.00609
G1 X209.651 Y89.944 E17.05543
G1 X209.606 Y90.355 E17.06918
G1 X209.455 Y91.592 E17.11063
G1 X209.346 Y92.308 E17.13472
G1 X209.132 Y93.554 E17.17677
G1 X209.026 Y94.088 E17.19488
G1 X208.838 Y94.957 E17.22445
G1 X208.833 Y94.956 E17.22462
G1 X208.776 Y95.231 E17.23396
G1 X208.549 Y96.142 E17.26518
G1 X208.237 Y97.288 E17.30469
G1 X208.041 Y97.936 E17.32721
G1 X207.793 Y98.714 E17.35436
G1 X207.687 Y99.03 E17.36545
G1 X207.346 Y99.985 E17.39918
G1 X206.835 Y101.309 E17.44638
G1 X206.649 Y101.751 E17.46233
G1 X206.18 Y102.824 E17.50128
G1 X205.847 Y103.53 E17.52724
G1 X205.389 Y104.461 E17.56175
G1 X205.223 Y104.785 E17.57386
G1 X205.011 Y105.179 E17.58874
G1 X204.453 Y106.186 E17.62703
G1 X203.981 Y106.981 E17.65778
G1 X203.51 Y107.744 E17.6876
G1 X203.338 Y108.013 E17.69822
G1 X203.02 Y108.495 E17.71743
G1 X203.014 Y108.491 E17.71767
G1 X202.902 Y108.671 E17.72472
G1 X202.219 Y109.655 E17.76456
G1 X201.788 Y110.238 E17.78867
G1 X200.8 Y111.515 E17.84238
G1 X200.679 Y111.662 E17.84871
G1 X199.922 Y112.561 E17.8878
G1 X199.254 Y113.308 E17.92113
G1 X198.524 Y114.091 E17.95673
G1 X197.925 Y114.699 E17.98512
G1 X197.281 Y115.33 E18.01511
G1 X197.034 Y115.564 E18.02643
G1 X196.493 Y116.06 E18.05084
G1 X195.603 Y116.846 E18.09033
G1 X195.194 Y117.188 E18.10806
G1 X195.037 Y117.308 E18.11463
G1 X195.041 Y117.312 E18.11482
G1 X194.046 Y118.107 E18.15718
G1 X193.432 Y118.569 E18.18274
G1 X192.741 Y119.072 E18.21117
G1 X192.735 Y119.063 E18.21153
G1 X192.484 Y119.255 E18.22204
G1 X191.852 Y119.685 E18.24746
G1 X191.059 Y120.207 E18.27904
G1 X190.767 Y120.392 E18.29054
G1 X190.239 Y120.715 E18.31112
G1 X189.1 Y121.393 E18.35521
G1 X118.883 Y162.122 E21.05508
G1 X118.879 Y162.124 E21.05523
G1 X114.138 Y164.871 E21.23747
G1 X112.884 Y165.574 E21.28529
G1 X111.99 Y166.049 E21.31896
G1 X111.7 Y166.197 E21.32979
G1 X111.125 Y166.478 E21.35107
G1 X110.01 Y166.999 E21.39201
G1 X109.301 Y167.306 E21.4177
G1 X107.977 Y167.838 E21.46516
G1 X107.978 Y167.84 E21.46524
G1 X107.536 Y168.006 E21.48094
G1 X106.712 Y168.302 E21.51006
G1 X106.416 Y168.403 E21.52046
G1 X105.707 Y168.633 E21.54526
G1 X104.562 Y168.978 E21.58503
G1 X103.858 Y169.17 E21.6093
G1 X102.674 Y169.467 E21.6499
G1 X101.986 Y169.619 E21.67333
G1 X101.034 Y169.814 E21.70566
G1 X100.672 Y169.882 E21.71791
G1 X100.075 Y169.982 E21.73804
G1 X99.127 Y170.129 E21.76995
G1 X98.802 Y170.174 E21.78086
G1 X98.072 Y170.262 E21.80531
G1 X96.959 Y170.375 E21.84252
G1 X96.179 Y170.434 E21.86854
G1 X94.979 Y170.498 E21.90851
G1 X94.307 Y170.516 E21.93087
G1 X93.087 Y170.526 E21.97145
G1 X92.355 Y170.51 E21.9958
G1 X91.091 Y170.458 E22.03788
G1 X90.387 Y170.41 E22.06135
G1 X89.474 Y170.332 E22.09182
G1 X89.142 Y170.298 E22.10292
G1 X88.428 Y170.212 E22.12684
G1 X87.279 Y170.053 E22.16542
G1 X86.512 Y169.926 E22.19128
G1 X85.332 Y169.705 E22.23121
G1 X84.601 Y169.547 E22.25608
G1 X83.71 Y169.338 E22.28652
G1 X83.712 Y169.329 E22.28683
G1 X83.416 Y169.265 E22.2969
G1 X82.726 Y169.08 E22.32066
G1 X81.294 Y168.662 E22.37028
G1 X80.85 Y168.518 E22.3858
G1 X79.803 Y168.161 E22.4226
G1 X78.92 Y167.831 E22.45395
G1 X78.001 Y167.468 E22.48681
G1 X77.7 Y167.343 E22.49765
G1 X77.184 Y167.12 E22.51635
G1 X75.971 Y166.582 E22.56048
G1 X35.117 Y147.838 E24.05548
G1 X34.08 Y147.341 E24.09373
G1 X33.755 Y147.174 E24.10588
G1 X33.279 Y146.918 E24.12386
G1 X33.283 Y146.91 E24.12416
G1 X32.749 Y146.614 E24.14446
G1 X32.131 Y146.231 E24.16865
G1 X31.764 Y145.992 E24.18321
G1 X31.381 Y145.729 E24.19867
G1 X31.156 Y145.568 E24.20787
G1 X30.826 Y145.323 E24.22154
G1 X30.487 Y145.06 E24.23581
G1 X30.021 Y144.677 E24.25587
G1 X29.539 Y144.257 E24.27714
G1 X29.054 Y143.814 E24.29898
G1 X28.696 Y143.466 E24.31559
G1 X28.248 Y143.003 E24.33702
G1 X27.983 Y142.716 E24.35001
G1 X27.558 Y142.214 E24.37189
G1 X27.553 Y142.218 E24.3721
G1 X27.127 Y141.695 E24.39453
G1 X26.905 Y141.413 E24.40647
G1 X26.709 Y141.155 E24.41725
G1 X26.33 Y140.63 E24.43878
G1 X26.06 Y140.23 E24.45483
G1 X25.825 Y139.864 E24.4693
G1 X25.508 Y139.337 E24.48976
G1 X25.195 Y138.781 E24.51098
G1 X24.707 Y137.844 E24.54612
G1 X24.468 Y137.326 E24.56509
G1 X24.22 Y136.745 E24.5861
G1 X23.995 Y136.169 E24.60667
G1 X23.788 Y135.588 E24.62718
G1 X23.683 Y135.278 E24.63807
G1 X23.58 Y134.958 E24.64925
G1 X23.407 Y134.361 E24.66992
G1 X23.218 Y133.617 E24.69545
G1 X23.13 Y133.237 E24.70843
G1 X23.017 Y132.679 E24.72736
G1 X22.91 Y132.045 E24.74875
G1 X22.8 Y131.285 E24.77429
G1 X22.747 Y130.851 E24.78883
G1 X22.692 Y130.316 E24.80672
G1 X22.663 Y129.983 E24.81784
G1 X22.627 Y129.476 E24.83474
G1 X22.604 Y129.033 E24.8495
G1 X22.608 Y128.119 E24.8799
G1 X22.636 Y127.53 E24.89951
G1 X22.67 Y127.044 E24.91571
G1 X22.673 Y127.012 E24.91678
G1 X22.779 Y126.211 E24.94366
G1 X22.877 Y125.639 E24.96296
G1 X23.006 Y124.999 E24.98467
G1 X23.184 Y124.314 E25.00821
G1 X23.242 Y124.117 E25.01504
G1 X23.361 Y123.738 E25.02825
G1 X23.458 Y123.449 E25.03839
G1 X23.817 Y122.525 E25.07136
G1 X24.06 Y121.977 E25.0913
G1 X24.067 Y121.98 E25.09156
G1 X24.343 Y121.386 E25.11334
G1 X24.669 Y120.801 E25.13562
G1 X25.08 Y120.121 E25.16204
G1 X25.097 Y120.094 E25.1631
G1 X25.705 Y119.228 E25.1983
G1 X26.075 Y118.753 E25.21832
G1 X26.501 Y118.24 E25.2405
G1 X27.229 Y117.42 E25.27697
G1 X62.839 Y78.515 E27.03116
G1 X62.854 Y78.5 E27.03187
G1 X65.062 Y76.09 E27.14058
G1 X65.528 Y75.595 E27.16319
G1 X66.188 Y74.953 E27.19382
G1 X66.9 Y74.37 E27.22442
G1 X67.661 Y73.852 E27.25504
G1 X68.464 Y73.401 E27.28567
G1 X69.303 Y73.022 E27.31629
G1 X70.171 Y72.717 E27.34689
G1 X71.063 Y72.488 E27.37752
G1 X71.839 Y72.355 E27.40371
G1 X72.83 Y72.224 E27.43696
G1 X187.818 Y58.791 E31.28748
G1 X195.629 Y57.878 E31.54905
G1 X196.311 Y57.808 E31.57185
G0 F6000 X196.27 Y57.41
G1 F1200 X197.206 Y57.355 E31.60303
G1 X198.144 Y57.379 E31.63424
G1 X199.076 Y57.482 E31.66543
G1 X199.996 Y57.665 E31.69663
G1 X200.897 Y57.926 E31.72783
G1 X201.772 Y58.262 E31.759
G1 X202.616 Y58.672 E31.79021
G1 X203.421 Y59.152 E31.82138
G1 X204.183 Y59.699 E31.85258
G1 X204.896 Y60.309 E31.88379
G1 X205.554 Y60.977 E31.91498
G1 X206.152 Y61.699 E31.94616
G1 X206.687 Y62.469 E31.97734
G1 X207.155 Y63.283 E32.00857
G1 X207.551 Y64.133 E32.03976
G1 X207.874 Y65.013 E32.07094
G1 X208.12 Y65.918 E32.10213
G1 X208.278 Y66.766 E32.13082
G1 X208.351 Y67.284 E32.14822
G1 X208.366 Y67.405 E32.15228
G1 X209.927 Y80.79 E32.60048
G1 X210.094 Y82.467 E32.65653
G1 X210.181 Y83.664 E32.69645
G1 X210.216 Y84.439 E32.72225
G1 X210.245 Y85.706 E32.76441
G1 X210.24 Y86.511 E32.79118
G1 X210.213 Y87.592 E32.82715
G1 X210.165 Y88.495 E32.85722
G1 X210.079 Y89.644 E32.89555
G1 X210.003 Y90.402 E32.92088
G1 X209.85 Y91.65 E32.9627
G1 X209.741 Y92.375 E32.98709
G1 X209.525 Y93.631 E33.02948
G1 X209.417 Y94.173 E33.04786
G1 X209.229 Y95.042 E33.07743
G1 X209.219 Y95.04 E33.07777
G1 X209.165 Y95.326 E33.08745
G1 X208.935 Y96.246 E33.11899
G1 X208.621 Y97.4 E33.15877
G1 X208.422 Y98.058 E33.18163
G1 X208.174 Y98.836 E33.20879
G1 X208.064 Y99.163 E33.22026
G1 X207.719 Y100.128 E33.25435
G1 X207.204 Y101.463 E33.30194
G1 X207.016 Y101.91 E33.31807
G1 X206.542 Y102.993 E33.35739
G1 X206.206 Y103.707 E33.38364
G1 X205.748 Y104.638 E33.41815
G1 X205.576 Y104.974 E33.4307
G1 X205.362 Y105.372 E33.44573
G1 X204.969 Y106.088 E33.4729
G1 X204.797 Y106.389 E33.48443
G1 X204.321 Y107.191 E33.51545
G1 X203.672 Y108.234 E33.5563
G1 X203.354 Y108.716 E33.57551
G1 X203.345 Y108.71 E33.57587
G1 X203.232 Y108.898 E33.58316
G1 X202.736 Y109.618 E33.61224
G1 X202.541 Y109.892 E33.62343
G1 X202.106 Y110.481 E33.64778
G1 X201.111 Y111.766 E33.70184
G1 X200.986 Y111.918 E33.70838
G1 X200.222 Y112.826 E33.74785
G1 X199.548 Y113.58 E33.78149
G1 X198.81 Y114.37 E33.81745
G1 X198.204 Y114.985 E33.84616
