;FLAVOR:Marlin
;TIME:1890
;Filament used: 0.932166m
;Layer height: 0.16
;MINX:92.457
;MINY:97.497
;MINZ:0.2
;MAXX:145.42
;MAXY:137.503
;MAXZ:20
;Generated with Cura_SteamEngine 4.6.0
M82 ;absolute extrusion mode
; Ender 3 Custom Start G-code
M140 S60 ; Set Heat Bed temperature
M190 S60 ; Wait for Heat Bed temperature
M104 S160; start warming extruder to 160
G28 ; Home all axes
M117 Nivellement Auto GO !
G29 ; Auto bed-level (BL-Touch)
G92 E0 ; Reset Extruder
M104 S210 ; Set Extruder temperature
M109 S210 ; Wait for Extruder temperature
G1 Z1.0 F3000 ; move z up little to prevent scratching of surface
G1 X0.1 Y20 Z0.3 F5000.0 ; move to start-line position
G1 X0.1 Y200.0 Z0.3 F1500.0 E15 ; draw 1st line
G1 X0.4 Y200.0 Z0.3 F5000.0 ; move to side a little
G1 X0.4 Y20 Z0.3 F1500.0 E30 ; draw 2nd line
G92 E0 ; reset extruder
G1 Z1.0 F3000 ; move z up little to prevent scratching of surface
M117 Allez Printe ma belle !
; End of custom start GCode
G92 E0
G92 E0
G1 F2700 E-5
;LAYER_COUNT:126
;LAYER:0
M107
G0 F6000 X104.142 Y136.699 Z0.2
;TYPE:SKIRT
G1 F2700 E0
G1 F1200 X103.441 Y136.689 E0.02332
G1 X102.539 Y136.636 E0.05337
G1 X101.646 Y136.504 E0.08339
G1 X100.767 Y136.293 E0.11346
G1 X99.911 Y136.005 E0.1435
G1 X99.084 Y135.643 E0.17353
G1 X98.292 Y135.209 E0.20356
G1 X97.542 Y134.706 E0.2336
G1 X96.839 Y134.139 E0.26364
G1 X96.12 Y133.439 E0.29701
G1 X95.999 Y133.309 E0.30292
G1 X95.413 Y132.622 E0.33295
G1 X94.891 Y131.885 E0.36299
G1 X94.436 Y131.105 E0.39303
G1 X94.052 Y130.288 E0.42305
G1 X93.741 Y129.44 E0.45309
G1 X93.507 Y128.567 E0.48315
G1 X93.351 Y127.678 E0.51317
G1 X93.27 Y126.679 E0.54651
G1 X93.261 Y126.309 E0.55882
G1 X93.257 Y125.668 E0.58014
G1 X93.268 Y124.957 E0.60379
G1 X93.294 Y124.375 E0.62317
G1 X93.314 Y124.096 E0.63247
G1 X93.466 Y121.483 E0.71953
G1 X93.541 Y118.923 E0.80471
G1 X93.545 Y116.388 E0.88902
G1 X93.476 Y113.85 E0.97347
G1 X93.362 Y111.68 E1.04574
G1 X93.285 Y110.483 E1.08564
G1 X93.265 Y110.026 E1.10085
G1 X93.257 Y109.167 E1.12942
G1 X93.268 Y108.463 E1.15284
G1 X93.322 Y107.561 E1.1829
G1 X93.456 Y106.668 E1.21293
G1 X93.668 Y105.79 E1.24297
G1 X93.957 Y104.934 E1.27302
G1 X94.32 Y104.108 E1.30303
G1 X94.755 Y103.316 E1.33308
G1 X95.259 Y102.567 E1.36311
G1 X95.827 Y101.864 E1.39317
G1 X96.333 Y101.33 E1.41764
G1 X96.997 Y100.717 E1.4477
G1 X97.712 Y100.166 E1.47772
G1 X98.473 Y99.679 E1.50777
G1 X99.274 Y99.263 E1.53779
G1 X100.109 Y98.918 E1.56784
G1 X100.971 Y98.649 E1.59787
G1 X101.853 Y98.457 E1.62789
G1 X102.749 Y98.344 E1.65793
G1 X103.385 Y98.311 E1.67911
G1 X104.123 Y98.3 E1.70366
G1 X104.985 Y98.297 E1.73233
G1 X106.013 Y98.3 E1.76652
G1 X133.724 Y98.301 E2.6882
G1 X134.422 Y98.311 E2.71141
G1 X135.324 Y98.364 E2.74147
G1 X136.217 Y98.496 E2.77149
G1 X137.095 Y98.707 E2.80152
G1 X137.951 Y98.995 E2.83156
G1 X138.778 Y99.357 E2.86159
G1 X139.57 Y99.792 E2.89164
G1 X140.321 Y100.294 E2.92169
G1 X141.351 Y101.163 E2.96651
G1 X141.486 Y101.293 E2.97274
G1 X142.108 Y101.947 E3.00276
G1 X142.67 Y102.654 E3.0328
G1 X143.167 Y103.408 E3.06284
G1 X143.596 Y104.203 E3.09288
G1 X143.952 Y105.033 E3.12292
G1 X144.234 Y105.891 E3.15296
G1 X144.438 Y106.771 E3.18301
G1 X144.564 Y107.665 E3.21303
G1 X144.608 Y108.378 E3.23679
G1 X144.615 Y108.644 E3.24564
G1 X144.62 Y109.334 E3.26859
G1 X144.609 Y110.034 E3.29188
G1 X144.585 Y110.594 E3.31052
G1 X144.553 Y111.046 E3.32559
G1 X144.41 Y113.562 E3.40941
G1 X144.335 Y116.139 E3.49516
G1 X144.333 Y118.674 E3.57947
G1 X144.403 Y121.206 E3.66372
G1 X144.513 Y123.283 E3.7329
G1 X144.609 Y124.899 E3.78674
G1 X144.62 Y125.844 E3.81817
G1 X144.609 Y126.529 E3.84096
G1 X144.554 Y127.43 E3.87098
G1 X144.42 Y128.323 E3.90102
G1 X144.208 Y129.201 E3.93106
G1 X143.919 Y130.057 E3.96111
G1 X143.555 Y130.883 E3.99113
G1 X143.119 Y131.674 E4.02117
G1 X142.615 Y132.424 E4.05122
G1 X142.007 Y133.172 E4.08329
G1 X141.895 Y133.297 E4.08887
G1 X141.263 Y133.942 E4.1189
G1 X140.576 Y134.529 E4.14896
G1 X139.841 Y135.053 E4.17898
G1 X139.062 Y135.509 E4.209
G1 X138.245 Y135.895 E4.23906
G1 X137.398 Y136.208 E4.26909
G1 X136.526 Y136.444 E4.29914
G1 X135.637 Y136.602 E4.32917
G1 X134.645 Y136.684 E4.36227
G1 X134.276 Y136.694 E4.37455
G1 X133.741 Y136.7 E4.39235
G1 X105.703 Y136.703 E5.32489
G1 X104.142 Y136.699 E5.37681
G0 F6000 X104.136 Y137.099
G1 F1200 X103.435 Y137.089 E5.40013
G1 X102.516 Y137.036 E5.43075
G1 X101.605 Y136.903 E5.46137
G1 X100.709 Y136.692 E5.49199
G1 X99.834 Y136.404 E5.52262
G1 X98.988 Y136.041 E5.55324
G1 X98.177 Y135.606 E5.58385
G1 X97.406 Y135.102 E5.61449
G1 X96.682 Y134.533 E5.64512
G1 X95.827 Y133.712 E5.68454
G1 X95.706 Y133.582 E5.69045
G1 X95.109 Y132.881 E5.72107
G1 X94.574 Y132.132 E5.75169
G1 X94.107 Y131.338 E5.78232
G1 X93.71 Y130.508 E5.81293
G1 X93.387 Y129.646 E5.84354
G1 X93.14 Y128.759 E5.87417
G1 X92.971 Y127.854 E5.90479
G1 X92.87 Y126.691 E5.94361
G1 X92.857 Y125.662 E5.97784
G1 X92.868 Y124.951 E6.00149
G1 X92.895 Y124.346 E6.02163
G1 X92.917 Y124.047 E6.03161
G1 X93.068 Y121.447 E6.11823
G1 X93.141 Y118.946 E6.20145
G1 X93.145 Y116.398 E6.28619
G1 X93.075 Y113.842 E6.37124
G1 X92.966 Y111.765 E6.44042
G1 X92.865 Y110.039 E6.49792
G1 X92.857 Y109.16 E6.52716
G1 X92.868 Y108.456 E6.55058
G1 X92.923 Y107.537 E6.5812
G1 X93.057 Y106.626 E6.61182
G1 X93.269 Y105.731 E6.64241
G1 X93.558 Y104.857 E6.67303
G1 X93.922 Y104.011 E6.70366
G1 X94.358 Y103.2 E6.73429
G1 X94.863 Y102.43 E6.76492
G1 X95.433 Y101.707 E6.79554
G1 X95.938 Y101.16 E6.8203
G1 X96.049 Y101.048 E6.82554
G1 X96.725 Y100.423 E6.85616
G1 X97.453 Y99.859 E6.88679
G1 X98.226 Y99.36 E6.9174
G1 X99.04 Y98.93 E6.94801
G1 X99.889 Y98.573 E6.97865
G1 X100.765 Y98.29 E7.00927
G1 X101.662 Y98.085 E7.03987
G1 X102.574 Y97.958 E7.0705
G1 X103.371 Y97.911 E7.09705
G1 X104.123 Y97.9 E7.12206
G1 X104.987 Y97.897 E7.1508
G1 X106.01 Y97.9 E7.18483
G1 X133.73 Y97.901 E8.1068
G1 X134.428 Y97.911 E8.13001
G1 X135.347 Y97.964 E8.16063
G1 X136.258 Y98.097 E8.19125
G1 X137.154 Y98.308 E8.22187
G1 X138.028 Y98.596 E8.25248
G1 X138.875 Y98.959 E8.28313
G1 X139.686 Y99.394 E8.31373
G1 X140.456 Y99.898 E8.34434
G1 X141.18 Y100.467 E8.37497
G1 X141.629 Y100.875 E8.39515
G1 X141.764 Y101.005 E8.40138
G1 X142.398 Y101.671 E8.43197
G1 X142.973 Y102.391 E8.46261
G1 X143.483 Y103.157 E8.49322
G1 X143.924 Y103.965 E8.52384
G1 X144.294 Y104.808 E8.55446
G1 X144.589 Y105.68 E8.58507
G1 X144.808 Y106.575 E8.61572
G1 X144.948 Y107.485 E8.64634
G1 X145.008 Y108.363 E8.67561
G1 X145.015 Y108.639 E8.6848
G1 X145.02 Y109.341 E8.70815
G1 X145.009 Y110.041 E8.73143
G1 X144.984 Y110.623 E8.75081
G1 X144.955 Y111.026 E8.76424
G1 X144.809 Y113.595 E8.84983
G1 X144.735 Y116.15 E8.93484
G1 X144.733 Y118.663 E9.01843
G1 X144.803 Y121.211 E9.1032
G1 X144.911 Y123.238 E9.17072
G1 X145.009 Y124.884 E9.22556
G1 X145.02 Y125.85 E9.25769
G1 X145.009 Y126.535 E9.28048
G1 X144.954 Y127.454 E9.3111
G1 X144.82 Y128.365 E9.34173
G1 X144.607 Y129.261 E9.37236
G1 X144.317 Y130.135 E9.40298
G1 X143.953 Y130.98 E9.43359
G1 X143.516 Y131.791 E9.46423
G1 X143.011 Y132.56 E9.49483
G1 X142.305 Y133.439 E9.53232
G1 X142.193 Y133.564 E9.53791
G1 X141.549 Y134.222 E9.56853
G1 X140.851 Y134.822 E9.59914
G1 X140.103 Y135.359 E9.62977
G1 X139.312 Y135.829 E9.66037
G1 X138.482 Y136.229 E9.69102
G1 X137.621 Y136.556 E9.72165
G1 X136.735 Y136.806 E9.75227
G1 X135.831 Y136.979 E9.78288
G1 X134.658 Y137.084 E9.82205
G1 X134.281 Y137.094 E9.83459
G1 X133.741 Y137.1 E9.85256
G1 X120.877 Y137.099 E10.28041
G1 X120.834 Y137.101 E10.28185
G1 X119.619 Y137.1 E10.32226
G1 X105.702 Y137.103 E10.78514
G1 X104.136 Y137.099 E10.83722
G0 F6000 X104.13 Y137.499
G1 F1200 X103.429 Y137.489 E10.86054
G1 X102.493 Y137.436 E10.89172
G1 X101.564 Y137.303 E10.92294
G1 X100.651 Y137.091 E10.95411
G1 X99.758 Y136.803 E10.98532
G1 X98.894 Y136.439 E11.0165
G1 X98.063 Y136.003 E11.04771
G1 X97.273 Y135.498 E11.0789
G1 X96.529 Y134.928 E11.11007
G1 X95.534 Y133.984 E11.15569
G1 X95.413 Y133.854 E11.1616
G1 X94.804 Y133.141 E11.19278
G1 X94.258 Y132.379 E11.22396
G1 X93.779 Y131.573 E11.25515
G1 X93.37 Y130.729 E11.28634
G1 X93.034 Y129.853 E11.31755
G1 X92.775 Y128.952 E11.34873
G1 X92.593 Y128.032 E11.37992
G1 X92.47 Y126.704 E11.42428
G1 X92.457 Y125.656 E11.45914
G1 X92.468 Y124.945 E11.48279
G1 X92.496 Y124.317 E11.5037
G1 X92.519 Y123.994 E11.51447
G1 X92.667 Y121.447 E11.59932
G1 X92.741 Y118.933 E11.68298
G1 X92.745 Y116.408 E11.76696
G1 X92.676 Y113.875 E11.85124
G1 X92.57 Y111.848 E11.91875
G1 X92.486 Y110.534 E11.96254
G1 X92.465 Y110.051 E11.97862
G1 X92.457 Y109.154 E12.00846
G1 X92.468 Y108.45 E12.03187
G1 X92.523 Y107.514 E12.06306
G1 X92.657 Y106.586 E12.09425
G1 X92.87 Y105.672 E12.12546
G1 X93.16 Y104.78 E12.15666
G1 X93.524 Y103.916 E12.18784
G1 X93.961 Y103.086 E12.21904
G1 X94.467 Y102.297 E12.25021
G1 X95.039 Y101.553 E12.28143
G1 X95.654 Y100.879 E12.31177
G1 X95.765 Y100.767 E12.31702
G1 X96.453 Y100.129 E12.34823
G1 X97.193 Y99.553 E12.37942
G1 X97.979 Y99.042 E12.4106
G1 X98.806 Y98.599 E12.4418
G1 X99.668 Y98.229 E12.473
G1 X100.558 Y97.933 E12.5042
G1 X101.47 Y97.714 E12.53539
G1 X102.397 Y97.574 E12.56657
G1 X103.209 Y97.516 E12.59365
G1 X103.593 Y97.506 E12.60643
G1 X104.122 Y97.5 E12.62402
G1 X104.931 Y97.499 E12.65093
G1 X104.931 Y97.5 E12.65096
G1 X104.989 Y97.497 E12.65289
G1 X106.007 Y97.5 E12.68675
G1 X133.736 Y97.501 E13.60902
G1 X134.434 Y97.511 E13.63224
G1 X135.37 Y97.565 E13.66342
G1 X136.298 Y97.697 E13.6946
G1 X137.212 Y97.909 E13.72581
G1 X138.104 Y98.198 E13.75699
G1 X138.969 Y98.561 E13.78819
G1 X139.799 Y98.997 E13.81938
G1 X140.59 Y99.502 E13.85059
G1 X141.334 Y100.073 E13.88178
G1 X141.906 Y100.586 E13.90734
G1 X142.041 Y100.716 E13.91357
G1 X142.688 Y101.395 E13.94477
G1 X143.275 Y102.127 E13.97597
G1 X143.798 Y102.905 E14.00715
G1 X144.252 Y103.726 E14.03836
G1 X144.635 Y104.582 E14.06955
G1 X144.944 Y105.468 E14.10076
G1 X145.176 Y106.376 E14.13193
G1 X145.329 Y107.302 E14.16314
G1 X145.403 Y108.217 E14.19368
G1 X145.415 Y108.634 E14.20755
G1 X145.42 Y109.347 E14.23127
G1 X145.409 Y110.047 E14.25455
G1 X145.383 Y110.651 E14.27466
G1 X145.351 Y111.103 E14.28973
G1 X145.207 Y113.63 E14.37392
G1 X145.135 Y116.127 E14.457
G1 X145.133 Y118.652 E14.54098
G1 X145.203 Y121.18 E14.6251
G1 X145.313 Y123.256 E14.69424
G1 X145.409 Y124.87 E14.74802
G1 X145.42 Y125.546 E14.77051
G1 X145.42 Y125.857 E14.78085
G1 X145.409 Y126.542 E14.80364
G1 X145.354 Y127.478 E14.83482
G1 X145.219 Y128.406 E14.86601
G1 X145.006 Y129.319 E14.89719
G1 X144.716 Y130.211 E14.92839
G1 X144.351 Y131.075 E14.95959
G1 X143.913 Y131.905 E14.9908
G1 X143.407 Y132.694 E15.02197
G1 X142.603 Y133.705 E15.06494
G1 X142.491 Y133.83 E15.07052
G1 X141.835 Y134.502 E15.10175
G1 X141.126 Y135.115 E15.13293
G1 X140.366 Y135.665 E15.16413
G1 X139.562 Y136.148 E15.19533
G1 X138.721 Y136.562 E15.2265
G1 X137.847 Y136.902 E15.25769
G1 X136.947 Y137.166 E15.28889
G1 X136.028 Y137.353 E15.32008
G1 X134.672 Y137.484 E15.36539
G1 X134.285 Y137.494 E15.37827
G1 X133.741 Y137.5 E15.39636
G1 X120.867 Y137.499 E15.82455
G1 X120.834 Y137.501 E15.82565
G1 X119.619 Y137.5 E15.86607
G1 X105.7 Y137.503 E16.32901
G1 X104.13 Y137.499 E16.38123
G0 F6000 X104.057 Y109.1
G1 F1200 X104.345 Y109.1 E16.39081
G1 X104.344 Y109.4 E16.40079
G1 X104.056 Y109.4 E16.41037
G1 X104.057 Y109.1 E16.42035
G0 F6000 X103.657 Y108.7
G1 F1200 X104.745 Y108.7 E16.45653
G1 X104.744 Y109.8 E16.49312
G1 X103.662 Y109.8 E16.52911
G1 X103.656 Y109.794 E16.52939
G1 X103.657 Y108.7 E16.56577
G0 F6000 X103.657 Y125.2
G1 F1200 X104.745 Y125.2 E16.60196
G1 X104.744 Y126.3 E16.63855
G1 X103.662 Y126.3 E16.67454
G1 X103.656 Y126.294 E16.67482
G1 X103.657 Y125.2 E16.7112
G0 F6000 X104.057 Y125.6
G1 F1200 X104.345 Y125.6 E16.72078
G1 X104.344 Y125.9 E16.73076
G1 X104.056 Y125.9 E16.74034
G1 X104.057 Y125.6 E16.75032
G1 F2700 E11.75032
G0 F6000 X105.587 Y127.161
G0 X120.2 Y127.161
G0 X120.653 Y126.708
G0 X121.043 Y125.2
G1 F2700 E16.75032
G1 F1200 X134.203 Y125.2 E17.18802
G1 X134.221 Y125.218 E17.18887
G1 X134.22 Y126.3 E17.22486
G1 X121.043 Y126.299 E17.66312
G1 X121.043 Y125.2 E17.69968
G0 F6000 X121.443 Y125.6
G1 F1200 X133.821 Y125.6 E18.11137
G1 X133.82 Y125.9 E18.12135
G1 X121.443 Y125.899 E18.53301
G1 X121.443 Y125.6 E18.54296
G0 F6000 X121.443 Y109.1
G1 F1200 X133.821 Y109.1 E18.95465
G1 X133.82 Y109.4 E18.96463
G1 X121.443 Y109.4 E19.37629
G1 X121.443 Y109.1 E19.38627
G0 F6000 X121.043 Y108.7
G1 F1200 X134.203 Y108.7 E19.82397
G1 X134.221 Y108.718 E19.82482
G1 X134.22 Y109.8 E19.8608
G1 X121.043 Y109.8 E20.29907
G1 X121.043 Y108.7 E20.33566
G1 F2700 E15.33566
;MESH:fixation articulaire.stl
G0 F6000 X119.629 Y108.914
G0 X119.443 Y125.9
;TYPE:WALL-INNER
G1 F2700 E20.33566
G1 F1200 X119.143 Y125.9 E20.34564
G1 X106.344 Y125.9 E20.77133
G1 X106.345 Y125.6 E20.78131
G1 X119.143 Y125.6 E21.10135
G1 X119.142 Y109.4 E21.64017
G1 X106.344 Y109.4 E22.06583
G1 X106.345 Y109.1 E22.07581
G1 X119.142 Y109.1 E22.39583
G1 X119.443 Y109.1 E22.40584
G1 X119.443 Y109.4 E22.41582
G1 X119.443 Y125.6 E22.82162
G1 X119.443 Y125.9 E22.83159
G0 F6000 X119.843 Y126.3
;TYPE:WALL-OUTER
G1 F1200 X105.944 Y126.3 E23.29388
G1 X105.945 Y125.2 E23.33046
G1 X118.743 Y125.2 E23.75613
G1 X118.742 Y109.8 E24.26833
G1 X105.944 Y109.8 E24.694
G1 X105.945 Y108.7 E24.73058
G1 X119.843 Y108.7 E25.19283
G1 X119.843 Y126.3 E25.77821
M104 S210
G0 F6000 X119.243 Y125.818
G1 F2700 E20.77821
;MESH:NONMESH
G0 F300 X119.243 Y125.818 Z0.32
G0 F6000 X119.629 Y108.914
G0 X121.043 Y108.7
;TIME_ELAPSED:48.375757
;LAYER:1
M140 S60
M106 S85
;TYPE:SUPPORT
G1 F2700 E25.77821
G1 F1350 X134.203 Y108.7 E26.04083
G1 X134.221 Y108.718 E26.04134
G1 X134.22 Y109.8 E26.06293
G1 X121.043 Y109.8 E26.32589
G1 X121.043 Y108.7 E26.34785
G0 F7500 X122 Y109.52
G1 F1350 X124 Y109.52 E26.38776
G1 X124 Y108.98 E26.39853
G1 X126 Y108.98 E26.43845
G1 X126 Y109.52 E26.44922
G1 X128 Y109.52 E26.48913
G1 X128 Y108.98 E26.49991
G1 X130 Y108.98 E26.53982
G1 X130 Y109.52 E26.5506
G1 X132 Y109.52 E26.59051
G1 X132 Y108.98 E26.60129
G1 X133.941 Y108.98 E26.64002
G1 X133.94 Y109.52 E26.6508
G1 X132 Y109.52 E26.68951
G1 F2700 E21.68951
G0 F7500 X132 Y110.665
G0 X122 Y110.665
G0 X122 Y109.52
G1 F2700 E26.68951
G1 F1350 X121.323 Y109.52 E26.70302
G1 X121.323 Y108.98 E26.7138
G1 X122 Y108.98 E26.72731
G1 X122 Y109.52 E26.73809
G1 F2700 E21.73809
G0 F7500 X122 Y110.665
G0 X121.043 Y124.335
G0 X121.043 Y125.2
G1 F2700 E26.73809
G1 F1350 X134.203 Y125.2 E27.00071
G1 X134.221 Y125.218 E27.00122
G1 X134.22 Y126.3 E27.02281
G1 X121.043 Y126.299 E27.28577
G1 X121.043 Y125.2 E27.3077
G0 F7500 X122 Y126.019
G1 F1350 X124 Y126.019 E27.34761
G1 X124 Y125.48 E27.35837
G1 X126 Y125.48 E27.39828
G1 X126 Y126.019 E27.40904
G1 X128 Y126.019 E27.44895
G1 X128 Y125.48 E27.45971
G1 X130 Y125.48 E27.49962
G1 X130 Y126.019 E27.51038
G1 X132 Y126.019 E27.55029
G1 X132 Y125.48 E27.56104
G1 X133.941 Y125.48 E27.59978
G1 X133.94 Y126.02 E27.61056
G1 X132 Y126.019 E27.64927
G1 F2700 E22.64927
G0 F7500 X132 Y127.165
G0 X122 Y127.165
G0 X122 Y126.019
G1 F2700 E27.64927
G1 F1350 X121.323 Y126.019 E27.66278
G1 X121.323 Y125.48 E27.67354
G1 X122 Y125.48 E27.68705
G1 X122 Y126.019 E27.6978
G1 F2700 E22.6978
;MESH:fixation articulaire.stl
G0 F7500 X119.623 Y126.019
G0 X119.443 Y125.9
;TYPE:WALL-INNER
G1 F2700 E27.6978
G1 F1350 X119.143 Y125.9 E27.70379
G1 X105.898 Y125.9 E27.96811
G1 X105.899 Y125.6 E27.9741
G1 X119.143 Y125.6 E28.17281
G1 X119.142 Y109.4 E28.4961
G1 X105.899 Y109.4 E28.76038
G1 X105.899 Y109.1 E28.76637
G1 X119.142 Y109.1 E28.96507
G1 X119.443 Y109.1 E28.97108
G1 X119.443 Y109.4 E28.97707
G1 X119.443 Y125.6 E29.22055
G1 X119.443 Y125.9 E29.22653
G0 F7500 X119.843 Y126.3
;TYPE:WALL-OUTER
G1 F1350 X105.498 Y126.3 E29.5128
G1 X105.499 Y125.2 E29.53475
G1 X118.743 Y125.2 E29.79905
G1 X118.742 Y109.8 E30.10638
G1 X105.499 Y109.8 E30.37065
G1 X105.499 Y108.7 E30.39261
G1 X119.843 Y108.7 E30.67886
G1 X119.843 Y126.3 E31.03008
G0 F7500 X119.243 Y125.818
G1 F2700 E26.03008
;MESH:NONMESH
G0 F300 X119.243 Y125.818 Z0.44
G0 F7500 X119.629 Y108.914
G0 X121.043 Y108.7
;TIME_ELAPSED:65.590458
