;FLAVOR:Marlin
;TIME:5699
;Filament used: 3.35947m
;Layer height: 0.16
;MINX:86.443
;MINY:65.23
;MINZ:0.2
;MAXX:148.557
;MAXY:169.762
;MAXZ:4.88
;Generated with Cura_SteamEngine 4.8.0
M82 ;absolute extrusion mode
; Ender 3 Custom Start G-code
M117 Getting the bed up to temp!
M140 S60 ; Set Heat Bed temperature
M190 S60 ; Wait for Heat Bed temperature
M117 Pre-heating the extruder!
M104 S160; start warming extruder to 160
G28 ; Home all axes
M117 Auto bed-level GO!
G29 ; Auto bed-level (BL-Touch)
G92 E0 ; Reset Extruder
M117 Getting the extruder up to temp!
M104 S210 ; Set Extruder temperature
M109 S210 ; Wait for Extruder temperature
G1 Z1.0 F3000 ; move z up little to prevent scratching of surface
G1 X0.1 Y20 Z0.3 F5000.0 ; move to start-line position
M117 LET THE PURGE BEGIN!
G1 X0.1 Y200.0 Z0.3 F1500.0 E15 ; draw 1st line
G1 X0.4 Y200.0 Z0.3 F5000.0 ; move to side a little
G1 X0.4 Y20 Z0.3 F1500.0 E30 ; draw 2nd line
G92 E0 ; reset extruder
G1 Z1.0 F3000 ; move z up little to prevent scratching of surface
M117 Autobots! Roll Out!
; End of custom start GCode
G92 E0
G92 E0
G1 F2700 E-5
;LAYER_COUNT:26
;LAYER:0
M107
G0 F6000 X90.028 Y71.131 Z0.2
;TYPE:SKIRT
G1 F2700 E0
G1 F1200 X90.106 Y71.036 E0.00409
G1 X90.322 Y70.782 E0.01518
G1 X90.634 Y70.428 E0.03087
G1 X90.704 Y70.351 E0.03433
G1 X91.154 Y69.884 E0.0559
G1 X91.377 Y69.666 E0.06628
G1 X91.893 Y69.193 E0.08956
G1 X92.238 Y68.9 E0.10461
G1 X92.426 Y68.746 E0.1127
G1 X92.876 Y68.396 E0.13166
G1 X93.02 Y68.29 E0.1376
G1 X93.364 Y68.047 E0.15161
G1 X93.588 Y67.895 E0.16062
G1 X94.211 Y67.502 E0.18511
G1 X94.529 Y67.316 E0.19737
G1 X94.931 Y67.092 E0.21267
G1 X95.014 Y67.048 E0.2158
G1 X95.455 Y66.827 E0.23221
G1 X95.723 Y66.7 E0.24207
G1 X96.225 Y66.477 E0.26034
G1 X96.423 Y66.395 E0.26747
G1 X96.883 Y66.217 E0.28387
G1 X97.134 Y66.126 E0.29275
G1 X97.571 Y65.978 E0.3081
G1 X98.026 Y65.84 E0.32391
G1 X98.245 Y65.779 E0.33147
G1 X98.655 Y65.674 E0.34555
G1 X98.836 Y65.631 E0.35174
G1 X99.318 Y65.528 E0.36813
G1 X99.596 Y65.475 E0.37754
G1 X100.183 Y65.379 E0.39733
G1 X100.601 Y65.326 E0.41134
G1 X100.801 Y65.304 E0.41803
G1 X101.77 Y65.24 E0.45033
G1 X102.239 Y65.23 E0.46593
G1 X102.695 Y65.23 E0.4811
G1 X103.241 Y65.241 E0.49926
G1 X104.261 Y65.309 E0.53327
G1 X104.622 Y65.354 E0.54537
G1 X105.162 Y65.429 E0.5635
G1 X107.726 Y65.749 E0.64944
G1 X110.221 Y65.989 E0.73281
G1 X112.718 Y66.157 E0.81604
G1 X115.286 Y66.258 E0.90152
G1 X117.779 Y66.285 E0.98444
G1 X120.262 Y66.243 E1.06704
G1 X122.818 Y66.126 E1.15214
G1 X125.332 Y65.94 E1.23599
G1 X127.843 Y65.682 E1.31994
G1 X129.703 Y65.446 E1.3823
G1 X130.319 Y65.361 E1.40299
G1 X130.67 Y65.318 E1.41475
G1 X130.85 Y65.299 E1.42077
G1 X131.77 Y65.241 E1.45143
G1 X132.238 Y65.231 E1.467
G1 X132.695 Y65.23 E1.4822
G1 X133.241 Y65.241 E1.50036
G1 X134.244 Y65.307 E1.53379
G1 X134.36 Y65.32 E1.53768
G1 X134.706 Y65.365 E1.54928
G1 X135.004 Y65.408 E1.55929
G1 X135.612 Y65.513 E1.57982
G1 X135.978 Y65.591 E1.59226
G1 X136.293 Y65.663 E1.60301
G1 X137.032 Y65.859 E1.62844
G1 X137.362 Y65.959 E1.63991
G1 X137.903 Y66.138 E1.65886
G1 X138.05 Y66.191 E1.66406
G1 X138.484 Y66.358 E1.67952
G1 X138.726 Y66.457 E1.68822
G1 X139.237 Y66.681 E1.70678
G1 X139.418 Y66.766 E1.71343
G1 X139.746 Y66.927 E1.72558
G1 X140.151 Y67.137 E1.74075
G1 X140.264 Y67.198 E1.74503
G1 X140.812 Y67.514 E1.76607
G1 X141.091 Y67.686 E1.77697
G1 X141.737 Y68.117 E1.8028
G1 X142.032 Y68.329 E1.81488
G1 X142.579 Y68.748 E1.8378
G1 X142.733 Y68.874 E1.84441
G1 X143.007 Y69.107 E1.85638
G1 X143.198 Y69.274 E1.86482
G1 X143.659 Y69.7 E1.88569
G1 X143.761 Y69.8 E1.89044
G1 X144.115 Y70.161 E1.90726
G1 X144.341 Y70.401 E1.91822
G1 X144.434 Y70.503 E1.92282
G1 X144.782 Y70.905 E1.9405
G1 X144.973 Y71.136 E1.95047
G1 X145.258 Y71.495 E1.96571
G1 X145.343 Y71.607 E1.97039
G1 X145.647 Y72.028 E1.98766
G1 X145.849 Y72.322 E1.99953
G1 X146.3 Y73.034 E2.02756
G1 X146.46 Y73.31 E2.03817
G1 X146.782 Y73.908 E2.06076
G1 X146.877 Y74.098 E2.06783
G1 X147.013 Y74.381 E2.07827
G1 X147.145 Y74.665 E2.08868
G1 X147.471 Y75.443 E2.11674
G1 X147.574 Y75.718 E2.12651
G1 X147.777 Y76.31 E2.14732
G1 X147.851 Y76.548 E2.15561
G1 X147.968 Y76.953 E2.16963
G1 X148.048 Y77.25 E2.17986
G1 X148.24 Y78.089 E2.20849
G1 X148.286 Y78.335 E2.21681
G1 X148.356 Y78.757 E2.23104
G1 X148.391 Y78.995 E2.23904
G1 X148.436 Y79.342 E2.25068
G1 X148.454 Y79.499 E2.25594
G1 X148.524 Y80.526 E2.29017
G1 X148.555 Y82.032 E2.34028
G1 X148.557 Y82.258 E2.34779
G1 X148.557 Y152.72 E4.69137
G1 X148.555 Y152.948 E4.69895
G1 X148.524 Y154.446 E4.74879
G1 X148.474 Y155.289 E4.77687
G1 X148.465 Y155.381 E4.77995
G1 X148.408 Y155.856 E4.79586
G1 X148.364 Y156.166 E4.80627
G1 X148.278 Y156.683 E4.82371
G1 X148.193 Y157.103 E4.83796
G1 X148.138 Y157.352 E4.84644
G1 X148.024 Y157.819 E4.86243
G1 X147.993 Y157.935 E4.86642
G1 X147.875 Y158.343 E4.88055
G1 X147.79 Y158.618 E4.89012
G1 X147.575 Y159.247 E4.91223
G1 X147.485 Y159.486 E4.92072
G1 X147.321 Y159.896 E4.93541
G1 X147.208 Y160.163 E4.94505
G1 X146.894 Y160.84 E4.96988
G1 X146.76 Y161.105 E4.97975
G1 X146.4 Y161.762 E5.00467
G1 X146.208 Y162.085 E5.01717
G1 X145.97 Y162.466 E5.03211
G1 X145.886 Y162.595 E5.03723
G1 X145.525 Y163.116 E5.05831
G1 X145.349 Y163.355 E5.06818
G1 X144.967 Y163.844 E5.08882
G1 X144.852 Y163.983 E5.09482
G1 X144.633 Y164.239 E5.10603
G1 X144.427 Y164.473 E5.1164
G1 X143.856 Y165.075 E5.14399
G1 X143.601 Y165.324 E5.15585
G1 X142.961 Y165.902 E5.18453
G1 X142.666 Y166.148 E5.1973
G1 X142.167 Y166.54 E5.21841
G1 X142.009 Y166.657 E5.22495
G1 X141.746 Y166.846 E5.23572
G1 X141.575 Y166.965 E5.24265
G1 X141.271 Y167.169 E5.25483
G1 X141.166 Y167.237 E5.25899
G1 X140.648 Y167.553 E5.27917
G1 X140.377 Y167.708 E5.28955
G1 X139.857 Y167.987 E5.30918
G1 X139.678 Y168.077 E5.31584
G1 X139.292 Y168.262 E5.33008
G1 X139.015 Y168.388 E5.3402
G1 X138.319 Y168.676 E5.36526
G1 X138.012 Y168.791 E5.37616
G1 X137.286 Y169.034 E5.40162
G1 X136.936 Y169.138 E5.41377
G1 X136.218 Y169.326 E5.43845
G1 X136.018 Y169.371 E5.44527
G1 X135.69 Y169.439 E5.45641
G1 X135.452 Y169.485 E5.46447
G1 X135.024 Y169.56 E5.47893
G1 X134.504 Y169.631 E5.49638
G1 X134.229 Y169.662 E5.50559
G1 X133.226 Y169.729 E5.53902
G1 X131.736 Y169.76 E5.58859
G1 X131.507 Y169.762 E5.59621
G1 X103.493 Y169.762 E6.52796
G1 X103.265 Y169.76 E6.53554
G1 X101.769 Y169.729 E6.58531
G1 X100.61 Y169.643 E6.62396
G1 X100.256 Y169.598 E6.63583
G1 X99.799 Y169.53 E6.6512
G1 X99.652 Y169.505 E6.65616
G1 X99.126 Y169.403 E6.67398
G1 X98.854 Y169.343 E6.68324
G1 X98.202 Y169.178 E6.70561
G1 X97.978 Y169.114 E6.71336
G1 X97.537 Y168.979 E6.7287
G1 X96.936 Y168.772 E6.74984
G1 X96.74 Y168.698 E6.75681
G1 X96.358 Y168.546 E6.77048
G1 X96.061 Y168.421 E6.7812
G1 X95.353 Y168.093 E6.80715
G1 X95.073 Y167.951 E6.8176
G1 X94.38 Y167.567 E6.84395
G1 X94.069 Y167.38 E6.85602
G1 X93.719 Y167.161 E6.86975
G1 X93.592 Y167.078 E6.87479
G1 X93.097 Y166.735 E6.89482
G1 X92.852 Y166.555 E6.90494
G1 X92.361 Y166.172 E6.92565
G1 X92.229 Y166.063 E6.93134
G1 X92.003 Y165.871 E6.9412
G1 X91.831 Y165.721 E6.9488
G1 X91.52 Y165.439 E6.96276
G1 X91.417 Y165.342 E6.96746
G1 X91.018 Y164.947 E6.98614
G1 X90.808 Y164.728 E6.99623
G1 X90.463 Y164.351 E7.01323
G1 X90.186 Y164.026 E7.02743
G1 X89.986 Y163.783 E7.0379
G1 X89.598 Y163.283 E7.05895
G1 X89.503 Y163.153 E7.0643
G1 X89.306 Y162.875 E7.07564
G1 X89.189 Y162.704 E7.08253
G1 X88.954 Y162.348 E7.09671
G1 X88.668 Y161.88 E7.11496
G1 X88.545 Y161.667 E7.12314
G1 X88.283 Y161.185 E7.14138
G1 X88.163 Y160.951 E7.15013
G1 X87.94 Y160.489 E7.16719
G1 X87.818 Y160.221 E7.17699
G1 X87.542 Y159.559 E7.20084
G1 X87.436 Y159.279 E7.2108
G1 X87.207 Y158.612 E7.23426
G1 X87.137 Y158.384 E7.24219
G1 X87.019 Y157.97 E7.25651
G1 X86.942 Y157.679 E7.26652
G1 X86.79 Y157.022 E7.28895
G1 X86.734 Y156.742 E7.29844
G1 X86.619 Y156.06 E7.32145
G1 X86.596 Y155.89 E7.32715
G1 X86.54 Y155.409 E7.34326
G1 X86.476 Y154.435 E7.37573
G1 X86.445 Y152.949 E7.42516
G1 X86.443 Y152.72 E7.43278
G1 X86.443 Y82.258 E9.77635
G1 X86.445 Y82.033 E9.78384
G1 X86.476 Y80.521 E9.83414
G1 X86.542 Y79.521 E9.86747
G1 X86.591 Y79.118 E9.88097
G1 X86.625 Y78.873 E9.8892
G1 X86.709 Y78.362 E9.90642
G1 X86.738 Y78.207 E9.91167
G1 X86.818 Y77.815 E9.92497
G1 X86.872 Y77.575 E9.93316
G1 X86.96 Y77.213 E9.94555
G1 X86.99 Y77.098 E9.9495
G1 X87.125 Y76.627 E9.9658
G1 X87.21 Y76.352 E9.97537
G1 X87.425 Y75.723 E9.99748
G1 X87.515 Y75.484 E10.00597
G1 X87.671 Y75.092 E10.02001
G1 X87.783 Y74.826 E10.0296
G1 X88.118 Y74.104 E10.05608
G1 X88.257 Y73.831 E10.06627
G1 X88.551 Y73.292 E10.08669
G1 X88.658 Y73.108 E10.09377
G1 X88.849 Y72.793 E10.10602
G1 X88.987 Y72.573 E10.11466
G1 X89.288 Y72.118 E10.1328
G1 X89.529 Y71.781 E10.14658
G1 X89.703 Y71.547 E10.15628
G1 X90.028 Y71.131 E10.17384
G0 F6000 X90.338 Y71.385
G1 F1200 X90.623 Y71.045 E10.18859
G1 X90.93 Y70.697 E10.20403
G1 X91 Y70.62 E10.20749
G1 X91.433 Y70.17 E10.22826
G1 X91.656 Y69.952 E10.23863
G1 X92.154 Y69.496 E10.26109
G1 X92.492 Y69.209 E10.27584
G1 X92.68 Y69.055 E10.28392
G1 X93.113 Y68.718 E10.30217
G1 X93.257 Y68.612 E10.30812
G1 X93.589 Y68.378 E10.32163
G1 X93.813 Y68.226 E10.33063
G1 X94.413 Y67.847 E10.35424
G1 X94.731 Y67.661 E10.36649
G1 X95.118 Y67.446 E10.38121
G1 X95.201 Y67.402 E10.38434
G1 X95.627 Y67.188 E10.40019
G1 X95.895 Y67.061 E10.41006
G1 X96.378 Y66.847 E10.42763
G1 X96.576 Y66.765 E10.43476
G1 X97.019 Y66.593 E10.45056
G1 X97.27 Y66.502 E10.45944
G1 X97.691 Y66.359 E10.47423
G1 X97.786 Y66.329 E10.47755
G1 X98.134 Y66.226 E10.48962
G1 X98.353 Y66.165 E10.49718
G1 X98.747 Y66.063 E10.51071
G1 X98.928 Y66.02 E10.5169
G1 X99.393 Y65.921 E10.53271
G1 X99.671 Y65.868 E10.54213
G1 X100.236 Y65.775 E10.56117
G1 X100.384 Y65.755 E10.56614
G1 X100.845 Y65.702 E10.58157
G1 X101.778 Y65.64 E10.61267
G1 X102.247 Y65.63 E10.62828
G1 X102.687 Y65.63 E10.64291
G1 X103.233 Y65.641 E10.66107
G1 X104.216 Y65.707 E10.69384
G1 X104.567 Y65.75 E10.7056
G1 X105.133 Y65.829 E10.72461
G1 X107.674 Y66.146 E10.80978
G1 X110.189 Y66.388 E10.89382
G1 X112.711 Y66.558 E10.97789
G1 X115.266 Y66.658 E11.06293
G1 X117.781 Y66.685 E11.14659
G1 X120.287 Y66.643 E11.22995
G1 X122.832 Y66.527 E11.31468
G1 X125.367 Y66.339 E11.39923
G1 X127.848 Y66.084 E11.48218
G1 X129.817 Y65.834 E11.5482
G1 X130.374 Y65.757 E11.5669
G1 X130.712 Y65.716 E11.57822
G1 X130.892 Y65.697 E11.58424
G1 X131.779 Y65.64 E11.61381
G1 X132.247 Y65.63 E11.62938
G1 X132.687 Y65.63 E11.64401
G1 X133.233 Y65.641 E11.66217
G1 X134.2 Y65.705 E11.69441
G1 X134.316 Y65.718 E11.69829
G1 X134.649 Y65.761 E11.70946
G1 X134.947 Y65.804 E11.71947
G1 X135.533 Y65.905 E11.73925
G1 X135.889 Y65.98 E11.75135
G1 X136.204 Y66.052 E11.7621
G1 X136.916 Y66.242 E11.78661
G1 X137.246 Y66.342 E11.79808
G1 X137.767 Y66.514 E11.81632
G1 X137.914 Y66.567 E11.82152
G1 X138.333 Y66.728 E11.83645
G1 X138.575 Y66.827 E11.84515
G1 X139.067 Y67.043 E11.86302
G1 X139.248 Y67.128 E11.86967
G1 X139.564 Y67.283 E11.88138
G1 X139.961 Y67.489 E11.89625
G1 X140.074 Y67.55 E11.90052
G1 X140.602 Y67.855 E11.9208
G1 X140.881 Y68.027 E11.93171
G1 X141.504 Y68.442 E11.9566
G1 X141.799 Y68.654 E11.96869
G1 X142.325 Y69.058 E11.99074
G1 X142.479 Y69.184 E11.99736
G1 X142.744 Y69.408 E12.0089
G1 X142.935 Y69.575 E12.01734
G1 X143.379 Y69.986 E12.03747
G1 X143.676 Y70.282 E12.05141
G1 X143.828 Y70.439 E12.05868
G1 X144.045 Y70.67 E12.06922
G1 X144.138 Y70.772 E12.07381
G1 X144.474 Y71.159 E12.09086
G1 X144.665 Y71.39 E12.10083
G1 X144.94 Y71.737 E12.11555
G1 X145.025 Y71.849 E12.12023
G1 X145.318 Y72.254 E12.13686
G1 X145.52 Y72.548 E12.14872
G1 X145.953 Y73.235 E12.17573
G1 X146.113 Y73.511 E12.18634
G1 X146.424 Y74.087 E12.20811
G1 X146.519 Y74.277 E12.21518
G1 X146.65 Y74.549 E12.22522
G1 X146.782 Y74.833 E12.23564
G1 X147.097 Y75.583 E12.26269
G1 X147.2 Y75.858 E12.27246
G1 X147.395 Y76.429 E12.29253
G1 X147.469 Y76.667 E12.30082
G1 X147.582 Y77.057 E12.31432
G1 X147.662 Y77.354 E12.32455
G1 X147.846 Y78.163 E12.35215
G1 X147.892 Y78.409 E12.36047
G1 X147.96 Y78.815 E12.37416
G1 X147.995 Y79.053 E12.38216
G1 X148.039 Y79.388 E12.3934
G1 X148.057 Y79.545 E12.39866
G1 X148.124 Y80.534 E12.43163
G1 X148.155 Y82.04 E12.48173
G1 X148.157 Y82.258 E12.48898
G1 X148.157 Y152.72 E14.83255
G1 X148.155 Y152.939 E14.83984
G1 X148.124 Y154.437 E14.88967
G1 X148.076 Y155.25 E14.91676
G1 X148.067 Y155.342 E14.91983
G1 X148.012 Y155.8 E14.93518
G1 X147.968 Y156.11 E14.94559
G1 X147.885 Y156.608 E14.96238
G1 X147.803 Y157.016 E14.97622
G1 X147.748 Y157.265 E14.98471
G1 X147.638 Y157.716 E15.00015
G1 X147.607 Y157.832 E15.00414
G1 X147.493 Y158.225 E15.01775
G1 X147.408 Y158.5 E15.02732
G1 X147.201 Y159.106 E15.04862
G1 X147.111 Y159.345 E15.05712
G1 X146.953 Y159.74 E15.07127
G1 X146.84 Y160.007 E15.08091
G1 X146.537 Y160.659 E15.10482
G1 X146.403 Y160.924 E15.1147
G1 X146.056 Y161.557 E15.13871
G1 X145.864 Y161.88 E15.15121
G1 X145.635 Y162.248 E15.16562
G1 X145.551 Y162.377 E15.17074
G1 X145.203 Y162.878 E15.19103
G1 X145.027 Y163.117 E15.2009
G1 X144.659 Y163.589 E15.22081
G1 X144.544 Y163.728 E15.22681
G1 X144.333 Y163.975 E15.23761
G1 X144.127 Y164.209 E15.24798
G1 X143.577 Y164.789 E15.27457
G1 X143.322 Y165.038 E15.28642
G1 X142.705 Y165.595 E15.31407
G1 X142.41 Y165.841 E15.32685
G1 X141.929 Y166.219 E15.34719
G1 X141.771 Y166.336 E15.35373
G1 X141.518 Y166.518 E15.3641
G1 X141.347 Y166.637 E15.37103
G1 X140.949 Y166.901 E15.38691
G1 X140.45 Y167.205 E15.40635
G1 X140.179 Y167.36 E15.41673
G1 X139.678 Y167.629 E15.43564
G1 X139.499 Y167.719 E15.44231
G1 X139.126 Y167.898 E15.45607
G1 X138.849 Y168.024 E15.46619
G1 X138.178 Y168.301 E15.49033
G1 X137.871 Y168.416 E15.50124
G1 X137.172 Y168.651 E15.52576
G1 X136.822 Y168.755 E15.53791
G1 X136.13 Y168.935 E15.56169
G1 X135.93 Y168.98 E15.56851
G1 X135.615 Y169.046 E15.57921
G1 X135.377 Y169.092 E15.58728
G1 X134.96 Y169.165 E15.60136
G1 X134.459 Y169.233 E15.61817
G1 X134.184 Y169.264 E15.62738
G1 X133.217 Y169.329 E15.65961
G1 X131.727 Y169.36 E15.70918
G1 X131.507 Y169.362 E15.7165
G1 X103.493 Y169.362 E16.64825
G1 X103.273 Y169.36 E16.65556
G1 X101.777 Y169.329 E16.70533
G1 X100.66 Y169.246 E16.74259
G1 X100.306 Y169.201 E16.75445
G1 X99.866 Y169.136 E16.76925
G1 X99.719 Y169.111 E16.77421
G1 X99.213 Y169.012 E16.79136
G1 X98.941 Y168.952 E16.80062
G1 X98.312 Y168.793 E16.8222
G1 X98.088 Y168.729 E16.82995
G1 X97.656 Y168.597 E16.84497
G1 X97.077 Y168.398 E16.86534
G1 X96.881 Y168.324 E16.8723
G1 X96.513 Y168.177 E16.88548
G1 X96.216 Y168.052 E16.8962
G1 X95.534 Y167.736 E16.9212
G1 X95.254 Y167.594 E16.93164
G1 X94.586 Y167.224 E16.95704
G1 X94.275 Y167.037 E16.96911
G1 X93.938 Y166.826 E16.98234
G1 X93.811 Y166.743 E16.98738
G1 X93.334 Y166.412 E17.00669
G1 X93.089 Y166.232 E17.0168
G1 X92.616 Y165.864 E17.03674
G1 X92.484 Y165.755 E17.04243
G1 X92.266 Y165.57 E17.05194
G1 X92.094 Y165.42 E17.05953
G1 X91.794 Y165.148 E17.073
G1 X91.691 Y165.051 E17.0777
G1 X91.307 Y164.67 E17.0957
G1 X91.097 Y164.451 E17.10579
G1 X90.764 Y164.088 E17.12217
G1 X90.495 Y163.772 E17.13597
G1 X90.295 Y163.529 E17.14644
G1 X89.921 Y163.047 E17.16673
G1 X89.826 Y162.917 E17.17209
G1 X89.636 Y162.649 E17.18302
G1 X89.519 Y162.478 E17.18991
G1 X89.29 Y162.131 E17.20374
G1 X89.015 Y161.68 E17.2213
G1 X88.892 Y161.467 E17.22948
G1 X88.639 Y161.003 E17.24706
G1 X88.519 Y160.769 E17.25581
G1 X88.304 Y160.324 E17.27225
G1 X88.182 Y160.056 E17.28204
G1 X87.916 Y159.417 E17.30506
G1 X87.81 Y159.137 E17.31502
G1 X87.59 Y158.495 E17.33759
G1 X87.52 Y158.267 E17.34552
G1 X87.406 Y157.867 E17.35936
G1 X87.329 Y157.576 E17.36937
G1 X87.182 Y156.944 E17.39095
G1 X87.126 Y156.664 E17.40045
G1 X87.016 Y156.006 E17.42264
G1 X86.961 Y155.575 E17.43709
G1 X86.938 Y155.366 E17.44408
G1 X86.876 Y154.427 E17.47538
G1 X86.845 Y152.941 E17.52482
G1 X86.843 Y152.72 E17.53217
G1 X86.843 Y82.258 E19.87574
G1 X86.845 Y82.041 E19.88296
G1 X86.876 Y80.529 E19.93326
G1 X86.94 Y79.565 E19.96539
G1 X86.988 Y79.173 E19.97853
G1 X87.022 Y78.928 E19.98676
G1 X87.102 Y78.436 E20.00334
G1 X87.131 Y78.281 E20.00858
