;FLAVOR:Marlin
;TIME:569
;Filament used: 0.253766m
;Layer height: 0.16
;MINX:101.963
;MINY:97.242
;MINZ:0.2
;MAXX:132.941
;MAXY:137.817
;MAXZ:6.88
;Generated with Cura_SteamEngine 4.8.0
M82 ;absolute extrusion mode
; Ender 3 Custom Start G-code
M117 Getting the bed up to temp!
M140 S60 ; Set Heat Bed temperature
M190 S60 ; Wait for Heat Bed temperature
M117 Pre-heating the extruder!
M104 S160; start warming extruder to 160
G28 ; Home all axes
M117 Auto bed-level GO!
G29 ; Auto bed-level (BL-Touch)
G92 E0 ; Reset Extruder
M117 Getting the extruder up to temp!
M104 S210 ; Set Extruder temperature
M109 S210 ; Wait for Extruder temperature
G1 Z1.0 F3000 ; move z up little to prevent scratching of surface
G1 X0.1 Y20 Z0.3 F5000.0 ; move to start-line position
M117 LET THE PURGE BEGIN!
G1 X0.1 Y200.0 Z0.3 F1500.0 E15 ; draw 1st line
G1 X0.4 Y200.0 Z0.3 F5000.0 ; move to side a little
G1 X0.4 Y20 Z0.3 F1500.0 E30 ; draw 2nd line
G92 E0 ; reset extruder
G1 Z1.0 F3000 ; move z up little to prevent scratching of surface
M117 Autobots! Roll Out!
; End of custom start GCode
G92 E0
G92 E0
G1 F2700 E-5
;LAYER_COUNT:42
;LAYER:0
M107
G0 F6000 X106.267 Y102.02 Z0.2
;TYPE:SKIRT
G1 F2700 E0
G1 F1200 X106.559 Y101.723 E0.01385
G1 X107.302 Y101.034 E0.04756
G1 X107.612 Y100.772 E0.06106
G1 X108.256 Y100.268 E0.08825
G1 X108.427 Y100.144 E0.09528
G1 X108.732 Y99.93 E0.10767
G1 X108.898 Y99.818 E0.11433
G1 X109.475 Y99.455 E0.13701
G1 X109.691 Y99.328 E0.14534
G1 X110.028 Y99.137 E0.15822
G1 X110.607 Y98.838 E0.1799
G1 X110.925 Y98.686 E0.19162
G1 X111.366 Y98.487 E0.20771
G1 X111.446 Y98.453 E0.2106
G1 X111.843 Y98.294 E0.22483
G1 X112.051 Y98.215 E0.23223
G1 X112.458 Y98.069 E0.24661
G1 X113.178 Y97.846 E0.27168
G1 X113.596 Y97.732 E0.28609
G1 X114.505 Y97.525 E0.3171
G1 X114.723 Y97.485 E0.32447
G1 X115.047 Y97.43 E0.3354
G1 X115.191 Y97.408 E0.34024
G1 X115.777 Y97.335 E0.35988
G1 X116.052 Y97.308 E0.36908
G1 X116.51 Y97.272 E0.38436
G1 X116.759 Y97.258 E0.39265
G1 X117.485 Y97.242 E0.4168
G1 X117.687 Y97.244 E0.42352
G1 X118.395 Y97.273 E0.44709
G1 X118.838 Y97.306 E0.46186
G1 X119.811 Y97.423 E0.49446
G1 X120.096 Y97.47 E0.50407
G1 X120.741 Y97.596 E0.52593
G1 X121.045 Y97.665 E0.53629
G1 X121.623 Y97.813 E0.55614
G1 X121.781 Y97.858 E0.5616
G1 X122.414 Y98.059 E0.58369
G1 X122.784 Y98.189 E0.59674
G1 X123.685 Y98.551 E0.62903
G1 X123.978 Y98.684 E0.63973
G1 X124.305 Y98.838 E0.65176
G1 X124.915 Y99.157 E0.67465
G1 X125.098 Y99.26 E0.68164
G1 X125.371 Y99.419 E0.69214
G1 X125.529 Y99.514 E0.69827
G1 X126.056 Y99.852 E0.7191
G1 X126.279 Y100.004 E0.72807
G1 X126.599 Y100.23 E0.7411
G1 X127.113 Y100.624 E0.76264
G1 X127.351 Y100.818 E0.77286
G1 X127.693 Y101.108 E0.78777
G1 X128.162 Y101.543 E0.80905
G1 X128.463 Y101.839 E0.82309
G1 X129.09 Y102.51 E0.85363
G1 X129.268 Y102.717 E0.86271
G1 X129.558 Y103.067 E0.87783
G1 X129.914 Y103.535 E0.89739
G1 X130.092 Y103.782 E0.90751
G1 X130.468 Y104.339 E0.92987
G1 X130.636 Y104.605 E0.94033
G1 X130.919 Y105.079 E0.95869
G1 X130.99 Y105.205 E0.9635
G1 X131.313 Y105.823 E0.98669
G1 X131.467 Y106.142 E0.99848
G1 X131.667 Y106.58 E1.01449
G1 X131.86 Y107.051 E1.03142
G1 X131.972 Y107.344 E1.04185
G1 X132.093 Y107.677 E1.05364
G1 X132.322 Y108.398 E1.0788
G1 X132.39 Y108.641 E1.08719
G1 X132.477 Y108.971 E1.09854
G1 X132.514 Y109.121 E1.10368
G1 X132.627 Y109.629 E1.12099
G1 X132.666 Y109.827 E1.1277
G1 X132.735 Y110.215 E1.14081
G1 X132.759 Y110.365 E1.14586
G1 X132.839 Y110.975 E1.16632
G1 X132.872 Y111.295 E1.17702
G1 X132.921 Y111.968 E1.19947
G1 X132.933 Y112.258 E1.20912
G1 X132.941 Y112.875 E1.22964
G1 X132.939 Y113.011 E1.23417
G1 X132.914 Y113.605 E1.25394
G1 X132.887 Y113.997 E1.26701
G1 X132.85 Y114.42 E1.28113
G1 X132.765 Y115.065 E1.30277
G1 X132.733 Y115.263 E1.30944
G1 X132.651 Y115.718 E1.32482
G1 X132.586 Y116.041 E1.33578
G1 X132.31 Y117.307 E1.37888
G1 X131.787 Y119.885 E1.46637
G1 X131.43 Y121.901 E1.53446
G1 X131.227 Y122.817 E1.56567
G1 X131.078 Y123.328 E1.58337
G1 X130.871 Y123.977 E1.60603
G1 X130.737 Y124.37 E1.61984
G1 X130.631 Y124.663 E1.6302
G1 X128.615 Y130.116 E1.82357
G1 X128.359 Y130.779 E1.84721
G1 X127.984 Y131.639 E1.87841
G1 X127.537 Y132.464 E1.90962
G1 X127.022 Y133.247 E1.94079
G1 X126.442 Y133.984 E1.97198
G1 X125.801 Y134.669 E2.00319
G1 X125.104 Y135.297 E2.03439
G1 X124.356 Y135.863 E2.06559
G1 X123.563 Y136.363 E2.09677
G1 X122.73 Y136.794 E2.12796
G1 X121.863 Y137.152 E2.15916
G1 X120.969 Y137.435 E2.19035
G1 X120.054 Y137.642 E2.22155
G1 X119.125 Y137.769 E2.25274
G1 X118.188 Y137.817 E2.28394
G1 X117.251 Y137.784 E2.31513
G1 X116.32 Y137.672 E2.34632
G1 X115.402 Y137.482 E2.3775
G1 X114.587 Y137.242 E2.40575
G1 X114.293 Y137.143 E2.41607
G1 X113.991 Y137.036 E2.42673
G1 X109.64 Y135.428 E2.58101
G1 X108.996 Y135.179 E2.60397
G1 X108.137 Y134.804 E2.63515
G1 X107.312 Y134.357 E2.66636
G1 X106.529 Y133.841 E2.69755
G1 X105.792 Y133.26 E2.72876
G1 X105.108 Y132.619 E2.75994
G1 X104.48 Y131.922 E2.79114
G1 X103.915 Y131.174 E2.82232
G1 X103.415 Y130.38 E2.85353
G1 X102.984 Y129.547 E2.88472
G1 X102.626 Y128.68 E2.91592
G1 X102.343 Y127.786 E2.94711
G1 X102.138 Y126.871 E2.9783
G1 X102.011 Y125.942 E3.00948
G1 X101.963 Y125.005 E3.04069
G1 X101.973 Y124.454 E3.05902
G1 X102.023 Y123.294 E3.09764
G1 X102.066 Y122.518 E3.12349
G1 X102.135 Y119.992 E3.20753
G1 X102.131 Y117.467 E3.29151
G1 X102.057 Y114.953 E3.37517
G1 X101.985 Y113.58 E3.4209
G1 X101.972 Y113.231 E3.43251
G1 X101.966 Y112.944 E3.44206
G1 X101.967 Y112.447 E3.45859
G1 X101.972 Y112.241 E3.46544
G1 X102.004 Y111.636 E3.48559
G1 X102.023 Y111.397 E3.49357
G1 X102.053 Y111.072 E3.50442
G1 X102.068 Y110.935 E3.50901
G1 X102.159 Y110.288 E3.53074
G1 X102.21 Y109.988 E3.54086
G1 X102.28 Y109.613 E3.55355
G1 X102.432 Y108.953 E3.57607
G1 X102.5 Y108.694 E3.58498
G1 X102.608 Y108.308 E3.59831
G1 X102.64 Y108.202 E3.60199
G1 X102.793 Y107.734 E3.61837
G1 X102.89 Y107.458 E3.6281
G1 X103.032 Y107.076 E3.64166
G1 X103.069 Y106.982 E3.64502
G1 X103.309 Y106.419 E3.66537
G1 X103.439 Y106.136 E3.67573
G1 X103.644 Y105.713 E3.69136
G1 X103.929 Y105.18 E3.71147
G1 X104.038 Y104.989 E3.71878
G1 X104.243 Y104.643 E3.73216
G1 X104.625 Y104.052 E3.75556
G1 X104.787 Y103.818 E3.76503
G1 X105.053 Y103.45 E3.78013
G1 X105.164 Y103.303 E3.78626
G1 X105.54 Y102.832 E3.8063
G1 X105.709 Y102.632 E3.81501
G1 X106.267 Y102.02 E3.84256
G0 F6000 X106.552 Y102.301
G1 F1200 X106.844 Y102.004 E3.85641
G1 X107.561 Y101.339 E3.88894
G1 X107.871 Y101.077 E3.90244
G1 X108.49 Y100.592 E3.92859
G1 X108.661 Y100.468 E3.93562
G1 X108.955 Y100.262 E3.94756
G1 X109.121 Y100.15 E3.95422
G1 X109.677 Y99.799 E3.97609
G1 X109.893 Y99.672 E3.98442
G1 X110.222 Y99.487 E3.99697
G1 X110.78 Y99.199 E4.01786
G1 X111.098 Y99.047 E4.02958
G1 X111.523 Y98.855 E4.04509
G1 X111.603 Y98.821 E4.04798
G1 X111.985 Y98.668 E4.06167
G1 X112.193 Y98.589 E4.06907
G1 X112.59 Y98.446 E4.08311
G1 X113.283 Y98.232 E4.10723
G1 X113.701 Y98.118 E4.12164
G1 X114.577 Y97.918 E4.15153
G1 X114.795 Y97.878 E4.1589
G1 X115.251 Y97.804 E4.17426
G1 X115.816 Y97.733 E4.1932
G1 X116.091 Y97.706 E4.20239
G1 X116.532 Y97.672 E4.2171
G1 X116.781 Y97.658 E4.2254
G1 X117.481 Y97.642 E4.24869
G1 X117.683 Y97.644 E4.25541
G1 X118.365 Y97.672 E4.27811
G1 X118.808 Y97.705 E4.29288
G1 X119.746 Y97.817 E4.3243
G1 X120.031 Y97.864 E4.33391
G1 X120.652 Y97.986 E4.35496
G1 X120.956 Y98.055 E4.36533
G1 X121.514 Y98.197 E4.38448
G1 X121.672 Y98.242 E4.38994
G1 X122.282 Y98.436 E4.41123
G1 X122.652 Y98.566 E4.42428
G1 X123.519 Y98.915 E4.45536
G1 X123.812 Y99.048 E4.46606
G1 X124.131 Y99.199 E4.4778
G1 X124.719 Y99.506 E4.49986
G1 X124.902 Y99.609 E4.50685
G1 X125.165 Y99.762 E4.51697
G1 X125.323 Y99.857 E4.5231
G1 X125.831 Y100.182 E4.54316
G1 X126.054 Y100.334 E4.55214
G1 X126.365 Y100.554 E4.56481
G1 X126.86 Y100.934 E4.58556
G1 X127.098 Y101.128 E4.59577
G1 X127.429 Y101.409 E4.61021
G1 X127.881 Y101.828 E4.63071
G1 X128.182 Y102.124 E4.64476
G1 X128.787 Y102.771 E4.67422
G1 X128.965 Y102.978 E4.6833
G1 X129.246 Y103.318 E4.69797
G1 X129.59 Y103.769 E4.71683
G1 X129.768 Y104.016 E4.72696
G1 X130.13 Y104.553 E4.7485
G1 X130.298 Y104.819 E4.75896
G1 X130.571 Y105.275 E4.77664
G1 X130.642 Y105.401 E4.78145
G1 X130.953 Y105.997 E4.80381
G1 X131.107 Y106.316 E4.81559
G1 X131.3 Y106.74 E4.83109
G1 X131.486 Y107.194 E4.8474
G1 X131.598 Y107.487 E4.85784
G1 X131.716 Y107.811 E4.86931
G1 X131.937 Y108.505 E4.89353
G1 X132.005 Y108.748 E4.90192
G1 X132.089 Y109.066 E4.91286
G1 X132.126 Y109.216 E4.918
G1 X132.234 Y109.706 E4.93469
G1 X132.273 Y109.904 E4.9414
G1 X132.34 Y110.278 E4.95404
G1 X132.364 Y110.428 E4.95909
G1 X132.441 Y111.016 E4.97882
G1 X132.474 Y111.336 E4.98952
G1 X132.521 Y111.985 E5.01116
G1 X132.533 Y112.275 E5.02081
G1 X132.541 Y112.869 E5.04057
G1 X132.539 Y113.005 E5.04509
G1 X132.515 Y113.577 E5.06414
G1 X132.488 Y113.969 E5.0772
G1 X132.452 Y114.38 E5.09093
G1 X132.37 Y115.001 E5.11176
G1 X132.294 Y115.452 E5.12697
G1 X132.258 Y115.645 E5.1335
G1 X132.195 Y115.956 E5.14406
G1 X131.921 Y117.214 E5.18688
G1 X131.393 Y119.814 E5.27512
G1 X131.036 Y121.832 E5.34328
G1 X130.836 Y122.73 E5.37388
G1 X130.697 Y123.206 E5.39037
G1 X130.49 Y123.855 E5.41303
G1 X130.361 Y124.234 E5.42635
G1 X130.256 Y124.524 E5.43661
G1 X128.296 Y129.828 E5.62468
G1 X127.985 Y130.635 E5.65344
G1 X127.617 Y131.479 E5.68407
G1 X127.176 Y132.287 E5.71468
G1 X126.668 Y133.054 E5.74528
G1 X126.094 Y133.775 E5.77593
G1 X125.46 Y134.442 E5.80654
G1 X124.771 Y135.052 E5.83715
G1 X124.031 Y135.6 E5.86777
G1 X123.246 Y136.082 E5.89841
G1 X122.423 Y136.494 E5.92902
G1 X121.567 Y136.833 E5.95964
G1 X120.685 Y137.096 E5.99026
G1 X119.783 Y137.282 E6.02089
G1 X118.869 Y137.389 E6.0515
G1 X117.948 Y137.416 E6.08214
G1 X117.029 Y137.363 E6.11276
G1 X116.118 Y137.231 E6.14337
G1 X115.222 Y137.02 E6.17399
G1 X114.714 Y136.863 E6.19168
G1 X114.42 Y136.764 E6.20199
G1 X114.13 Y136.661 E6.21223
G1 X109.784 Y135.055 E6.36633
G1 X109.14 Y134.806 E6.3893
G1 X108.297 Y134.437 E6.4199
G1 X107.489 Y133.996 E6.45052
G1 X106.722 Y133.487 E6.48114
G1 X106.002 Y132.913 E6.51176
G1 X105.334 Y132.279 E6.54239
G1 X104.725 Y131.589 E6.573
G1 X104.177 Y130.849 E6.60363
G1 X103.695 Y130.064 E6.63427
G1 X103.284 Y129.241 E6.66487
G1 X102.945 Y128.384 E6.69552
G1 X102.683 Y127.502 E6.72612
G1 X102.497 Y126.6 E6.75675
G1 X102.391 Y125.686 E6.78736
G1 X102.372 Y124.471 E6.82777
G1 X102.422 Y123.316 E6.86622
G1 X102.466 Y122.516 E6.89287
G1 X102.535 Y120.002 E6.97652
G1 X102.531 Y117.454 E7.06127
G1 X102.457 Y114.92 E7.14558
G1 X102.385 Y113.559 E7.19091
G1 X102.372 Y113.223 E7.2021
G1 X102.366 Y112.936 E7.21164
G1 X102.367 Y112.457 E7.22758
G1 X102.372 Y112.251 E7.23443
G1 X102.402 Y111.668 E7.25385
G1 X102.421 Y111.429 E7.26182
G1 X102.466 Y110.978 E7.2769
G1 X102.553 Y110.355 E7.29782
G1 X102.604 Y110.055 E7.30794
G1 X102.672 Y109.69 E7.32029
G1 X102.818 Y109.054 E7.34199
G1 X102.886 Y108.795 E7.3509
G1 X102.991 Y108.424 E7.36372
G1 X103.023 Y108.318 E7.3674
G1 X103.171 Y107.866 E7.38322
G1 X103.268 Y107.59 E7.39295
G1 X103.405 Y107.223 E7.40598
G1 X103.442 Y107.129 E7.40934
G1 X103.673 Y106.586 E7.42897
G1 X103.803 Y106.303 E7.43933
G1 X104.002 Y105.892 E7.45452
G1 X104.277 Y105.378 E7.4739
G1 X104.509 Y104.977 E7.48931
G1 X104.586 Y104.849 E7.49428
G1 X104.954 Y104.279 E7.51685
G1 X105.116 Y104.045 E7.52631
G1 X105.372 Y103.691 E7.54084
G1 X105.483 Y103.544 E7.54697
G1 X105.846 Y103.09 E7.5663
G1 X106.015 Y102.89 E7.57501
G1 X106.552 Y102.301 E7.60152
G0 F6000 X106.838 Y102.581
G1 F1200 X107.13 Y102.284 E7.61538
G1 X107.819 Y101.645 E7.64663
G1 X108.129 Y101.383 E7.66013
G1 X108.725 Y100.916 E7.68531
G1 X108.896 Y100.792 E7.69234
G1 X109.179 Y100.594 E7.70383
G1 X109.345 Y100.482 E7.71049
G1 X109.88 Y100.144 E7.73153
G1 X110.096 Y100.017 E7.73987
G1 X110.415 Y99.837 E7.75205
G1 X110.952 Y99.56 E7.77215
G1 X111.27 Y99.408 E7.78387
G1 X111.679 Y99.224 E7.79879
G1 X112.127 Y99.042 E7.81487
G1 X112.335 Y98.963 E7.82227
G1 X112.721 Y98.824 E7.83592
G1 X113.388 Y98.617 E7.85914
G1 X113.806 Y98.503 E7.87356
G1 X114.649 Y98.311 E7.90231
G1 X114.867 Y98.271 E7.90968
G1 X115.312 Y98.199 E7.92468
G1 X115.855 Y98.131 E7.94288
G1 X116.13 Y98.104 E7.95207
G1 X116.554 Y98.071 E7.96621
G1 X116.803 Y98.057 E7.97451
G1 X117.477 Y98.041 E7.99693
G1 X117.679 Y98.043 E8.00365
G1 X118.336 Y98.071 E8.02552
G1 X118.779 Y98.104 E8.0403
G1 X119.681 Y98.212 E8.07051
G1 X119.966 Y98.259 E8.08012
G1 X120.564 Y98.376 E8.10039
G1 X120.868 Y98.445 E8.11075
G1 X121.404 Y98.582 E8.12916
G1 X121.562 Y98.627 E8.13462
G1 X122.149 Y98.814 E8.15511
G1 X122.519 Y98.944 E8.16815
G1 X123.354 Y99.279 E8.19808
G1 X123.647 Y99.412 E8.20878
G1 X123.957 Y99.559 E8.22019
G1 X124.523 Y99.854 E8.24142
G1 X124.706 Y99.957 E8.2484
G1 X124.959 Y100.104 E8.25814
G1 X125.117 Y100.199 E8.26427
G1 X125.606 Y100.513 E8.2836
G1 X125.829 Y100.665 E8.29257
G1 X126.131 Y100.878 E8.30486
G1 X126.608 Y101.244 E8.32486
G1 X126.846 Y101.438 E8.33507
G1 X127.166 Y101.71 E8.34904
G1 X127.601 Y102.113 E8.36877
G1 X127.902 Y102.409 E8.38281
G1 X128.484 Y103.032 E8.41116
G1 X128.662 Y103.239 E8.42024
G1 X128.935 Y103.569 E8.43449
G1 X129.265 Y104.003 E8.45262
G1 X129.443 Y104.25 E8.46275
G1 X129.792 Y104.766 E8.48347
G1 X129.96 Y105.032 E8.49393
G1 X130.222 Y105.472 E8.51096
G1 X130.293 Y105.598 E8.51577
G1 X130.593 Y106.171 E8.53729
G1 X130.747 Y106.49 E8.54907
G1 X130.934 Y106.9 E8.56406
G1 X131.113 Y107.337 E8.57976
G1 X131.225 Y107.63 E8.5902
G1 X131.34 Y107.945 E8.60135
G1 X131.552 Y108.613 E8.62466
G1 X131.62 Y108.856 E8.63305
G1 X131.7 Y109.162 E8.64357
G1 X131.737 Y109.312 E8.64871
G1 X131.842 Y109.784 E8.66479
G1 X131.881 Y109.982 E8.6715
G1 X131.945 Y110.341 E8.68363
G1 X131.969 Y110.491 E8.68868
G1 X132.043 Y111.057 E8.70767
G1 X132.076 Y111.377 E8.71837
G1 X132.121 Y112.001 E8.73918
G1 X132.133 Y112.291 E8.74883
G1 X132.141 Y112.863 E8.76786
G1 X132.139 Y112.999 E8.77238
G1 X132.116 Y113.55 E8.79072
G1 X132.089 Y113.942 E8.80379
G1 X132.054 Y114.339 E8.81705
G1 X131.975 Y114.937 E8.83711
G1 X131.901 Y115.378 E8.85198
G1 X131.865 Y115.571 E8.85851
G1 X131.804 Y115.871 E8.8687
G1 X131.537 Y117.095 E8.91036
G1 X130.999 Y119.743 E9.00024
G1 X130.642 Y121.762 E9.06843
G1 X130.445 Y122.643 E9.09846
G1 X130.316 Y123.084 E9.11374
G1 X130.109 Y123.733 E9.1364
G1 X129.985 Y124.098 E9.14922
G1 X129.881 Y124.386 E9.1594
G1 X127.921 Y129.69 E9.34747
G1 X127.612 Y130.491 E9.37603
G1 X127.25 Y131.318 E9.40605
G1 X126.816 Y132.11 E9.43609
G1 X126.314 Y132.861 E9.46614
G1 X125.747 Y133.564 E9.49618
G1 X125.12 Y134.214 E9.52621
G1 X124.438 Y134.806 E9.55625
G1 X123.707 Y135.336 E9.58628
G1 X122.931 Y135.799 E9.61634
G1 X122.118 Y136.191 E9.64636
G1 X121.273 Y136.51 E9.6764
G1 X120.403 Y136.753 E9.70644
G1 X119.515 Y136.918 E9.73648
G1 X118.616 Y137.004 E9.76652
G1 X117.713 Y137.01 E9.79655
G1 X116.813 Y136.936 E9.82659
G1 X115.923 Y136.783 E9.85662
G1 X114.842 Y136.484 E9.89393
G1 X114.548 Y136.385 E9.90425
G1 X114.269 Y136.286 E9.91409
G1 X109.929 Y134.682 E10.06799
G1 X109.285 Y134.433 E10.09095
G1 X108.457 Y134.07 E10.12102
G1 X107.666 Y133.636 E10.15103
G1 X106.915 Y133.133 E10.18109
G1 X106.213 Y132.566 E10.2111
G1 X105.563 Y131.939 E10.24114
G1 X104.971 Y131.257 E10.27118
G1 X104.442 Y130.525 E10.30122
G1 X103.979 Y129.749 E10.33127
G1 X103.587 Y128.936 E10.36129
G1 X103.269 Y128.09 E10.39135
G1 X103.026 Y127.221 E10.42137
G1 X102.861 Y126.333 E10.45141
G1 X102.776 Y125.433 E10.48147
G1 X102.772 Y124.488 E10.5129
G1 X102.822 Y123.338 E10.55119
G1 X102.866 Y122.549 E10.57747
G1 X102.935 Y120.012 E10.66188
G1 X102.931 Y117.477 E10.7462
G1 X102.855 Y114.888 E10.83235
G1 X102.784 Y113.538 E10.87731
G1 X102.772 Y113.214 E10.88809
G1 X102.766 Y112.927 E10.89764
G1 X102.767 Y112.467 E10.91294
G1 X102.772 Y112.261 E10.91979
G1 X102.801 Y111.7 E10.93848
G1 X102.82 Y111.461 E10.94645
G1 X102.864 Y111.022 E10.96113
G1 X102.947 Y110.423 E10.98124
G1 X102.998 Y110.123 E10.99136
G1 X103.065 Y109.768 E11.00338
G1 X103.205 Y109.156 E11.02426
G1 X103.273 Y108.897 E11.03316
