;FLAVOR:Marlin
;TIME:3173
;Filament used: 1.47751m
;Layer height: 0.16
;MINX:81.929
;MINY:88.825
;MINZ:0.2
;MAXX:152.896
;MAXY:146.163
;MAXZ:9.76
;Generated with Cura_SteamEngine 4.8.0
M82 ;absolute extrusion mode
; Ender 3 Custom Start G-code
M117 Getting the bed up to temp!
M140 S50 ; Set Heat Bed temperature
M190 S50 ; Wait for Heat Bed temperature
M117 Pre-heating the extruder!
M104 S160; start warming extruder to 160
G28 ; Home all axes
M117 Auto bed-level GO!
G29 ; Auto bed-level (BL-Touch)
G92 E0 ; Reset Extruder
M117 Getting the extruder up to temp!
M104 S200 ; Set Extruder temperature
M109 S200 ; Wait for Extruder temperature
G1 Z1.0 F3000 ; move z up little to prevent scratching of surface
G1 X0.1 Y20 Z0.3 F5000.0 ; move to start-line position
M117 LET THE PURGE BEGIN!
G1 X0.1 Y200.0 Z0.3 F1500.0 E15 ; draw 1st line
G1 X0.4 Y200.0 Z0.3 F5000.0 ; move to side a little
G1 X0.4 Y20 Z0.3 F1500.0 E30 ; draw 2nd line
G92 E0 ; reset extruder
G1 Z1.0 F3000 ; move z up little to prevent scratching of surface
M117 Autobots! Roll Out!
; End of custom start GCode
G92 E0
G92 E0
G1 F2700 E-5
;LAYER_COUNT:63
;LAYER:0
M107
G0 F6000 X85.824 Y100.445 Z0.2
;TYPE:SKIRT
G1 F2700 E0
G1 F1200 X86.564 Y99.87 E0.03117
G1 X87.351 Y99.359 E0.06238
G1 X88.178 Y98.918 E0.09355
G1 X89.257 Y98.469 E0.13242
G1 X90.332 Y98.088 E0.17036
G1 X90.869 Y97.907 E0.1892
G1 X93.272 Y97.019 E0.27441
G1 X95.568 Y96.096 E0.35672
G1 X97.899 Y95.081 E0.44128
G1 X100.183 Y94.01 E0.52518
G1 X102.407 Y92.888 E0.60803
G1 X104.665 Y91.668 E0.69339
G1 X106.561 Y90.579 E0.76612
G1 X106.93 Y90.362 E0.78035
G1 X107.758 Y89.921 E0.81156
G1 X108.62 Y89.553 E0.84273
G1 X109.511 Y89.259 E0.87394
G1 X110.424 Y89.043 E0.90514
G1 X111.351 Y88.905 E0.93631
G1 X112.295 Y88.846 E0.96777
G1 X113.292 Y88.827 E1.00094
G1 X113.502 Y88.825 E1.00792
G1 X121.777 Y88.825 E1.28315
G1 X122.636 Y88.836 E1.31172
G1 X123.573 Y88.889 E1.34294
G1 X124.501 Y89.022 E1.37412
G1 X125.415 Y89.234 E1.40532
G1 X126.307 Y89.522 E1.4365
G1 X127.172 Y89.886 E1.46771
G1 X128.002 Y90.322 E1.4989
G1 X128.793 Y90.827 E1.53011
G1 X129.267 Y91.179 E1.54975
G1 X130.285 Y91.978 E1.59279
G1 X130.455 Y92.115 E1.60005
G1 X132.478 Y93.658 E1.68467
G1 X134.502 Y95.114 E1.7676
G1 X136.593 Y96.53 E1.8516
G1 X138.704 Y97.874 E1.93483
G1 X140.861 Y99.162 E2.01839
G1 X141.625 Y99.59 E2.04752
G1 X142.72 Y100.219 E2.08952
G1 X143.513 Y100.72 E2.12071
G1 X143.968 Y101.054 E2.13949
G1 X144.585 Y101.533 E2.16547
G1 X146.688 Y103.213 E2.25499
G1 X147.197 Y103.63 E2.27688
G1 X147.897 Y104.255 E2.30809
G1 X148.54 Y104.937 E2.33926
G1 X149.124 Y105.671 E2.37046
G1 X149.642 Y106.453 E2.40166
G1 X149.926 Y106.951 E2.42073
G1 X150.133 Y107.351 E2.43571
G1 X150.398 Y107.888 E2.45562
G1 X151.558 Y110.297 E2.54455
G1 X151.869 Y110.969 E2.56918
G1 X152.226 Y111.836 E2.60037
G1 X152.508 Y112.731 E2.63158
G1 X152.713 Y113.646 E2.66277
G1 X152.839 Y114.575 E2.69395
G1 X152.878 Y115.166 E2.71365
G1 X152.889 Y115.557 E2.72666
G1 X152.896 Y116.174 E2.74718
G1 X152.896 Y118.913 E2.83828
G1 X152.886 Y119.579 E2.86043
G1 X152.832 Y120.515 E2.89162
G1 X152.698 Y121.444 E2.92283
G1 X152.486 Y122.357 E2.95401
G1 X152.197 Y123.249 E2.98519
G1 X151.998 Y123.747 E3.00303
G1 X151.822 Y124.141 E3.01738
G1 X151.545 Y124.734 E3.03915
G1 X150.391 Y127.126 E3.12749
G1 X150.069 Y127.771 E3.15146
G1 X149.614 Y128.592 E3.18268
G1 X149.092 Y129.371 E3.21387
G1 X148.505 Y130.102 E3.24505
G1 X147.858 Y130.781 E3.27625
G1 X147.455 Y131.15 E3.29442
G1 X147.111 Y131.443 E3.30945
G1 X146.631 Y131.834 E3.33004
G1 X144.511 Y133.524 E3.42022
G1 X143.974 Y133.94 E3.44281
G1 X143.208 Y134.482 E3.47402
G1 X142.679 Y134.803 E3.4946
G1 X141.207 Y135.64 E3.55092
G1 X138.971 Y136.964 E3.63735
G1 X136.83 Y138.314 E3.72153
G1 X134.79 Y139.683 E3.80325
G1 X132.71 Y141.167 E3.88823
G1 X130.664 Y142.713 E3.97352
G1 X129.353 Y143.753 E4.02918
G1 X128.595 Y144.306 E4.06039
G1 X127.793 Y144.793 E4.0916
G1 X126.953 Y145.209 E4.12277
G1 X126.08 Y145.553 E4.15398
G1 X125.181 Y145.82 E4.18517
G1 X124.263 Y146.011 E4.21636
G1 X123.332 Y146.122 E4.24755
G1 X122.727 Y146.152 E4.26769
G1 X122.209 Y146.163 E4.28493
G1 X121.515 Y146.155 E4.30801
G1 X118.793 Y146.078 E4.39858
G1 X116.333 Y146.078 E4.4804
G1 X115.328 Y146.111 E4.51384
G1 X112.735 Y146.162 E4.6001
G1 X111.798 Y146.14 E4.63128
G1 X110.865 Y146.039 E4.66249
G1 X109.945 Y145.859 E4.69367
G1 X109.043 Y145.6 E4.72488
G1 X108.167 Y145.266 E4.75606
G1 X107.028 Y144.696 E4.79843
G1 X105.723 Y143.943 E4.84854
G1 X105.547 Y143.838 E4.85536
G1 X103.373 Y142.628 E4.93811
G1 X101.15 Y141.471 E5.02146
G1 X98.877 Y140.369 E5.10548
G1 X96.573 Y139.331 E5.18953
G1 X94.225 Y138.352 E5.27414
G1 X91.907 Y137.463 E5.35671
G1 X89.613 Y136.654 E5.43761
G1 X89.416 Y136.588 E5.44452
G1 X88.542 Y136.25 E5.47569
G1 X87.699 Y135.839 E5.50689
G1 X86.894 Y135.357 E5.53809
G1 X86.133 Y134.809 E5.56928
G1 X85.422 Y134.198 E5.60046
G1 X84.765 Y133.528 E5.63167
G1 X84.168 Y132.805 E5.66286
G1 X83.634 Y132.034 E5.69405
G1 X83.168 Y131.22 E5.72525
G1 X82.773 Y130.369 E5.75645
G1 X82.452 Y129.488 E5.78764
G1 X82.207 Y128.582 E5.81886
G1 X82.041 Y127.659 E5.85005
G1 X81.944 Y126.507 E5.8885
G1 X81.934 Y126.184 E5.89925
G1 X81.929 Y125.844 E5.91056
G1 X81.929 Y125.363 E5.92656
G1 X81.943 Y124.458 E5.95666
G1 X81.959 Y124.015 E5.9714
G1 X82.106 Y121.439 E6.05722
G1 X82.177 Y118.949 E6.14007
G1 X82.179 Y116.424 E6.22405
G1 X82.109 Y113.909 E6.30774
G1 X82.028 Y112.481 E6.35531
G1 X82.025 Y112.28 E6.36199
G1 X81.956 Y111.083 E6.40187
G1 X81.942 Y110.75 E6.41296
G1 X81.933 Y110.425 E6.42377
G1 X81.929 Y110.121 E6.43388
G1 X81.93 Y109.365 E6.45903
G1 X81.94 Y108.675 E6.48198
G1 X81.994 Y107.738 E6.5132
G1 X82.127 Y106.81 E6.54438
G1 X82.339 Y105.896 E6.57558
G1 X82.627 Y105.004 E6.60676
G1 X82.991 Y104.139 E6.63797
G1 X83.427 Y103.309 E6.66916
G1 X83.932 Y102.519 E6.70034
G1 X84.503 Y101.775 E6.73153
G1 X85.135 Y101.082 E6.76273
G1 X85.824 Y100.445 E6.79394
G0 F6000 X86.212 Y100.642
G1 F1200 X86.948 Y100.089 E6.82456
G1 X87.73 Y99.602 E6.8552
G1 X88.551 Y99.185 E6.88583
G1 X89.39 Y98.846 E6.91592
G1 X90.46 Y98.467 E6.95368
G1 X91.031 Y98.274 E6.97373
G1 X93.381 Y97.406 E7.05705
G1 X95.741 Y96.457 E7.14165
G1 X98.05 Y95.452 E7.22541
G1 X100.354 Y94.371 E7.31005
G1 X102.613 Y93.232 E7.3942
G1 X104.844 Y92.027 E7.47853
G1 X106.7 Y90.96 E7.54974
G1 X107.132 Y90.706 E7.56641
G1 X107.946 Y90.275 E7.59704
G1 X108.793 Y89.915 E7.62765
G1 X109.669 Y89.631 E7.65828
G1 X110.566 Y89.423 E7.68891
G1 X111.477 Y89.294 E7.71951
G1 X112.303 Y89.246 E7.74703
G1 X113.3 Y89.227 E7.78019
G1 X113.502 Y89.225 E7.78691
G1 X121.777 Y89.225 E8.06214
G1 X122.631 Y89.236 E8.09055
G1 X123.55 Y89.289 E8.12116
G1 X124.461 Y89.422 E8.15179
G1 X125.357 Y89.633 E8.1824
G1 X126.231 Y89.921 E8.21301
G1 X127.078 Y90.284 E8.24366
G1 X127.889 Y90.719 E8.27427
G1 X129.021 Y91.494 E8.3199
G1 X130.034 Y92.289 E8.36273
G1 X130.224 Y92.442 E8.37084
G1 X132.207 Y93.956 E8.45382
G1 X134.307 Y95.466 E8.53985
G1 X136.344 Y96.845 E8.62166
G1 X138.506 Y98.222 E8.70692
G1 X140.667 Y99.512 E8.79063
G1 X141.426 Y99.937 E8.81956
G1 X142.521 Y100.566 E8.86156
G1 X143.298 Y101.058 E8.89215
G1 X143.723 Y101.37 E8.90968
G1 X144.336 Y101.845 E8.93548
G1 X146.435 Y103.522 E9.02483
G1 X146.944 Y103.939 E9.04672
G1 X147.63 Y104.553 E9.07734
G1 X148.26 Y105.224 E9.10795
G1 X148.83 Y105.947 E9.13858
G1 X149.335 Y106.717 E9.1692
G1 X149.573 Y107.139 E9.18532
G1 X149.774 Y107.528 E9.19988
G1 X150.038 Y108.061 E9.21966
G1 X151.124 Y110.314 E9.30285
G1 X151.506 Y111.137 E9.33303
G1 X151.856 Y111.989 E9.36366
G1 X152.131 Y112.867 E9.39426
G1 X152.328 Y113.766 E9.42487
G1 X152.447 Y114.679 E9.4555
G1 X152.478 Y115.182 E9.47226
G1 X152.489 Y115.562 E9.4849
G1 X152.496 Y116.174 E9.50526
G1 X152.496 Y118.907 E9.59616
G1 X152.486 Y119.573 E9.61831
G1 X152.432 Y120.492 E9.64893
G1 X152.299 Y121.403 E9.67955
G1 X152.087 Y122.299 E9.71018
G1 X151.63 Y123.59 E9.75573
G1 X151.46 Y123.972 E9.76963
G1 X151.184 Y124.56 E9.79124
G1 X150.033 Y126.948 E9.87941
G1 X149.711 Y127.593 E9.90339
G1 X149.264 Y128.398 E9.93401
G1 X148.749 Y129.161 E9.96463
G1 X148.17 Y129.877 E9.99525
G1 X147.193 Y130.848 E10.04107
G1 X146.858 Y131.133 E10.0557
G1 X146.381 Y131.522 E10.07617
G1 X144.266 Y133.208 E10.16613
G1 X143.729 Y133.624 E10.18872
G1 X142.977 Y134.155 E10.21934
G1 X142.482 Y134.456 E10.23861
G1 X141.193 Y135.189 E10.28793
G1 X140.969 Y135.315 E10.29648
G1 X138.775 Y136.614 E10.38128
G1 X136.625 Y137.97 E10.46583
G1 X134.557 Y139.358 E10.54866
G1 X132.482 Y140.837 E10.63342
G1 X130.408 Y142.406 E10.71991
G1 X129.103 Y143.44 E10.77529
G1 X128.359 Y143.983 E10.80593
G1 X127.571 Y144.459 E10.83655
G1 X126.744 Y144.864 E10.86717
G1 X125.886 Y145.196 E10.89777
G1 X125.002 Y145.453 E10.92839
G1 X124.099 Y145.632 E10.95901
G1 X123.183 Y145.731 E10.98965
G1 X122.718 Y145.752 E11.00513
G1 X122.2 Y145.763 E11.02237
G1 X121.531 Y145.756 E11.04462
G1 X118.804 Y145.678 E11.13536
G1 X116.319 Y145.678 E11.21801
G1 X115.32 Y145.711 E11.25125
G1 X112.727 Y145.762 E11.33751
G1 X111.807 Y145.74 E11.36812
G1 X110.892 Y145.638 E11.39874
G1 X109.989 Y145.458 E11.42937
G1 X109.106 Y145.199 E11.45997
G1 X108.248 Y144.865 E11.4906
G1 X107.228 Y144.349 E11.52862
G1 X105.928 Y143.599 E11.57853
G1 X105.781 Y143.512 E11.58422
G1 X103.548 Y142.269 E11.66922
G1 X101.33 Y141.114 E11.75239
G1 X99.024 Y139.996 E11.83763
G1 X96.755 Y138.974 E11.9204
G1 X94.385 Y137.986 E12.0058
G1 X92.035 Y137.085 E12.08951
G1 X89.701 Y136.262 E12.17182
G1 X89.545 Y136.209 E12.1773
G1 X88.686 Y135.876 E12.20794
G1 X87.86 Y135.471 E12.23854
G1 X87.071 Y134.995 E12.26919
G1 X86.328 Y134.452 E12.2998
G1 X85.634 Y133.848 E12.3304
G1 X84.995 Y133.185 E12.36102
G1 X84.416 Y132.469 E12.39165
G1 X83.901 Y131.705 E12.4223
G1 X83.455 Y130.9 E12.4529
G1 X83.08 Y130.059 E12.48353
G1 X82.779 Y129.189 E12.51415
G1 X82.555 Y128.296 E12.54477
G1 X82.409 Y127.387 E12.57539
G1 X82.344 Y126.495 E12.60514
G1 X82.334 Y126.172 E12.61589
G1 X82.329 Y125.844 E12.6268
G1 X82.33 Y125.187 E12.64865
G1 X82.342 Y124.465 E12.67267
G1 X82.358 Y124.038 E12.68688
G1 X82.504 Y121.473 E12.77233
G1 X82.577 Y118.926 E12.85708
G1 X82.579 Y116.413 E12.94066
G1 X82.508 Y113.874 E13.02514
G1 X82.428 Y112.458 E13.07231
G1 X82.425 Y112.256 E13.07903
G1 X82.356 Y111.06 E13.11888
G1 X82.342 Y110.739 E13.12956
G1 X82.333 Y110.414 E13.14038
G1 X82.329 Y110.121 E13.15012
G1 X82.33 Y109.37 E13.1751
G1 X82.34 Y108.68 E13.19805
G1 X82.393 Y107.761 E13.22867
G1 X82.526 Y106.85 E13.25929
G1 X82.738 Y105.954 E13.28992
G1 X83.026 Y105.08 E13.32052
G1 X83.389 Y104.234 E13.35114
G1 X83.824 Y103.423 E13.38175
G1 X84.328 Y102.652 E13.41239
G1 X84.897 Y101.928 E13.44301
G1 X85.527 Y101.256 E13.47365
G1 X86.212 Y100.642 E13.50425
G0 F6000 X86.6 Y100.843
G1 F1200 X87.332 Y100.314 E13.53429
G1 X88.107 Y99.851 E13.56431
G1 X88.921 Y99.459 E13.59436
G1 X89.524 Y99.223 E13.6159
G1 X90.588 Y98.846 E13.65344
G1 X91.161 Y98.653 E13.67355
G1 X93.52 Y97.781 E13.7572
G1 X95.9 Y96.824 E13.84252
G1 X98.213 Y95.817 E13.92643
G1 X100.525 Y94.733 E14.01136
G1 X102.804 Y93.584 E14.09625
G1 X105.009 Y92.392 E14.17962
G1 X106.968 Y91.267 E14.25475
G1 X107.335 Y91.051 E14.26892
G1 X108.133 Y90.628 E14.29895
G1 X108.965 Y90.278 E14.32898
G1 X109.825 Y90.002 E14.35902
G1 X110.707 Y89.804 E14.38908
G1 X111.602 Y89.684 E14.41912
G1 X112.311 Y89.646 E14.44273
G1 X113.308 Y89.627 E14.4759
G1 X113.502 Y89.625 E14.48235
G1 X121.777 Y89.625 E14.75758
G1 X122.625 Y89.636 E14.78579
G1 X123.527 Y89.689 E14.81584
G1 X124.42 Y89.821 E14.84586
G1 X125.298 Y90.032 E14.8759
G1 X126.154 Y90.32 E14.90593
G1 X126.981 Y90.682 E14.93596
G1 X127.773 Y91.116 E14.966
G1 X128.774 Y91.808 E15.00647
G1 X129.782 Y92.6 E15.04911
G1 X129.975 Y92.756 E15.05736
G1 X131.977 Y94.283 E15.14111
G1 X134.055 Y95.777 E15.22623
G1 X136.151 Y97.197 E15.31044
G1 X138.292 Y98.56 E15.39485
G1 X140.472 Y99.862 E15.47931
G1 X141.227 Y100.283 E15.50806
G1 X142.322 Y100.912 E15.55006
G1 X143.084 Y101.396 E15.58008
G1 X143.479 Y101.687 E15.5964
G1 X144.086 Y102.158 E15.62196
G1 X146.181 Y103.832 E15.71115
G1 X146.69 Y104.249 E15.73303
G1 X147.363 Y104.851 E15.76307
G1 X147.979 Y105.511 E15.79309
G1 X148.535 Y106.223 E15.82314
G1 X149.22 Y107.328 E15.86638
G1 X149.416 Y107.705 E15.88051
G1 X149.677 Y108.235 E15.90016
G1 X150.832 Y110.633 E15.98869
G1 X151.143 Y111.305 E16.01332
G1 X151.485 Y112.141 E16.04336
G1 X151.753 Y113.003 E16.07339
G1 X151.943 Y113.886 E16.10343
G1 X152.078 Y115.197 E16.14726
G1 X152.089 Y115.567 E16.15957
G1 X152.096 Y116.174 E16.17976
G1 X152.096 Y118.901 E16.27046
G1 X152.086 Y119.567 E16.29262
G1 X152.032 Y120.469 E16.32267
G1 X151.899 Y121.362 E16.3527
G1 X151.688 Y122.24 E16.38273
G1 X151.262 Y123.432 E16.42484
G1 X151.098 Y123.803 E16.43833
G1 X150.824 Y124.386 E16.45975
G1 X149.675 Y126.769 E16.54774
G1 X149.353 Y127.414 E16.57172
G1 X148.914 Y128.203 E16.60175
G1 X148.407 Y128.951 E16.63181
G1 X147.836 Y129.65 E16.66183
G1 X146.93 Y130.546 E16.70421
G1 X146.605 Y130.823 E16.71841
G1 X146.132 Y131.209 E16.73872
G1 X144.021 Y132.892 E16.82851
G1 X143.484 Y133.308 E16.8511
G1 X142.746 Y133.828 E16.88113
G1 X142.284 Y134.108 E16.8991
G1 X140.997 Y134.84 E16.94835
G1 X140.781 Y134.961 E16.95658
G1 X138.58 Y136.265 E17.04167
G1 X136.411 Y137.633 E17.12696
G1 X134.291 Y139.055 E17.21186
G1 X132.253 Y140.508 E17.29511
G1 X130.201 Y142.06 E17.38068
G1 X128.854 Y143.128 E17.43786
G1 X128.124 Y143.659 E17.46788
G1 X127.349 Y144.124 E17.49794
G1 X126.537 Y144.518 E17.52796
G1 X125.693 Y144.839 E17.558
G1 X124.823 Y145.084 E17.58806
G1 X123.936 Y145.251 E17.61808
G1 X122.71 Y145.352 E17.65899
G1 X122.192 Y145.363 E17.67623
G1 X121.548 Y145.356 E17.69765
G1 X121.431 Y145.351 E17.70154
G1 X118.815 Y145.278 E17.78858
G1 X116.305 Y145.278 E17.87207
G1 X115.313 Y145.311 E17.90508
G1 X112.72 Y145.362 E17.99134
G1 X111.817 Y145.34 E18.02138
G1 X110.919 Y145.238 E18.05144
G1 X110.035 Y145.057 E18.08145
G1 X109.169 Y144.798 E18.11152
G1 X108.33 Y144.464 E18.14155
G1 X107.427 Y144.002 E18.17529
G1 X106.132 Y143.255 E18.22501
G1 X105.96 Y143.152 E18.23168
G1 X103.749 Y141.922 E18.31583
G1 X101.51 Y140.757 E18.39978
G1 X99.226 Y139.65 E18.4842
G1 X96.894 Y138.599 E18.56927
G1 X94.516 Y137.607 E18.65497
G1 X92.195 Y136.717 E18.73765
G1 X89.812 Y135.877 E18.82169
G1 X89.673 Y135.83 E18.82657
G1 X88.831 Y135.503 E18.85661
G1 X88.021 Y135.103 E18.88666
G1 X87.25 Y134.633 E18.91669
G1 X86.523 Y134.097 E18.94673
G1 X85.847 Y133.498 E18.97677
G1 X85.226 Y132.842 E19.00682
G1 X84.666 Y132.134 E19.03684
G1 X84.171 Y131.379 E19.06687
G1 X83.744 Y130.583 E19.09691
G1 X83.39 Y129.752 E19.12696
G1 X83.11 Y128.893 E19.15701
G1 X82.907 Y128.013 E19.18704
G1 X82.783 Y127.119 E19.21706
G1 X82.744 Y126.483 E19.23826
G1 X82.734 Y126.16 E19.249
G1 X82.729 Y125.844 E19.25951
G1 X82.73 Y125.193 E19.28117
G1 X82.742 Y124.471 E19.30518
G1 X82.758 Y124.061 E19.31883
G1 X82.903 Y121.509 E19.40385
G1 X82.977 Y118.937 E19.48943
G1 X82.979 Y116.402 E19.57374
G1 X82.908 Y113.876 E19.65779
G1 X82.827 Y112.436 E19.70576
G1 X82.825 Y112.237 E19.71238
G1 X82.755 Y111.037 E19.75236
G1 X82.742 Y110.728 E19.76265
G1 X82.733 Y110.403 E19.77346
G1 X82.729 Y110.121 E19.78284
G1 X82.73 Y109.376 E19.80762
G1 X82.74 Y108.686 E19.83057
G1 X82.793 Y107.785 E19.86059
G1 X82.926 Y106.891 E19.89065
G1 X83.137 Y106.013 E19.92069
G1 X83.425 Y105.157 E19.95073
G1 X83.787 Y104.33 E19.98075
G1 X84.221 Y103.538 E20.01079
G1 X84.724 Y102.788 E20.04083
G1 X85.291 Y102.085 E20.07086
G1 X85.918 Y101.435 E20.1009
G1 X86.6 Y100.843 E20.13094
G0 F6000 X101.308 Y117.124
G1 F1200 X101.502 Y117.073 E20.13761
G1 X101.7 Y117.128 E20.14445
G1 X101.846 Y117.277 E20.15138
G1 X101.895 Y117.483 E20.15843
G1 X101.811 Y117.711 E20.16651
G1 X101.615 Y117.847 E20.17444
G1 X101.377 Y117.843 E20.18236
G1 X101.181 Y117.701 E20.19041
G1 X101.105 Y117.483 E20.19809
G1 X101.155 Y117.275 E20.2052
G1 X101.308 Y117.124 E20.21235
G0 F6000 X101.097 Y116.783
G1 F1200 X101.381 Y116.681 E20.22239
G1 X101.505 Y116.673 E20.22652
G1 X101.799 Y116.731 E20.23649
G1 X102.029 Y116.873 E20.24548
