;FLAVOR:Marlin
;TIME:6393
;Filament used: 3.12735m
;Layer height: 0.16
;MINX:91.064
;MINY:83.439
;MINZ:0.2
;MAXX:168.511
;MAXY:151.531
;MAXZ:8.92
;Generated with Cura_SteamEngine 4.8.0
M82 ;absolute extrusion mode
; Ender 3 Custom Start G-code
M117 Getting the bed up to temp!
M140 S50 ; Set Heat Bed temperature
M190 S50 ; Wait for Heat Bed temperature
M117 Pre-heating the extruder!
M104 S160; start warming extruder to 160
G28 ; Home all axes
M117 Auto bed-level GO!
G29 ; Auto bed-level (BL-Touch)
G92 E0 ; Reset Extruder
M117 Getting the extruder up to temp!
M104 S200 ; Set Extruder temperature
M109 S200 ; Wait for Extruder temperature
G1 Z1.0 F3000 ; move z up little to prevent scratching of surface
G1 X0.1 Y20 Z0.3 F5000.0 ; move to start-line position
M117 LET THE PURGE BEGIN!
G1 X0.1 Y200.0 Z0.3 F1500.0 E15 ; draw 1st line
G1 X0.4 Y200.0 Z0.3 F5000.0 ; move to side a little
G1 X0.4 Y20 Z0.3 F1500.0 E30 ; draw 2nd line
G92 E0 ; reset extruder
G1 Z1.0 F3000 ; move z up little to prevent scratching of surface
M117 Autobots! Roll Out!
; End of custom start GCode
G92 E0
G92 E0
G1 F2700 E-5
;LAYER_COUNT:47
;LAYER:0
M107
G0 F6000 X97.691 Y89.963 Z0.2
;TYPE:SKIRT
G1 F2700 E0
G1 F1200 X98.343 Y89.307 E0.03076
G1 X98.948 Y88.75 E0.05811
G1 X101.298 Y86.64 E0.16316
G1 X101.856 Y86.154 E0.18777
G1 X102.589 Y85.569 E0.21896
G1 X103.369 Y85.048 E0.25016
G1 X104.191 Y84.596 E0.28136
G1 X105.048 Y84.215 E0.31255
G1 X105.934 Y83.909 E0.34373
G1 X106.844 Y83.679 E0.37495
G1 X107.769 Y83.527 E0.40613
G1 X108.653 Y83.457 E0.43562
G1 X109.012 Y83.447 E0.44757
G1 X109.684 Y83.439 E0.46992
G1 X113.799 Y83.439 E0.60678
G1 X114.659 Y83.45 E0.63539
G1 X115.596 Y83.503 E0.66661
G1 X116.515 Y83.635 E0.69748
G1 X117.27 Y83.776 E0.72303
G1 X119.884 Y84.224 E0.81124
G1 X122.353 Y84.575 E0.89418
G1 X124.893 Y84.864 E0.97921
G1 X125.342 Y84.903 E0.9942
G1 X126.336 Y85.004 E1.02743
G1 X127.264 Y85.139 E1.05862
G1 X128.178 Y85.352 E1.08984
G1 X129.051 Y85.635 E1.12036
G1 X129.402 Y85.767 E1.13283
G1 X131.486 Y86.577 E1.2072
G1 X133.888 Y87.431 E1.29199
G1 X136.257 Y88.199 E1.37482
G1 X138.679 Y88.909 E1.45876
G1 X141.135 Y89.555 E1.54323
G1 X143.55 Y90.117 E1.6257
G1 X146.073 Y90.631 E1.71134
G1 X148.481 Y91.048 E1.79262
G1 X150.991 Y91.411 E1.87697
G1 X153.843 Y91.738 E1.97245
G1 X154.585 Y91.811 E1.99725
G1 X155.513 Y91.943 E2.02843
G1 X156.427 Y92.154 E2.05963
G1 X157.32 Y92.442 E2.09083
G1 X158.185 Y92.805 E2.12203
G1 X159.016 Y93.24 E2.15323
G1 X159.806 Y93.744 E2.1844
G1 X160.551 Y94.314 E2.2156
G1 X161.245 Y94.945 E2.24679
G1 X161.882 Y95.633 E2.27798
G1 X162.459 Y96.373 E2.30919
G1 X162.97 Y97.159 E2.34037
G1 X163.413 Y97.986 E2.37158
G1 X163.783 Y98.847 E2.40274
G1 X164.079 Y99.737 E2.43394
G1 X164.298 Y100.649 E2.46514
G1 X164.461 Y101.814 E2.50426
G1 X164.5 Y102.27 E2.51948
G1 X164.648 Y104.329 E2.58814
G1 X164.9 Y106.834 E2.67188
G1 X165.225 Y109.34 E2.75593
G1 X165.611 Y111.787 E2.83832
G1 X166.077 Y114.276 E2.92254
G1 X166.617 Y116.768 E3.00735
G1 X167.205 Y119.158 E3.08921
G1 X167.908 Y121.697 E3.17684
G1 X168.06 Y122.219 E3.19492
G1 X168.285 Y123.13 E3.22613
G1 X168.43 Y124.056 E3.25731
G1 X168.496 Y124.969 E3.28775
G1 X168.506 Y125.3 E3.29877
G1 X168.511 Y125.632 E3.30981
G1 X168.51 Y126.813 E3.34909
G1 X168.5 Y127.528 E3.37287
G1 X168.447 Y128.464 E3.40405
G1 X168.314 Y129.393 E3.43527
G1 X168.103 Y130.306 E3.46644
G1 X167.815 Y131.199 E3.49764
G1 X167.451 Y132.064 E3.52886
G1 X167.016 Y132.894 E3.56002
G1 X166.524 Y133.666 E3.59047
G1 X165.601 Y134.99 E3.64415
G1 X164.181 Y137.102 E3.7288
G1 X162.852 Y139.199 E3.81137
G1 X162.767 Y139.338 E3.81679
G1 X162.243 Y140.116 E3.84799
G1 X161.654 Y140.846 E3.87919
G1 X161.005 Y141.523 E3.91038
G1 X160.301 Y142.143 E3.94158
G1 X159.547 Y142.7 E3.97276
G1 X158.748 Y143.192 E4.00397
G1 X157.91 Y143.613 E4.03516
G1 X156.619 Y144.099 E4.08104
G1 X154.02 Y144.896 E4.17146
G1 X151.459 Y145.763 E4.26139
G1 X150.846 Y145.979 E4.283
G1 X149.949 Y146.253 E4.3142
G1 X149.066 Y146.443 E4.34424
G1 X148.04 Y146.619 E4.37886
G1 X147.284 Y146.738 E4.40432
G1 X144.769 Y147.205 E4.4894
G1 X142.338 Y147.729 E4.57211
G1 X139.886 Y148.331 E4.65608
G1 X137.454 Y149.002 E4.74
G1 X135.069 Y149.732 E4.82295
G1 X132.61 Y150.562 E4.90927
G1 X131.647 Y150.899 E4.94321
G1 X130.749 Y151.17 E4.97441
G1 X129.831 Y151.363 E5.00561
G1 X128.9 Y151.478 E5.03681
G1 X128.228 Y151.511 E5.05918
G1 X127.262 Y151.529 E5.09132
G1 X127.057 Y151.531 E5.09814
G1 X117.019 Y151.53 E5.432
G1 X116.315 Y151.52 E5.45542
G1 X115.378 Y151.467 E5.48664
G1 X114.45 Y151.334 E5.51782
G1 X113.536 Y151.122 E5.54902
G1 X112.644 Y150.834 E5.5802
G1 X111.779 Y150.47 E5.61141
G1 X111.24 Y150.198 E5.63149
G1 X110.633 Y149.868 E5.65447
G1 X109.258 Y149.101 E5.70684
G1 X107.017 Y147.932 E5.79091
G1 X104.768 Y146.84 E5.87406
G1 X102.443 Y145.792 E5.95888
G1 X100.13 Y144.826 E6.04225
G1 X98.423 Y144.167 E6.10311
G1 X97.977 Y143.988 E6.1191
G1 X97.122 Y143.601 E6.15031
G1 X96.303 Y143.144 E6.18151
G1 X95.527 Y142.618 E6.21269
G1 X94.798 Y142.028 E6.24388
G1 X94.121 Y141.379 E6.27507
G1 X93.503 Y140.674 E6.30625
G1 X92.947 Y139.918 E6.33747
G1 X92.457 Y139.119 E6.36864
G1 X92.037 Y138.28 E6.39985
G1 X91.69 Y137.409 E6.43103
G1 X91.419 Y136.511 E6.46223
G1 X91.225 Y135.593 E6.49344
G1 X91.11 Y134.662 E6.52464
G1 X91.079 Y134.119 E6.54273
G1 X91.069 Y133.796 E6.55347
G1 X91.064 Y133.456 E6.56478
G1 X91.065 Y131.675 E6.62402
G1 X91.089 Y129.977 E6.6805
G1 X91.105 Y129.392 E6.69997
G1 X91.108 Y127.904 E6.74946
G1 X91.116 Y127.726 E6.75538
G1 X91.117 Y125.507 E6.82919
G1 X91.12 Y125.3 E6.83607
G1 X91.113 Y123.259 E6.90396
G1 X91.117 Y122.126 E6.94164
G1 X91.127 Y121.419 E6.96516
G1 X91.136 Y121.113 E6.97534
G1 X91.17 Y120.331 E7.00137
G1 X91.249 Y118.945 E7.04755
G1 X91.322 Y116.364 E7.13343
G1 X91.331 Y115.067 E7.17657
G1 X91.332 Y113.407 E7.23178
G1 X91.342 Y112.709 E7.255
G1 X91.363 Y112.169 E7.27297
G1 X91.414 Y111.589 E7.29233
G1 X91.712 Y108.969 E7.38004
G1 X91.926 Y106.463 E7.46369
G1 X92.067 Y103.981 E7.54638
G1 X92.142 Y101.312 E7.63518
G1 X92.16 Y100.072 E7.67643
G1 X92.213 Y99.135 E7.70764
G1 X92.346 Y98.207 E7.73882
G1 X92.558 Y97.293 E7.77003
G1 X92.846 Y96.401 E7.80121
G1 X93.209 Y95.536 E7.83241
G1 X93.645 Y94.706 E7.86359
G1 X94.15 Y93.915 E7.8948
G1 X94.72 Y93.171 E7.92598
G1 X95.093 Y92.747 E7.94476
G1 X96.063 Y91.701 E7.99221
G1 X97.065 Y90.648 E8.04055
G1 X97.691 Y89.963 E8.07142
G0 F6000 X97.986 Y90.233
G1 F1200 X98.615 Y89.601 E8.10107
G1 X99.215 Y89.048 E8.12821
G1 X101.561 Y86.942 E8.23307
G1 X102.119 Y86.456 E8.25768
G1 X102.839 Y85.882 E8.28831
G1 X103.606 Y85.372 E8.31894
G1 X104.414 Y84.932 E8.34954
G1 X105.258 Y84.563 E8.38018
G1 X106.13 Y84.268 E8.4108
G1 X107.024 Y84.05 E8.4414
G1 X107.934 Y83.911 E8.47202
G1 X108.668 Y83.857 E8.4965
G1 X109.017 Y83.847 E8.50811
G1 X109.684 Y83.839 E8.5303
G1 X113.799 Y83.839 E8.66716
G1 X114.654 Y83.85 E8.6956
G1 X115.573 Y83.903 E8.72622
G1 X116.442 Y84.028 E8.75542
G1 X117.207 Y84.17 E8.7813
G1 X119.826 Y84.619 E8.86968
G1 X122.323 Y84.975 E8.95357
G1 X124.817 Y85.258 E9.03705
G1 X125.302 Y85.301 E9.05325
G1 X126.296 Y85.402 E9.08648
G1 X127.207 Y85.535 E9.1171
G1 X128.103 Y85.746 E9.14771
G1 X128.912 Y86.01 E9.17602
G1 X129.257 Y86.14 E9.18828
G1 X131.344 Y86.951 E9.26275
G1 X133.736 Y87.802 E9.34719
G1 X136.169 Y88.59 E9.43226
G1 X138.57 Y89.294 E9.51547
G1 X141.006 Y89.935 E9.59925
G1 X143.486 Y90.512 E9.68394
G1 X145.997 Y91.023 E9.76917
G1 X148.427 Y91.444 E9.8512
G1 X150.959 Y91.811 E9.93629
G1 X153.759 Y92.131 E10.03003
G1 X154.545 Y92.209 E10.0563
G1 X155.457 Y92.34 E10.08694
G1 X156.353 Y92.549 E10.11754
G1 X157.229 Y92.835 E10.14819
G1 X158.076 Y93.195 E10.1788
G1 X158.888 Y93.628 E10.20941
G1 X159.66 Y94.13 E10.24004
G1 X160.385 Y94.697 E10.27065
G1 X161.059 Y95.325 E10.30129
G1 X161.675 Y96.008 E10.33188
G1 X162.23 Y96.743 E10.36251
G1 X162.719 Y97.523 E10.39313
G1 X163.139 Y98.343 E10.42378
G1 X163.485 Y99.196 E10.45439
G1 X163.757 Y100.075 E10.485
G1 X163.951 Y100.975 E10.51562
G1 X164.063 Y101.849 E10.54492
G1 X164.101 Y102.299 E10.55994
G1 X164.25 Y104.362 E10.62874
G1 X164.504 Y106.889 E10.71321
G1 X164.826 Y109.382 E10.79682
G1 X165.216 Y111.851 E10.87995
G1 X165.688 Y114.37 E10.96519
G1 X166.222 Y116.835 E11.04908
G1 X166.827 Y119.296 E11.13337
G1 X167.512 Y121.768 E11.21869
G1 X167.676 Y122.331 E11.23819
G1 X167.896 Y123.225 E11.26882
G1 X168.037 Y124.135 E11.29944
G1 X168.096 Y124.981 E11.32765
G1 X168.106 Y125.312 E11.33866
G1 X168.111 Y125.632 E11.34931
G1 X168.11 Y126.807 E11.38839
G1 X168.1 Y127.522 E11.41217
G1 X168.047 Y128.441 E11.44279
G1 X167.915 Y129.352 E11.47341
G1 X167.704 Y130.249 E11.50405
G1 X167.416 Y131.123 E11.53466
G1 X167.053 Y131.969 E11.56528
G1 X166.618 Y132.781 E11.59592
G1 X166.196 Y133.437 E11.62186
G1 X165.273 Y134.759 E11.67549
G1 X163.855 Y136.869 E11.76004
G1 X162.514 Y138.985 E11.84336
G1 X162.426 Y139.129 E11.84898
G1 X161.911 Y139.892 E11.87959
G1 X161.331 Y140.607 E11.91022
G1 X160.692 Y141.27 E11.94084
G1 X159.997 Y141.874 E11.97147
G1 X159.253 Y142.416 E12.00208
G1 X158.464 Y142.891 E12.03271
G1 X157.638 Y143.296 E12.06331
G1 X156.502 Y143.717 E12.10361
G1 X153.88 Y144.521 E12.19482
G1 X151.38 Y145.367 E12.2826
G1 X150.714 Y145.602 E12.30609
G1 X149.833 Y145.87 E12.33672
G1 X148.998 Y146.049 E12.36513
G1 X147.978 Y146.224 E12.39955
G1 X147.186 Y146.348 E12.42621
G1 X144.718 Y146.807 E12.5097
G1 X142.231 Y147.343 E12.59432
G1 X139.79 Y147.942 E12.67792
G1 X137.369 Y148.61 E12.76145
G1 X134.929 Y149.357 E12.84632
G1 X132.474 Y150.186 E12.9325
G1 X131.515 Y150.521 E12.96629
G1 X130.633 Y150.787 E12.99693
G1 X129.732 Y150.974 E13.02754
G1 X128.818 Y151.083 E13.05815
G1 X128.22 Y151.111 E13.07806
G1 X127.057 Y151.131 E13.11675
G1 X117.024 Y151.13 E13.45045
G1 X116.32 Y151.12 E13.47387
G1 X115.401 Y151.067 E13.50449
G1 X114.49 Y150.934 E13.53511
G1 X113.594 Y150.723 E13.56572
G1 X112.72 Y150.435 E13.59633
G1 X111.874 Y150.072 E13.62695
G1 X111.431 Y149.846 E13.64349
G1 X110.828 Y149.519 E13.6663
G1 X109.459 Y148.756 E13.71843
G1 X107.183 Y147.569 E13.80381
G1 X104.915 Y146.467 E13.88768
G1 X102.626 Y145.435 E13.97119
G1 X100.28 Y144.455 E14.05575
G1 X98.572 Y143.795 E14.11665
G1 X98.126 Y143.616 E14.13264
G1 X97.287 Y143.237 E14.16326
G1 X96.485 Y142.786 E14.19386
G1 X95.724 Y142.267 E14.2245
G1 X95.012 Y141.684 E14.2551
G1 X94.352 Y141.041 E14.28575
G1 X93.751 Y140.344 E14.31636
G1 X93.213 Y139.597 E14.34698
G1 X92.742 Y138.806 E14.3776
G1 X92.341 Y137.977 E14.40823
G1 X92.013 Y137.117 E14.43884
G1 X91.762 Y136.231 E14.46947
G1 X91.588 Y135.327 E14.50009
G1 X91.479 Y134.107 E14.54083
G1 X91.469 Y133.784 E14.55158
G1 X91.464 Y133.456 E14.56249
G1 X91.465 Y131.68 E14.62156
G1 X91.489 Y129.982 E14.67804
G1 X91.505 Y129.405 E14.69724
G1 X91.508 Y127.905 E14.74713
G1 X91.516 Y127.73 E14.75295
G1 X91.517 Y125.513 E14.82669
G1 X91.52 Y125.312 E14.83338
G1 X91.513 Y123.261 E14.90159
G1 X91.517 Y122.132 E14.93915
G1 X91.527 Y121.425 E14.96266
G1 X91.535 Y121.13 E14.97248
G1 X91.569 Y120.354 E14.99831
G1 X91.649 Y118.945 E15.04525
G1 X91.722 Y116.378 E15.13067
G1 X91.731 Y115.07 E15.17417
G1 X91.732 Y113.413 E15.22928
G1 X91.742 Y112.715 E15.2525
G1 X91.762 Y112.193 E15.26987
G1 X91.811 Y111.634 E15.28854
G1 X92.109 Y109.015 E15.37621
G1 X92.325 Y106.482 E15.46076
G1 X92.467 Y103.977 E15.54421
G1 X92.542 Y101.33 E15.63229
G1 X92.56 Y100.077 E15.67397
G1 X92.613 Y99.158 E15.70458
G1 X92.746 Y98.247 E15.73521
G1 X92.957 Y97.351 E15.76582
G1 X93.245 Y96.476 E15.79646
G1 X93.608 Y95.63 E15.82708
G1 X94.042 Y94.819 E15.85767
G1 X94.546 Y94.048 E15.88831
G1 X95.387 Y93.019 E15.93251
G1 X96.45 Y91.874 E15.98447
G1 X97.366 Y90.912 E16.02866
G1 X97.986 Y90.233 E16.05924
G0 F6000 X98.281 Y90.503
G1 F1200 X98.886 Y89.895 E16.08777
G1 X99.482 Y89.345 E16.11474
G1 X101.706 Y87.347 E16.21418
G1 X102.382 Y86.757 E16.24402
G1 X103.088 Y86.195 E16.27403
G1 X103.842 Y85.697 E16.30409
G1 X104.637 Y85.268 E16.33413
G1 X105.466 Y84.911 E16.36415
G1 X106.324 Y84.629 E16.39419
G1 X107.203 Y84.423 E16.42422
G1 X108.098 Y84.297 E16.45428
G1 X108.684 Y84.257 E16.47382
G1 X109.022 Y84.247 E16.48506
G1 X109.684 Y84.239 E16.50708
G1 X113.799 Y84.239 E16.64395
G1 X114.648 Y84.25 E16.67219
G1 X115.549 Y84.303 E16.70221
G1 X116.369 Y84.421 E16.72976
G1 X117.2 Y84.576 E16.75788
G1 X119.744 Y85.012 E16.84373
G1 X122.253 Y85.369 E16.92802
G1 X124.81 Y85.66 E17.01361
G1 X125.261 Y85.699 E17.02867
G1 X126.255 Y85.8 E17.0619
G1 X127.149 Y85.931 E17.09195
G1 X128.027 Y86.141 E17.12198
G1 X128.773 Y86.385 E17.14808
G1 X129.112 Y86.512 E17.16012
G1 X131.232 Y87.336 E17.23577
G1 X133.626 Y88.187 E17.32028
G1 X136.028 Y88.966 E17.40427
G1 X138.461 Y89.68 E17.4886
G1 X140.928 Y90.327 E17.57343
G1 X143.386 Y90.9 E17.65737
G1 X145.915 Y91.415 E17.74322
G1 X148.373 Y91.841 E17.82619
G1 X150.889 Y92.205 E17.91074
G1 X153.804 Y92.539 E18.00833
G1 X154.506 Y92.608 E18.03179
G1 X155.4 Y92.736 E18.06183
G1 X156.279 Y92.943 E18.09186
G1 X157.136 Y93.227 E18.12189
G1 X157.965 Y93.586 E18.15194
G1 X158.759 Y94.017 E18.18199
G1 X159.511 Y94.516 E18.212
G1 X160.217 Y95.08 E18.24206
G1 X160.87 Y95.704 E18.2721
G1 X161.465 Y96.383 E18.30213
G1 X161.997 Y97.113 E18.33217
G1 X162.463 Y97.886 E18.36219
G1 X162.859 Y98.698 E18.39224
G1 X163.182 Y99.542 E18.4223
G1 X163.428 Y100.41 E18.4523
G1 X163.597 Y101.298 E18.48237
G1 X163.664 Y101.883 E18.50195
G1 X163.702 Y102.328 E18.51681
G1 X163.851 Y104.395 E18.58573
G1 X164.104 Y106.909 E18.66977
G1 X164.434 Y109.464 E18.75546
G1 X164.827 Y111.95 E18.83917
G1 X165.289 Y114.415 E18.92258
G1 X165.838 Y116.951 E19.00888
G1 X166.428 Y119.352 E19.09112
G1 X167.141 Y121.924 E19.17989
G1 X167.292 Y122.443 E19.19787
G1 X167.507 Y123.32 E19.2279
G1 X167.643 Y124.213 E19.25794
G1 X167.696 Y124.993 E19.28395
G1 X167.706 Y125.324 E19.29496
G1 X167.711 Y125.632 E19.30521
G1 X167.71 Y126.802 E19.34412
G1 X167.7 Y127.517 E19.3679
G1 X167.647 Y128.418 E19.39792
G1 X167.515 Y129.312 E19.42798
G1 X167.305 Y130.19 E19.45801
G1 X167.017 Y131.046 E19.48804
G1 X166.655 Y131.873 E19.51807
G1 X166.221 Y132.665 E19.54811
G1 X165.867 Y133.209 E19.5697
G1 X164.946 Y134.529 E19.62323
G1 X163.507 Y136.67 E19.70903
G1 X162.211 Y138.714 E19.78953
G1 X162.085 Y138.92 E19.79756
G1 X161.579 Y139.668 E19.82759
G1 X161.009 Y140.368 E19.85762
G1 X160.379 Y141.015 E19.88765
G1 X159.694 Y141.604 E19.9177
G1 X158.96 Y142.13 E19.94774
G1 X158.182 Y142.589 E19.97778
G1 X157.367 Y142.977 E20.0078
G1 X156.385 Y143.334 E20.04256
G1 X153.774 Y144.135 E20.13339
G1 X151.269 Y144.983 E20.22135
G1 X150.581 Y145.225 E20.24561
G1 X149.716 Y145.487 E20.27567
G1 X148.93 Y145.655 E20.3024
G1 X147.916 Y145.829 E20.33662
G1 X147.122 Y145.953 E20.36335
G1 X144.632 Y146.417 E20.4476
G1 X142.149 Y146.952 E20.53208
G1 X139.693 Y147.555 E20.61619
G1 X137.217 Y148.237 E20.70161
G1 X134.831 Y148.968 E20.78461
G1 X132.338 Y149.81 E20.87213
G1 X131.383 Y150.144 E20.90578
G1 X130.518 Y150.403 E20.93581
G1 X129.634 Y150.585 E20.96583
G1 X128.736 Y150.688 E20.99589
G1 X128.213 Y150.711 E21.0133
G1 X127.057 Y150.731 E21.05176
G1 X117.03 Y150.73 E21.38526
G1 X116.326 Y150.72 E21.40867
G1 X115.425 Y150.667 E21.43869
G1 X114.531 Y150.535 E21.46875
G1 X113.653 Y150.324 E21.49878
G1 X112.797 Y150.036 E21.52882
G1 X111.621 Y149.494 E21.57189
G1 X111.023 Y149.17 E21.59451
G1 X109.632 Y148.394 E21.64749
G1 X107.364 Y147.212 E21.73255
G1 X105.089 Y146.107 E21.81667
G1 X102.795 Y145.072 E21.90038
G1 X100.429 Y144.084 E21.98566
G1 X98.721 Y143.424 E22.04656
G1 X98.275 Y143.245 E22.06254
G1 X97.452 Y142.872 E22.0926
G1 X96.666 Y142.427 E22.12264
G1 X95.922 Y141.915 E22.15268
G1 X95.227 Y141.339 E22.1827
G1 X94.585 Y140.704 E22.21273
G1 X94.002 Y140.014 E22.24278
G1 X93.482 Y139.276 E22.2728
G1 X93.029 Y138.494 E22.30286
G1 X92.648 Y137.676 E22.33288
G1 X92.34 Y136.827 E22.36291
G1 X92.109 Y135.954 E22.39295
G1 X91.955 Y135.064 E22.42299
G1 X91.879 Y134.095 E22.45532
G1 X91.869 Y133.772 E22.46607
G1 X91.864 Y133.456 E22.47658
G1 X91.865 Y131.686 E22.53545
G1 X91.889 Y129.988 E22.59193
G1 X91.905 Y129.418 E22.6109
