;FLAVOR:Marlin
;TIME:11932
;Filament used: 3.65983m
;Layer height: 0.12
;MINX:49.461
;MINY:86.345
;MINZ:0.12
;MAXX:185.485
;MAXY:136.502
;MAXZ:6
;Generated with Cura_SteamEngine 4.8.0
M82 ;absolute extrusion mode
; Ender 3 Custom Start G-code
M117 Getting the bed up to temp!
M140 S60 ; Set Heat Bed temperature
M190 S60 ; Wait for Heat Bed temperature
M117 Pre-heating the extruder!
M104 S160; start warming extruder to 160
G28 ; Home all axes
M117 Auto bed-level GO!
G29 ; Auto bed-level (BL-Touch)
G92 E0 ; Reset Extruder
M117 Getting the extruder up to temp!
M104 S210 ; Set Extruder temperature
M109 S210 ; Wait for Extruder temperature
G1 Z1.0 F3000 ; move z up little to prevent scratching of surface
G1 X0.1 Y20 Z0.3 F5000.0 ; move to start-line position
M117 LET THE PURGE BEGIN!
G1 X0.1 Y200.0 Z0.3 F1500.0 E15 ; draw 1st line
G1 X0.4 Y200.0 Z0.3 F5000.0 ; move to side a little
G1 X0.4 Y20 Z0.3 F1500.0 E30 ; draw 2nd line
G92 E0 ; reset extruder
G1 Z1.0 F3000 ; move z up little to prevent scratching of surface
M117 Autobots! Roll Out!
; End of custom start GCode
G92 E0
G92 E0
G1 F2700 E-5
;LAYER_COUNT:50
;LAYER:0
M107
G0 F6000 X54.882 Y93.087 Z0.12
;TYPE:SKIRT
G1 F2700 E0
G1 F1200 X55.709 Y92.644 E0.01872
G1 X56.571 Y92.274 E0.03744
G1 X57.461 Y91.978 E0.05616
G1 X58.373 Y91.759 E0.07488
G1 X59.3 Y91.618 E0.09359
G1 X60.176 Y91.558 E0.11111
G1 X60.497 Y91.549 E0.11752
G1 X60.805 Y91.545 E0.12367
G1 X63.958 Y91.545 E0.18659
G1 X66.566 Y91.508 E0.23864
G1 X69.087 Y91.401 E0.28899
G1 X71.582 Y91.224 E0.33891
G1 X74.092 Y90.975 E0.38924
G1 X76.701 Y90.64 E0.44174
G1 X77.925 Y90.465 E0.46641
G1 X79.176 Y90.358 E0.49147
G1 X79.496 Y90.349 E0.49786
G1 X79.805 Y90.345 E0.50402
G1 X85.789 Y90.345 E0.62344
G1 X88.397 Y90.308 E0.67549
G1 X90.918 Y90.201 E0.72585
G1 X93.382 Y90.026 E0.77514
G1 X96.096 Y89.755 E0.82957
G1 X97.235 Y89.625 E0.85245
G1 X98.176 Y89.558 E0.87128
G1 X98.495 Y89.549 E0.87764
G1 X98.805 Y89.545 E0.88383
G1 X101.958 Y89.545 E0.94675
G1 X104.566 Y89.508 E0.9988
G1 X107.087 Y89.401 E1.04916
G1 X109.582 Y89.224 E1.09907
G1 X112.092 Y88.975 E1.14941
G1 X114.701 Y88.64 E1.2019
G1 X115.925 Y88.465 E1.22658
G1 X117.176 Y88.358 E1.25163
G1 X117.496 Y88.349 E1.25802
G1 X117.805 Y88.345 E1.26419
G1 X123.789 Y88.345 E1.38361
G1 X126.397 Y88.308 E1.43566
G1 X128.918 Y88.201 E1.48601
G1 X131.382 Y88.026 E1.53531
G1 X134.096 Y87.755 E1.58974
G1 X135.235 Y87.625 E1.61261
G1 X136.176 Y87.558 E1.63144
G1 X136.495 Y87.549 E1.63781
G1 X136.805 Y87.545 E1.644
G1 X139.958 Y87.545 E1.70692
G1 X142.566 Y87.508 E1.75897
G1 X145.087 Y87.401 E1.80932
G1 X147.582 Y87.224 E1.85924
G1 X150.092 Y86.975 E1.90957
G1 X152.701 Y86.64 E1.96207
G1 X153.925 Y86.465 E1.98674
G1 X155.176 Y86.358 E2.0118
G1 X155.496 Y86.349 E2.01819
G1 X155.805 Y86.345 E2.02435
G1 X173.768 Y86.345 E2.38282
G1 X174.624 Y86.356 E2.39991
G1 X175.56 Y86.41 E2.41862
G1 X176.488 Y86.542 E2.43732
G1 X177.402 Y86.754 E2.45605
G1 X178.294 Y87.043 E2.47476
G1 X179.159 Y87.406 E2.49348
G1 X179.989 Y87.842 E2.51219
G1 X180.78 Y88.347 E2.53092
G1 X181.524 Y88.918 E2.54963
G1 X182.217 Y89.55 E2.56835
G1 X182.854 Y90.238 E2.58706
G1 X183.429 Y90.979 E2.60578
G1 X183.94 Y91.765 E2.62449
G1 X184.382 Y92.593 E2.64322
G1 X184.751 Y93.455 E2.66193
G1 X185.046 Y94.345 E2.68064
G1 X185.264 Y95.257 E2.69935
G1 X185.404 Y96.185 E2.71808
G1 X185.462 Y97.046 E2.7353
G1 X185.471 Y97.366 E2.74169
G1 X185.475 Y97.675 E2.74786
G1 X185.474 Y101.767 E2.82952
G1 X185.468 Y102.185 E2.83786
G1 X185.485 Y104.472 E2.8835
G1 X185.47 Y104.897 E2.89199
G1 X185.475 Y105.578 E2.90558
G1 X185.474 Y106.754 E2.92905
G1 X185.465 Y107.393 E2.9418
G1 X185.458 Y109.424 E2.98233
G1 X185.461 Y109.81 E2.99004
G1 X185.46 Y113.924 E3.07214
G1 X185.454 Y114.345 E3.08054
G1 X185.47 Y116.634 E3.12622
G1 X185.456 Y117.024 E3.13401
G1 X185.461 Y117.735 E3.1482
G1 X185.46 Y118.917 E3.17178
G1 X185.45 Y119.644 E3.18629
G1 X185.397 Y120.581 E3.20502
G1 X185.265 Y121.509 E3.22373
G1 X185.054 Y122.423 E3.24245
G1 X184.765 Y123.315 E3.26116
G1 X184.402 Y124.18 E3.27988
G1 X183.967 Y125.011 E3.2986
G1 X183.462 Y125.801 E3.31731
G1 X182.892 Y126.546 E3.33603
G1 X182.261 Y127.24 E3.35475
G1 X181.572 Y127.877 E3.37347
G1 X180.832 Y128.453 E3.39219
G1 X180.046 Y128.964 E3.41089
G1 X179.219 Y129.406 E3.42961
G1 X178.357 Y129.776 E3.44833
G1 X177.467 Y130.071 E3.46704
G1 X176.555 Y130.29 E3.48576
G1 X175.628 Y130.43 E3.50447
G1 X174.76 Y130.489 E3.52183
G1 X174.44 Y130.498 E3.52822
G1 X174.131 Y130.502 E3.53438
G1 X172.744 Y130.502 E3.56206
G1 X170.136 Y130.539 E3.61411
G1 X167.615 Y130.646 E3.66447
G1 X165.12 Y130.823 E3.71438
G1 X162.62 Y131.071 E3.76452
G1 X160.128 Y131.39 E3.81465
G1 X157.276 Y131.84 E3.87227
G1 X156.345 Y131.957 E3.891
G1 X155.76 Y131.989 E3.90269
G1 X155.441 Y131.998 E3.90906
G1 X155.131 Y132.002 E3.91525
G1 X153.744 Y132.002 E3.94292
G1 X151.136 Y132.039 E3.99497
G1 X148.615 Y132.146 E4.04533
G1 X146.12 Y132.323 E4.09525
G1 X143.62 Y132.571 E4.14538
G1 X141.128 Y132.89 E4.19552
G1 X138.276 Y133.34 E4.25314
G1 X137.345 Y133.457 E4.27186
G1 X136.76 Y133.489 E4.28355
G1 X136.441 Y133.498 E4.28992
G1 X136.131 Y133.502 E4.29611
G1 X134.744 Y133.502 E4.32379
G1 X132.136 Y133.539 E4.37584
G1 X129.615 Y133.646 E4.42619
G1 X127.12 Y133.823 E4.47611
G1 X124.62 Y134.071 E4.52624
G1 X122.128 Y134.39 E4.57638
G1 X119.276 Y134.84 E4.634
G1 X118.345 Y134.957 E4.65272
G1 X117.76 Y134.989 E4.66442
G1 X117.441 Y134.998 E4.67078
G1 X117.131 Y135.002 E4.67697
G1 X115.744 Y135.002 E4.70465
G1 X113.136 Y135.039 E4.7567
G1 X110.615 Y135.146 E4.80705
G1 X108.12 Y135.323 E4.85697
G1 X105.62 Y135.571 E4.90711
G1 X103.128 Y135.89 E4.95724
G1 X100.276 Y136.34 E5.01486
G1 X99.345 Y136.457 E5.03359
G1 X98.76 Y136.489 E5.04528
G1 X98.441 Y136.498 E5.05165
G1 X98.131 Y136.502 E5.05783
G1 X61.026 Y136.501 E5.7983
G1 X60.328 Y136.492 E5.81223
G1 X59.392 Y136.44 E5.83094
G1 X58.463 Y136.308 E5.84967
G1 X57.549 Y136.098 E5.86838
G1 X56.656 Y135.811 E5.8871
G1 X55.791 Y135.448 E5.90582
G1 X54.96 Y135.014 E5.92453
G1 X54.169 Y134.51 E5.94325
G1 X53.424 Y133.94 E5.96197
G1 X52.73 Y133.309 E5.98069
G1 X52.093 Y132.622 E5.99938
G1 X51.516 Y131.882 E6.01811
G1 X51.004 Y131.096 E6.03683
G1 X50.561 Y130.269 E6.05555
G1 X50.19 Y129.408 E6.07426
G1 X49.894 Y128.518 E6.09298
G1 X49.675 Y127.606 E6.11169
G1 X49.534 Y126.679 E6.13041
G1 X49.474 Y125.787 E6.14825
G1 X49.465 Y125.45 E6.15497
G1 X49.461 Y125.156 E6.16084
G1 X49.462 Y124.039 E6.18313
G1 X49.474 Y123.216 E6.19956
G1 X49.478 Y120.758 E6.24861
G1 X49.461 Y119.211 E6.27948
G1 X49.462 Y116.017 E6.34322
G1 X49.474 Y115.137 E6.36079
G1 X49.482 Y113.229 E6.39886
G1 X49.475 Y112.218 E6.41904
G1 X49.476 Y111.116 E6.44103
G1 X49.488 Y110.266 E6.458
G1 X49.492 Y107.818 E6.50685
G1 X49.475 Y106.295 E6.53724
G1 X49.476 Y103.099 E6.60102
G1 X49.485 Y102.41 E6.61477
G1 X49.537 Y101.474 E6.63348
G1 X49.669 Y100.545 E6.65221
G1 X49.879 Y99.631 E6.67092
G1 X50.167 Y98.739 E6.68963
G1 X50.529 Y97.874 E6.70834
G1 X50.964 Y97.043 E6.72706
G1 X51.468 Y96.252 E6.74578
G1 X52.038 Y95.507 E6.7645
G1 X52.669 Y94.813 E6.78321
G1 X53.357 Y94.175 E6.80194
G1 X54.096 Y93.599 E6.82064
G1 X54.882 Y93.087 E6.83936
G0 F6000 X55.262 Y93.33
G1 F1200 X56.082 Y92.911 E6.85773
G1 X56.935 Y92.566 E6.8761
G1 X57.815 Y92.295 E6.89447
G1 X58.715 Y92.103 E6.91284
G1 X59.629 Y91.989 E6.93122
G1 X60.187 Y91.958 E6.94237
G1 X60.508 Y91.949 E6.94878
G1 X60.805 Y91.945 E6.95471
G1 X63.964 Y91.945 E7.01775
G1 X66.589 Y91.908 E7.07014
G1 X69.097 Y91.801 E7.12023
G1 X71.617 Y91.623 E7.17065
G1 X74.112 Y91.375 E7.22068
G1 X76.8 Y91.03 E7.27476
G1 X77.981 Y90.861 E7.29857
G1 X79.187 Y90.758 E7.32273
G1 X79.507 Y90.749 E7.32912
G1 X79.805 Y90.745 E7.33506
G1 X85.795 Y90.745 E7.4546
G1 X88.42 Y90.708 E7.50699
G1 X90.928 Y90.601 E7.55709
G1 X93.416 Y90.425 E7.60686
G1 X96.175 Y90.15 E7.66219
G1 X97.28 Y90.023 E7.68439
G1 X98.187 Y89.958 E7.70253
G1 X98.506 Y89.949 E7.7089
G1 X98.805 Y89.945 E7.71487
G1 X101.964 Y89.945 E7.77791
G1 X104.589 Y89.908 E7.8303
G1 X107.097 Y89.801 E7.8804
G1 X109.617 Y89.623 E7.93081
G1 X112.112 Y89.375 E7.98085
G1 X114.8 Y89.03 E8.03493
G1 X115.981 Y88.861 E8.05874
G1 X117.187 Y88.758 E8.08289
G1 X117.507 Y88.749 E8.08928
G1 X117.805 Y88.745 E8.09523
G1 X123.795 Y88.745 E8.21477
G1 X126.42 Y88.708 E8.26716
G1 X128.928 Y88.601 E8.31725
G1 X131.416 Y88.425 E8.36703
G1 X134.175 Y88.15 E8.42236
G1 X135.28 Y88.023 E8.44455
G1 X136.187 Y87.958 E8.4627
G1 X136.506 Y87.949 E8.46907
G1 X136.805 Y87.945 E8.47504
G1 X139.964 Y87.945 E8.53808
G1 X142.589 Y87.908 E8.59047
G1 X145.097 Y87.801 E8.64056
G1 X147.617 Y87.623 E8.69098
G1 X150.112 Y87.375 E8.74101
G1 X152.8 Y87.03 E8.7951
G1 X153.981 Y86.861 E8.8189
G1 X155.187 Y86.758 E8.84306
G1 X155.507 Y86.749 E8.84945
G1 X155.805 Y86.745 E8.85539
G1 X173.768 Y86.745 E9.21386
G1 X174.618 Y86.756 E9.23083
G1 X175.537 Y86.809 E9.2492
G1 X176.448 Y86.942 E9.26757
G1 X177.344 Y87.153 E9.28594
G1 X178.218 Y87.441 E9.30431
G1 X179.065 Y87.804 E9.3227
G1 X179.876 Y88.239 E9.34106
G1 X180.646 Y88.743 E9.35943
G1 X181.37 Y89.312 E9.3778
G1 X182.042 Y89.942 E9.39618
G1 X182.657 Y90.627 E9.41456
G1 X183.21 Y91.363 E9.43293
G1 X183.697 Y92.144 E9.45129
G1 X184.114 Y92.965 E9.46967
G1 X184.459 Y93.819 E9.48805
G1 X184.728 Y94.699 E9.50642
G1 X184.92 Y95.6 E9.5248
G1 X185.033 Y96.513 E9.54316
G1 X185.062 Y97.057 E9.55403
G1 X185.071 Y97.377 E9.56042
G1 X185.075 Y97.675 E9.56637
G1 X185.074 Y101.762 E9.64793
G1 X185.068 Y102.185 E9.65637
G1 X185.085 Y104.475 E9.70207
G1 X185.07 Y104.893 E9.71042
G1 X185.075 Y105.581 E9.72415
G1 X185.074 Y106.748 E9.74743
G1 X185.065 Y107.386 E9.76017
G1 X185.058 Y109.427 E9.8009
G1 X185.061 Y109.813 E9.8086
G1 X185.06 Y113.919 E9.89054
G1 X185.054 Y114.345 E9.89904
G1 X185.07 Y116.637 E9.94478
G1 X185.056 Y117.021 E9.95245
G1 X185.061 Y117.738 E9.96676
G1 X185.06 Y118.912 E9.99019
G1 X185.05 Y119.639 E10.0047
G1 X184.997 Y120.558 E10.02307
G1 X184.865 Y121.469 E10.04144
G1 X184.654 Y122.365 E10.05981
G1 X184.367 Y123.24 E10.07819
G1 X184.004 Y124.086 E10.09656
G1 X183.57 Y124.898 E10.11493
G1 X183.066 Y125.669 E10.13331
G1 X182.498 Y126.393 E10.15168
G1 X181.869 Y127.065 E10.17005
G1 X181.184 Y127.68 E10.18842
G1 X180.448 Y128.233 E10.20679
G1 X179.667 Y128.721 E10.22517
G1 X178.847 Y129.139 E10.24353
G1 X177.993 Y129.484 E10.26191
G1 X177.113 Y129.753 E10.28028
G1 X176.212 Y129.946 E10.29867
G1 X175.299 Y130.059 E10.31702
G1 X174.749 Y130.089 E10.32802
G1 X174.429 Y130.098 E10.33441
G1 X174.131 Y130.102 E10.34035
G1 X172.738 Y130.102 E10.36815
G1 X170.113 Y130.139 E10.42054
G1 X167.605 Y130.246 E10.47064
G1 X165.085 Y130.424 E10.52105
G1 X162.57 Y130.673 E10.57149
G1 X160.076 Y130.993 E10.62166
G1 X157.209 Y131.446 E10.67959
G1 X156.296 Y131.559 E10.69795
G1 X155.749 Y131.589 E10.70888
G1 X155.43 Y131.598 E10.71525
G1 X155.131 Y131.602 E10.72122
G1 X153.738 Y131.602 E10.74901
G1 X151.113 Y131.639 E10.8014
G1 X148.605 Y131.746 E10.8515
G1 X146.085 Y131.924 E10.90191
G1 X143.57 Y132.173 E10.95235
G1 X141.076 Y132.493 E11.00253
G1 X138.209 Y132.946 E11.06045
G1 X137.296 Y133.059 E11.07881
G1 X136.749 Y133.089 E11.08974
G1 X136.43 Y133.098 E11.09611
G1 X136.131 Y133.102 E11.10208
G1 X134.738 Y133.102 E11.12988
G1 X132.113 Y133.139 E11.18227
G1 X129.605 Y133.246 E11.23236
G1 X127.085 Y133.424 E11.28278
G1 X124.57 Y133.673 E11.33321
G1 X122.076 Y133.993 E11.38339
G1 X119.209 Y134.446 E11.44132
G1 X118.296 Y134.559 E11.45967
G1 X117.749 Y134.589 E11.47061
G1 X117.43 Y134.598 E11.47698
G1 X117.131 Y134.602 E11.48294
G1 X115.738 Y134.602 E11.51074
G1 X113.113 Y134.639 E11.56313
G1 X110.605 Y134.746 E11.61323
G1 X108.085 Y134.924 E11.66364
G1 X105.57 Y135.173 E11.71408
G1 X103.076 Y135.493 E11.76425
G1 X100.209 Y135.946 E11.82218
G1 X99.296 Y136.059 E11.84054
G1 X98.749 Y136.089 E11.85147
G1 X98.43 Y136.098 E11.85784
G1 X98.131 Y136.102 E11.86381
G1 X61.031 Y136.101 E12.60418
G1 X60.333 Y136.092 E12.61811
G1 X59.414 Y136.04 E12.63648
G1 X58.503 Y135.909 E12.65484
G1 X57.607 Y135.699 E12.67321
G1 X56.732 Y135.412 E12.69158
G1 X55.885 Y135.05 E12.70997
G1 X55.073 Y134.616 E12.72834
G1 X54.302 Y134.114 E12.7467
G1 X53.577 Y133.546 E12.76508
G1 X52.904 Y132.917 E12.78346
G1 X52.289 Y132.233 E12.80182
G1 X51.735 Y131.498 E12.82019
G1 X51.247 Y130.717 E12.83857
G1 X50.828 Y129.897 E12.85694
G1 X50.482 Y129.044 E12.87531
G1 X50.212 Y128.164 E12.89368
G1 X50.019 Y127.263 E12.91207
G1 X49.905 Y126.35 E12.93043
G1 X49.874 Y125.776 E12.9419
G1 X49.865 Y125.439 E12.94863
G1 X49.861 Y125.156 E12.95428
G1 X49.862 Y124.045 E12.97645
G1 X49.874 Y123.222 E12.99287
G1 X49.878 Y120.758 E13.04205
G1 X49.861 Y119.211 E13.07292
G1 X49.862 Y116.023 E13.13654
G1 X49.874 Y115.145 E13.15406
G1 X49.882 Y113.226 E13.19236
G1 X49.875 Y112.215 E13.21254
G1 X49.876 Y111.122 E13.23435
G1 X49.888 Y110.273 E13.25129
G1 X49.892 Y107.818 E13.30028
G1 X49.875 Y106.295 E13.33068
G1 X49.876 Y103.105 E13.39434
G1 X49.885 Y102.416 E13.40809
G1 X49.937 Y101.496 E13.42648
G1 X50.068 Y100.585 E13.44485
G1 X50.279 Y99.689 E13.46322
G1 X50.566 Y98.814 E13.48159
G1 X50.928 Y97.968 E13.49996
G1 X51.362 Y97.156 E13.51833
G1 X51.864 Y96.384 E13.53671
G1 X52.432 Y95.66 E13.55507
G1 X53.061 Y94.987 E13.57345
G1 X53.746 Y94.372 E13.59182
G1 X54.481 Y93.818 E13.61019
G1 X55.262 Y93.33 E13.62857
G0 F6000 X55.639 Y93.578
G1 F1200 X56.452 Y93.185 E13.64659
G1 X57.297 Y92.865 E13.66462
G1 X58.167 Y92.621 E13.68265
G1 X59.054 Y92.455 E13.70066
G1 X60.198 Y92.358 E13.72357
G1 X60.519 Y92.349 E13.72998
G1 X60.805 Y92.345 E13.73569
G1 X63.97 Y92.345 E13.79885
G1 X66.576 Y92.308 E13.85086
G1 X69.141 Y92.199 E13.9021
G1 X71.648 Y92.021 E13.95225
G1 X74.169 Y91.772 E14.00281
G1 X76.842 Y91.428 E14.05659
G1 X78.038 Y91.257 E14.0807
G1 X79.198 Y91.158 E14.10393
G1 X79.518 Y91.149 E14.11032
G1 X79.805 Y91.145 E14.11605
G1 X85.801 Y91.145 E14.2357
G1 X88.407 Y91.108 E14.28772
G1 X90.972 Y90.999 E14.33895
G1 X93.451 Y90.823 E14.38854
G1 X96.193 Y90.55 E14.44353
G1 X97.326 Y90.42 E14.46629
G1 X98.198 Y90.358 E14.48374
G1 X98.517 Y90.349 E14.49011
G1 X98.805 Y90.345 E14.49586
G1 X101.97 Y90.345 E14.55902
G1 X104.576 Y90.308 E14.61103
G1 X107.141 Y90.199 E14.66226
G1 X109.648 Y90.021 E14.71242
G1 X112.169 Y89.772 E14.76297
G1 X114.842 Y89.428 E14.81675
G1 X116.038 Y89.257 E14.84086
G1 X117.198 Y89.158 E14.8641
G1 X117.518 Y89.149 E14.87048
G1 X117.805 Y89.145 E14.87621
G1 X123.801 Y89.145 E14.99587
G1 X126.407 Y89.108 E15.04788
G1 X128.972 Y88.999 E15.09911
G1 X131.451 Y88.823 E15.14871
G1 X134.193 Y88.55 E15.2037
G1 X135.326 Y88.42 E15.22646
G1 X136.198 Y88.358 E15.2439
G1 X136.517 Y88.349 E15.25027
G1 X136.805 Y88.345 E15.25602
G1 X139.97 Y88.345 E15.31918
G1 X142.576 Y88.308 E15.37119
G1 X145.141 Y88.199 E15.42243
G1 X147.648 Y88.021 E15.47258
G1 X150.169 Y87.772 E15.52314
G1 X152.842 Y87.428 E15.57692
G1 X154.038 Y87.257 E15.60103
G1 X155.198 Y87.158 E15.62426
G1 X155.518 Y87.149 E15.63065
G1 X155.805 Y87.145 E15.63638
G1 X173.768 Y87.145 E15.99485
G1 X174.612 Y87.156 E16.01169
G1 X175.514 Y87.209 E16.02972
G1 X176.407 Y87.341 E16.04774
G1 X177.285 Y87.552 E16.06576
G1 X178.141 Y87.84 E16.08378
G1 X178.968 Y88.202 E16.1018
G1 X179.76 Y88.637 E16.11983
G1 X180.511 Y89.139 E16.13786
G1 X181.214 Y89.706 E16.15588
G1 X181.864 Y90.333 E16.1739
G1 X182.456 Y91.015 E16.19193
G1 X182.986 Y91.746 E16.20994
G1 X183.448 Y92.522 E16.22797
G1 X183.841 Y93.335 E16.24599
G1 X184.159 Y94.18 E16.26401
G1 X184.402 Y95.05 E16.28203
G1 X184.567 Y95.938 E16.30006
G1 X184.662 Y97.068 E16.32269
G1 X184.671 Y97.388 E16.32907
G1 X184.675 Y97.675 E16.3348
G1 X184.674 Y101.756 E16.41624
G1 X184.668 Y102.185 E16.42481
G1 X184.685 Y104.478 E16.47057
G1 X184.67 Y104.89 E16.47879
G1 X184.675 Y105.584 E16.49264
G1 X184.674 Y106.742 E16.51575
G1 X184.665 Y107.378 E16.52845
G1 X184.658 Y109.43 E16.5694
G1 X184.661 Y109.816 E16.5771
G1 X184.66 Y113.913 E16.65886
G1 X184.654 Y114.345 E16.66748
G1 X184.67 Y116.64 E16.71328
G1 X184.656 Y117.018 E16.72083
G1 X184.661 Y117.741 E16.73526
G1 X184.66 Y118.906 E16.75851
G1 X184.65 Y119.633 E16.77302
