;FLAVOR:Marlin
;TIME:1787
;Filament used: 0.722495m
;Layer height: 0.16
;MINX:96.219
;MINY:91.136
;MINZ:0.2
;MAXX:138.781
;MAXY:143.864
;MAXZ:5.88
;Generated with Cura_SteamEngine 4.8.0
M82 ;absolute extrusion mode
; Ender 3 Custom Start G-code
M117 Getting the bed up to temp!
M140 S50 ; Set Heat Bed temperature
M190 S50 ; Wait for Heat Bed temperature
M117 Pre-heating the extruder!
M104 S160; start warming extruder to 160
G28 ; Home all axes
M117 Auto bed-level GO!
G29 ; Auto bed-level (BL-Touch)
G92 E0 ; Reset Extruder
M117 Getting the extruder up to temp!
M104 S200 ; Set Extruder temperature
M109 S200 ; Wait for Extruder temperature
G1 Z1.0 F3000 ; move z up little to prevent scratching of surface
G1 X0.1 Y20 Z0.3 F5000.0 ; move to start-line position
M117 LET THE PURGE BEGIN!
G1 X0.1 Y200.0 Z0.3 F1500.0 E15 ; draw 1st line
G1 X0.4 Y200.0 Z0.3 F5000.0 ; move to side a little
G1 X0.4 Y20 Z0.3 F1500.0 E30 ; draw 2nd line
G92 E0 ; reset extruder
G1 Z1.0 F3000 ; move z up little to prevent scratching of surface
M117 Autobots! Roll Out!
; End of custom start GCode
G92 E0
G92 E0
G1 F2700 E-5
;LAYER_COUNT:31
;LAYER:0
M107
G0 F6000 X101.747 Y96.524 Z0.2
;TYPE:SKIRT
G1 F2700 E0
G1 F1200 X102.261 Y96.017 E0.02401
G1 X102.866 Y95.458 E0.05141
G1 X104.03 Y94.413 E0.10344
G1 X104.674 Y93.851 E0.13187
G1 X105.406 Y93.266 E0.16303
G1 X106.186 Y92.745 E0.19423
G1 X107.008 Y92.292 E0.22545
G1 X107.865 Y91.911 E0.25664
G1 X108.751 Y91.605 E0.28782
G1 X109.661 Y91.375 E0.31904
G1 X110.586 Y91.224 E0.35021
G1 X111.735 Y91.146 E0.38851
G1 X112.502 Y91.136 E0.41403
G1 X114.806 Y91.136 E0.49066
G1 X115.686 Y91.148 E0.51993
G1 X116.623 Y91.203 E0.55115
G1 X117.218 Y91.279 E0.5711
G1 X118.048 Y91.409 E0.59904
G1 X119.167 Y91.6 E0.6368
G1 X121.698 Y91.96 E0.72182
G1 X123.709 Y92.19 E0.78915
G1 X124.199 Y92.257 E0.8056
G1 X124.405 Y92.29 E0.81253
G1 X125.324 Y92.478 E0.84373
G1 X126.223 Y92.743 E0.87491
G1 X127.097 Y93.084 E0.90611
G1 X127.939 Y93.499 E0.93733
G1 X128.742 Y93.983 E0.96852
G1 X129.165 Y94.278 E0.98567
G1 X129.509 Y94.536 E0.99997
G1 X130.012 Y94.93 E1.02122
G1 X132.904 Y97.247 E1.14447
G1 X133.581 Y97.806 E1.17367
G1 X134.278 Y98.434 E1.20488
G1 X134.918 Y99.119 E1.23606
G1 X135.498 Y99.856 E1.26725
G1 X135.767 Y100.248 E1.28306
G1 X136.959 Y102.065 E1.35534
G1 X137.44 Y102.871 E1.38656
G1 X137.85 Y103.714 E1.41774
G1 X138.187 Y104.589 E1.44893
G1 X138.448 Y105.49 E1.48013
G1 X138.632 Y106.41 E1.51133
G1 X138.736 Y107.342 E1.54252
G1 X138.76 Y107.885 E1.5606
G1 X138.779 Y108.861 E1.59307
G1 X138.781 Y109.075 E1.60019
G1 X138.78 Y109.769 E1.62327
G1 X138.769 Y110.475 E1.64675
G1 X138.714 Y111.412 E1.67797
G1 X138.638 Y112.001 E1.69772
G1 X138.564 Y112.473 E1.71361
G1 X138.192 Y115.089 E1.8015
G1 X137.909 Y117.572 E1.88462
G1 X137.696 Y120.071 E1.96804
G1 X137.553 Y122.599 E2.05225
G1 X137.481 Y125.082 E2.13487
G1 X137.489 Y128.188 E2.23818
G1 X137.528 Y130.245 E2.30661
G1 X137.529 Y130.611 E2.31878
G1 X137.519 Y131.314 E2.34216
G1 X137.466 Y132.251 E2.37338
G1 X137.333 Y133.179 E2.40456
G1 X137.121 Y134.093 E2.43577
G1 X136.833 Y134.985 E2.46694
G1 X136.469 Y135.85 E2.49816
G1 X136.033 Y136.68 E2.52934
G1 X135.528 Y137.471 E2.56055
G1 X134.958 Y138.215 E2.59172
G1 X134.326 Y138.908 E2.62292
G1 X133.672 Y139.516 E2.65262
G1 X133.125 Y139.982 E2.67652
G1 X132.457 Y140.535 E2.70536
G1 X131.63 Y141.236 E2.74142
G1 X130.889 Y141.812 E2.77264
G1 X130.102 Y142.322 E2.80383
G1 X129.275 Y142.763 E2.835
G1 X128.413 Y143.133 E2.8662
G1 X127.522 Y143.427 E2.89741
G1 X126.61 Y143.645 E2.92859
G1 X125.683 Y143.784 E2.95977
G1 X124.722 Y143.844 E2.9918
G1 X123.761 Y143.862 E3.02377
G1 X123.555 Y143.864 E3.03062
G1 X117.373 Y143.863 E3.23623
G1 X116.669 Y143.853 E3.25965
G1 X115.732 Y143.8 E3.29086
G1 X114.804 Y143.667 E3.32204
G1 X113.89 Y143.455 E3.35325
G1 X112.998 Y143.167 E3.38443
G1 X111.885 Y142.682 E3.42481
G1 X111.355 Y142.415 E3.44455
G1 X109.738 Y141.571 E3.50521
G1 X107.468 Y140.467 E3.58917
G1 X105.194 Y139.44 E3.67216
G1 X103.137 Y138.578 E3.74634
G1 X102.849 Y138.453 E3.75678
G1 X102.006 Y138.043 E3.78796
G1 X101.2 Y137.563 E3.81916
G1 X100.438 Y137.016 E3.85036
G1 X99.726 Y136.406 E3.88154
G1 X99.068 Y135.737 E3.91275
G1 X98.469 Y135.015 E3.94396
G1 X97.934 Y134.245 E3.97514
G1 X97.467 Y133.432 E4.00632
G1 X97.071 Y132.582 E4.03751
G1 X96.748 Y131.701 E4.06872
G1 X96.502 Y130.796 E4.09992
G1 X96.333 Y129.874 E4.13109
G1 X96.234 Y128.695 E4.17044
G1 X96.224 Y128.365 E4.18143
G1 X96.219 Y128.032 E4.1925
G1 X96.22 Y127.113 E4.22307
G1 X96.244 Y125.444 E4.27858
G1 X96.253 Y124.11 E4.32295
G1 X96.251 Y122.499 E4.37654
G1 X96.247 Y121.411 E4.41272
G1 X96.253 Y121.259 E4.41778
G1 X96.254 Y120.778 E4.43378
G1 X96.264 Y120.071 E4.4573
G1 X96.273 Y119.76 E4.46765
G1 X96.311 Y118.86 E4.49761
G1 X96.387 Y116.188 E4.58652
G1 X96.395 Y115.107 E4.62247
G1 X96.408 Y114.244 E4.65118
G1 X96.461 Y113.325 E4.68179
G1 X96.528 Y112.652 E4.70429
G1 X96.753 Y109.993 E4.79304
G1 X96.893 Y107.528 E4.87516
G1 X96.927 Y106.344 E4.91456
G1 X96.962 Y105.527 E4.94176
G1 X97.042 Y104.593 E4.97294
G1 X97.201 Y103.669 E5.00412
G1 X97.439 Y102.761 E5.03534
G1 X97.753 Y101.877 E5.06654
G1 X98.141 Y101.024 E5.09771
G1 X98.6 Y100.206 E5.12891
G1 X99.128 Y99.43 E5.16012
G1 X99.89 Y98.514 E5.19975
G1 X100.845 Y97.485 E5.24645
G1 X100.934 Y97.382 E5.25098
G1 X101.747 Y96.524 E5.29029
G0 F6000 X102.038 Y96.799
G1 F1200 X102.532 Y96.31 E5.31341
G1 X103.134 Y95.755 E5.34064
G1 X104.416 Y94.605 E5.39792
G1 X104.936 Y94.152 E5.42086
G1 X105.656 Y93.578 E5.45149
G1 X106.423 Y93.069 E5.4821
G1 X107.231 Y92.628 E5.51272
G1 X108.075 Y92.259 E5.54336
G1 X108.947 Y91.964 E5.57397
G1 X109.841 Y91.747 E5.60457
G1 X110.751 Y91.607 E5.63519
G1 X111.741 Y91.546 E5.66818
G1 X112.502 Y91.536 E5.6935
G1 X114.806 Y91.536 E5.77013
G1 X115.68 Y91.548 E5.7992
G1 X116.599 Y91.602 E5.82982
G1 X117.156 Y91.675 E5.8485
G1 X118.134 Y91.829 E5.88143
G1 X119.109 Y91.996 E5.91433
G1 X121.669 Y92.36 E6.00034
G1 X123.664 Y92.588 E6.06712
G1 X124.136 Y92.652 E6.08296
G1 X124.342 Y92.685 E6.0899
G1 X125.244 Y92.87 E6.12053
G1 X126.126 Y93.133 E6.15114
G1 X126.982 Y93.471 E6.18175
G1 X127.806 Y93.882 E6.21238
G1 X128.928 Y94.6 E6.25668
G1 X129.263 Y94.852 E6.27062
G1 X129.762 Y95.243 E6.29171
G1 X132.782 Y97.664 E6.42045
G1 X133.326 Y98.114 E6.44393
G1 X134.01 Y98.731 E6.47457
G1 X134.637 Y99.405 E6.50518
G1 X135.433 Y100.468 E6.54935
G1 X136.625 Y102.285 E6.62163
G1 X137.096 Y103.076 E6.65225
G1 X137.497 Y103.905 E6.68288
G1 X137.824 Y104.765 E6.71348
G1 X138.075 Y105.651 E6.74411
G1 X138.249 Y106.555 E6.77473
G1 X138.36 Y107.893 E6.81938
G1 X138.379 Y108.869 E6.85185
G1 X138.381 Y109.075 E6.8587
G1 X138.38 Y109.763 E6.88159
G1 X138.369 Y110.469 E6.90507
G1 X138.314 Y111.388 E6.93569
G1 X138.243 Y111.939 E6.95417
G1 X138.166 Y112.432 E6.97077
G1 X137.797 Y115.019 E7.05768
G1 X137.512 Y117.526 E7.1416
G1 X137.296 Y120.063 E7.22629
G1 X137.154 Y122.566 E7.30967
G1 X137.081 Y125.104 E7.39412
G1 X137.089 Y128.197 E7.49699
G1 X137.128 Y130.253 E7.56539
G1 X137.129 Y130.606 E7.57713
G1 X137.119 Y131.309 E7.60051
G1 X137.066 Y132.228 E7.63113
G1 X136.933 Y133.139 E7.66175
G1 X136.722 Y134.035 E7.69237
G1 X136.434 Y134.909 E7.72298
G1 X136.071 Y135.756 E7.75362
G1 X135.636 Y136.567 E7.78423
G1 X135.132 Y137.338 E7.81487
G1 X134.564 Y138.062 E7.84548
G1 X133.934 Y138.734 E7.87611
G1 X133.412 Y139.212 E7.89966
G1 X132.87 Y139.674 E7.92334
G1 X132.156 Y140.265 E7.95417
G1 X131.371 Y140.931 E7.98841
G1 X130.644 Y141.495 E8.01901
G1 X129.87 Y141.994 E8.04964
G1 X129.056 Y142.424 E8.08026
G1 X128.208 Y142.782 E8.11088
G1 X127.332 Y143.065 E8.1415
G1 X126.434 Y143.271 E8.17214
G1 X125.523 Y143.398 E8.20273
G1 X124.715 Y143.444 E8.22965
G1 X123.754 Y143.462 E8.26162
G1 X123.555 Y143.464 E8.26824
G1 X117.378 Y143.463 E8.47369
G1 X116.674 Y143.453 E8.4971
G1 X115.755 Y143.4 E8.52772
G1 X114.844 Y143.267 E8.55834
G1 X113.948 Y143.056 E8.58896
G1 X113.074 Y142.768 E8.61956
G1 X112.065 Y142.325 E8.65622
G1 X111.54 Y142.06 E8.67578
G1 X109.919 Y141.214 E8.73659
G1 X107.629 Y140.101 E8.82128
G1 X105.365 Y139.077 E8.90392
G1 X103.297 Y138.211 E8.97849
G1 X103.009 Y138.086 E8.98893
G1 X102.181 Y137.683 E9.01956
G1 X101.391 Y137.21 E9.05019
G1 X100.645 Y136.67 E9.08082
G1 X99.949 Y136.067 E9.11145
G1 X99.308 Y135.406 E9.14207
G1 X98.727 Y134.692 E9.17269
G1 X98.21 Y133.931 E9.20329
G1 X97.76 Y133.127 E9.23393
G1 X97.383 Y132.288 E9.26452
G1 X97.079 Y131.418 E9.29518
G1 X96.852 Y130.526 E9.32579
G1 X96.704 Y129.618 E9.35639
G1 X96.634 Y128.683 E9.38757
G1 X96.624 Y128.353 E9.39855
G1 X96.619 Y128.032 E9.40923
G1 X96.62 Y127.119 E9.4396
G1 X96.644 Y125.45 E9.49512
G1 X96.653 Y124.113 E9.53959
G1 X96.651 Y122.498 E9.5933
G1 X96.647 Y121.41 E9.62949
G1 X96.653 Y121.261 E9.63445
G1 X96.654 Y120.784 E9.65031
G1 X96.664 Y120.077 E9.67383
G1 X96.673 Y119.777 E9.68381
G1 X96.711 Y118.889 E9.71337
G1 X96.787 Y116.201 E9.80281
G1 X96.795 Y115.113 E9.839
G1 X96.808 Y114.25 E9.86771
G1 X96.859 Y113.364 E9.89723
G1 X96.93 Y112.651 E9.92106
G1 X97.15 Y110.051 E10.00784
G1 X97.293 Y107.526 E10.09196
G1 X97.327 Y106.361 E10.13072
G1 X97.362 Y105.544 E10.15792
G1 X97.441 Y104.627 E10.18853
G1 X97.6 Y103.72 E10.21916
G1 X97.836 Y102.83 E10.24979
G1 X98.149 Y101.965 E10.28038
G1 X98.536 Y101.129 E10.31102
G1 X98.994 Y100.331 E10.34162
G1 X99.52 Y99.575 E10.37226
G1 X100.183 Y98.786 E10.40653
G1 X101.095 Y97.803 E10.45113
G1 X101.225 Y97.657 E10.45763
G1 X102.038 Y96.799 E10.49695
G0 F6000 X102.328 Y97.074
G1 F1200 X102.804 Y96.604 E10.5192
G1 X103.401 Y96.053 E10.54622
G1 X104.679 Y94.907 E10.60331
G1 X105.199 Y94.454 E10.62625
G1 X105.906 Y93.892 E10.65629
G1 X106.659 Y93.394 E10.68631
G1 X107.454 Y92.965 E10.71636
G1 X108.283 Y92.607 E10.74639
G1 X109.141 Y92.325 E10.77643
G1 X110.02 Y92.119 E10.80646
G1 X110.915 Y91.993 E10.83652
G1 X111.747 Y91.946 E10.86424
G1 X112.502 Y91.936 E10.88935
G1 X114.806 Y91.936 E10.96598
G1 X115.674 Y91.948 E10.99486
G1 X116.576 Y92.002 E11.02491
G1 X117.094 Y92.07 E11.04229
G1 X118.067 Y92.223 E11.07505
G1 X119.097 Y92.399 E11.1098
G1 X121.566 Y92.75 E11.19275
G1 X123.618 Y92.985 E11.26144
G1 X124.072 Y93.047 E11.27668
G1 X124.278 Y93.08 E11.28362
G1 X125.163 Y93.263 E11.31368
G1 X126.028 Y93.522 E11.34371
G1 X126.866 Y93.858 E11.37374
G1 X127.672 Y94.266 E11.40379
G1 X128.692 Y94.923 E11.44414
G1 X129.016 Y95.167 E11.45763
G1 X129.512 Y95.555 E11.47858
G1 X132.404 Y97.872 E11.60183
G1 X133.071 Y98.423 E11.6306
G1 X133.741 Y99.028 E11.66063
G1 X134.355 Y99.691 E11.69068
G1 X135.099 Y100.687 E11.73203
G1 X136.291 Y102.504 E11.80431
G1 X136.752 Y103.28 E11.83433
G1 X137.143 Y104.094 E11.86437
G1 X137.46 Y104.94 E11.89441
G1 X137.702 Y105.81 E11.92445
G1 X137.865 Y106.698 E11.95448
G1 X137.96 Y107.9 E11.99458
G1 X137.979 Y108.876 E12.02705
G1 X137.981 Y109.075 E12.03367
G1 X137.98 Y109.757 E12.05635
G1 X137.969 Y110.463 E12.07984
G1 X137.915 Y111.364 E12.10986
G1 X137.848 Y111.878 E12.1271
G1 X137.768 Y112.392 E12.1444
G1 X137.403 Y114.954 E12.23047
G1 X137.111 Y117.518 E12.3163
G1 X136.899 Y120.007 E12.39939
G1 X136.754 Y122.567 E12.48467
G1 X136.681 Y125.093 E12.56872
G1 X136.689 Y128.206 E12.67226
G1 X136.728 Y130.261 E12.74062
G1 X136.729 Y130.6 E12.7519
G1 X136.719 Y131.303 E12.77528
G1 X136.666 Y132.205 E12.80533
G1 X136.534 Y133.098 E12.83536
G1 X136.323 Y133.976 E12.86539
G1 X136.035 Y134.832 E12.89543
G1 X135.673 Y135.659 E12.92545
G1 X135.239 Y136.451 E12.95549
G1 X134.737 Y137.202 E12.98554
G1 X134.17 Y137.905 E13.01558
G1 X133.543 Y138.555 E13.04561
G1 X133.152 Y138.908 E13.06314
G1 X132.743 Y139.258 E13.08104
G1 X131.994 Y139.879 E13.1134
G1 X131.113 Y140.626 E13.15182
G1 X130.399 Y141.179 E13.18186
G1 X129.638 Y141.666 E13.21191
G1 X128.838 Y142.085 E13.24194
G1 X128.004 Y142.431 E13.27197
G1 X127.142 Y142.702 E13.30203
G1 X126.26 Y142.896 E13.33206
G1 X125.365 Y143.011 E13.36208
G1 X124.707 Y143.044 E13.38399
G1 X123.555 Y143.064 E13.42231
G1 X117.384 Y143.063 E13.62756
G1 X116.68 Y143.053 E13.65098
G1 X115.779 Y143 E13.681
G1 X114.885 Y142.868 E13.71105
G1 X114.007 Y142.657 E13.74109
G1 X113.151 Y142.369 E13.77113
G1 X112.244 Y141.968 E13.80411
G1 X111.725 Y141.705 E13.82346
G1 X110.1 Y140.857 E13.88443
G1 X107.819 Y139.748 E13.96878
G1 X105.518 Y138.708 E14.05277
G1 X103.456 Y137.844 E14.12713
G1 X103.168 Y137.719 E14.13757
G1 X102.356 Y137.323 E14.16762
G1 X101.583 Y136.857 E14.19764
G1 X100.853 Y136.324 E14.2277
G1 X100.174 Y135.729 E14.25773
G1 X99.55 Y135.076 E14.28777
G1 X98.986 Y134.37 E14.31782
G1 X98.487 Y133.618 E14.34784
G1 X98.057 Y132.824 E14.37787
G1 X97.698 Y131.995 E14.40792
G1 X97.414 Y131.138 E14.43795
G1 X97.207 Y130.259 E14.46799
G1 X97.078 Y129.365 E14.49803
G1 X97.034 Y128.671 E14.52116
G1 X97.024 Y128.341 E14.53214
G1 X97.019 Y128.032 E14.54242
G1 X97.02 Y127.124 E14.57262
G1 X97.044 Y125.455 E14.62813
G1 X97.053 Y124.116 E14.67267
G1 X97.051 Y122.498 E14.72648
G1 X97.047 Y121.409 E14.76271
G1 X97.053 Y121.263 E14.76757
G1 X97.054 Y120.79 E14.7833
G1 X97.064 Y120.083 E14.80681
G1 X97.072 Y119.794 E14.81643
G1 X97.112 Y118.847 E14.84796
G1 X97.187 Y116.215 E14.93553
G1 X97.195 Y115.119 E14.97199
G1 X97.208 Y114.256 E15.00069
G1 X97.257 Y113.404 E15.02908
G1 X97.324 Y112.732 E15.05154
G1 X97.549 Y110.069 E15.14043
G1 X97.694 Y107.511 E15.22564
G1 X97.726 Y106.378 E15.26334
G1 X97.761 Y105.561 E15.29054
G1 X97.84 Y104.662 E15.32056
G1 X97.998 Y103.773 E15.35059
G1 X98.234 Y102.901 E15.38063
G1 X98.546 Y102.053 E15.41069
G1 X98.931 Y101.237 E15.4407
G1 X99.388 Y100.458 E15.47073
G1 X99.912 Y99.722 E15.50078
G1 X100.476 Y99.058 E15.52976
G1 X101.448 Y98.013 E15.57723
G1 X101.515 Y97.932 E15.58073
G1 X102.328 Y97.074 E15.62004
G0 F6000 X117.784 Y111.459
G1 F1200 X117.957 Y111.373 E15.62646
G1 X118.195 Y111.392 E15.63441
G1 X118.381 Y111.548 E15.64248
G1 X118.442 Y111.752 E15.64956
G1 X118.383 Y111.972 E15.65714
G1 X118.198 Y112.128 E15.66519
G1 X117.985 Y112.155 E15.67233
G1 X117.775 Y112.054 E15.68008
G1 X117.656 Y111.849 E15.68796
G1 X117.657 Y111.668 E15.69398
G1 X117.784 Y111.459 E15.70212
G0 F6000 X117.463 Y111.214
G1 F1200 X117.664 Y111.059 E15.71056
G1 X117.952 Y110.968 E15.7206
G1 X118.013 Y110.963 E15.72264
G1 X118.297 Y111.004 E15.73218
G1 X118.546 Y111.14 E15.74162
G1 X118.718 Y111.332 E15.75019
G1 X118.822 Y111.578 E15.75908
G1 X118.84 Y111.833 E15.76758
G1 X118.777 Y112.081 E15.77609
G1 X118.617 Y112.317 E15.78557
G1 X118.41 Y112.47 E15.79413
G1 X118.108 Y112.557 E15.80459
G1 X117.853 Y112.537 E15.81309
G1 X117.615 Y112.435 E15.82171
G1 X117.395 Y112.224 E15.83185
G1 X117.276 Y111.978 E15.84093
G1 X117.248 Y111.703 E15.85013
G1 X117.313 Y111.442 E15.85907
G1 X117.463 Y111.214 E15.86815
G0 F6000 X117.296 Y110.825
G1 F1200 X117.598 Y110.65 E15.87976
G1 X117.906 Y110.571 E15.89034
G1 X118.021 Y110.563 E15.89417
G1 X118.276 Y110.585 E15.90268
G1 X118.545 Y110.672 E15.91209
G1 X118.761 Y110.8 E15.92044
G1 X118.961 Y110.989 E15.92959
G1 X119.125 Y111.243 E15.93965
G1 X119.213 Y111.493 E15.94846
G1 X119.242 Y111.752 E15.95713
G1 X119.199 Y112.083 E15.96823
G1 X119.107 Y112.317 E15.97659
G1 X118.951 Y112.545 E15.98578
G1 X118.762 Y112.721 E15.99437
G1 X118.511 Y112.866 E16.00401
G1 X118.264 Y112.94 E16.01259
G1 X117.953 Y112.957 E16.02295
G1 X117.694 Y112.908 E16.03172
G1 X117.459 Y112.807 E16.04022
G1 X117.195 Y112.607 E16.05124
G1 X117.036 Y112.409 E16.05969
G1 X116.895 Y112.099 E16.07101
G1 X116.848 Y111.828 E16.08016
G1 X116.871 Y111.516 E16.09057
G1 X116.971 Y111.228 E16.10071
G1 X117.112 Y111.008 E16.1094
G1 X117.296 Y110.825 E16.11803
G0 F6000 X116.935 Y110.61
G1 F1200 X117.204 Y110.401 E16.12936
G1 X117.434 Y110.285 E16.13793
G1 X117.741 Y110.192 E16.14859
G1 X118.01 Y110.163 E16.15759
G1 X118.302 Y110.184 E16.16733
G1 X118.63 Y110.274 E16.17864
G1 X118.871 Y110.393 E16.18758
G1 X119.146 Y110.604 E16.19911
G1 X119.318 Y110.795 E16.20766
G1 X119.497 Y111.094 E16.21925
G1 X119.585 Y111.334 E16.22775
G1 X119.634 Y111.582 E16.23616
G1 X119.64 Y111.878 E16.24601
G1 X119.585 Y112.192 E16.25661
G1 X119.495 Y112.434 E16.2652
